(G-CODE GENERATED BY FLATCAM v8.994 - www.flatcam.org - Version Date: 2020/11/7)

(Name: Gerber_BottomLayer.GBL_iso_combined_cnc)
(Type: G-code from Geometry)
(Units: MM)

(Created on Friday, 05 March 2021 at 15:02)

(This preprocessor is used with a motion controller loaded with GRBL firmware.)
(It is configured to be compatible with almost any version of GRBL firmware.)

(TOOL DIAMETER: 0.334 mm)
(Feedrate_XY: 200.0 mm/min)
(Feedrate_Z: 60.0 mm/min)
(Feedrate rapids 1500.0 mm/min)

(Z_Cut: -0.25 mm)
(Z_Move: 2.0 mm)
(Z Start: None mm)
(Z End: 2.0 mm)
(X,Y End: None mm)
(Steps per circle: 64)
(Steps per circle: 64)
(Preprocessor Geometry: GRBL_11_no_M6)

(X range:   10.1557 ...   66.0837  mm)
(Y range:    8.3320 ...   59.4942  mm)

(Spindle Speed: 1000.0 RPM)
G21
G90
G17
G94


G01 F200.00

M5             
G00 Z2.0000
G00 X0.0000 Y0.0000                
T1
(MSG, Change to Tool Dia = 0.3340)
M0
G00 Z2.0000
        
M03 S1000.0
G01 F200.00
G00 X17.0044 Y10.0007
G01 F60.00
G01 Z-0.2500
G01 F200.00
G01 X17.0588 Y9.9277 F200.00
G01 X17.1357 Y9.8428 F200.00
G01 X17.2206 Y9.7659 F200.00
G01 X17.3126 Y9.6977 F200.00
G01 X17.4108 Y9.6388 F200.00
G01 X17.5143 Y9.5898 F200.00
G01 X17.6222 Y9.5513 F200.00
G01 X17.7333 Y9.5234 F200.00
G01 X17.8466 Y9.5066 F200.00
G01 X17.9609 Y9.5010 F200.00
G01 X18.0753 Y9.5066 F200.00
G01 X18.1886 Y9.5234 F200.00
G01 X18.2997 Y9.5513 F200.00
G01 X18.4075 Y9.5898 F200.00
G01 X18.5111 Y9.6388 F200.00
G01 X18.6093 Y9.6977 F200.00
G01 X18.7013 Y9.7659 F200.00
G01 X18.7861 Y9.8428 F200.00
G01 X18.8630 Y9.9277 F200.00
G01 X18.9313 Y10.0196 F200.00
G01 X18.9901 Y10.1179 F200.00
G01 X19.0391 Y10.2214 F200.00
G01 X19.0777 Y10.3292 F200.00
G01 X19.1055 Y10.4403 F200.00
G01 X19.1223 Y10.5536 F200.00
G01 X19.1279 Y10.6680 F200.00
G01 X19.1223 Y10.7824 F200.00
G01 X19.1055 Y10.8957 F200.00
G01 X19.0777 Y11.0068 F200.00
G01 X19.0391 Y11.1146 F200.00
G01 X18.9901 Y11.2181 F200.00
G01 X18.9313 Y11.3164 F200.00
G01 X18.8630 Y11.4083 F200.00
G01 X18.7918 Y11.4873 F200.00
G01 X18.7802 Y11.4988 F200.00
G01 X18.7013 Y11.5701 F200.00
G01 X18.6160 Y11.6336 F200.00
G01 X18.6024 Y11.6427 F200.00
G01 X18.5111 Y11.6972 F200.00
G01 X18.4075 Y11.7462 F200.00
G01 X18.3075 Y11.7822 F200.00
G01 X18.2918 Y11.7869 F200.00
G01 X18.1886 Y11.8126 F200.00
G01 X18.0835 Y11.8284 F200.00
G01 X18.0672 Y11.8300 F200.00
G01 X17.9609 Y11.8350 F200.00
G01 X17.8466 Y11.8294 F200.00
G01 X17.7413 Y11.8140 F200.00
G01 X17.7253 Y11.8108 F200.00
G01 X17.6222 Y11.7847 F200.00
G01 X17.5220 Y11.7491 F200.00
G01 X17.5069 Y11.7428 F200.00
G01 X17.4108 Y11.6972 F200.00
G01 X17.3126 Y11.6383 F200.00
G01 X17.2271 Y11.5751 F200.00
G01 X17.2144 Y11.5647 F200.00
G01 X17.1417 Y11.4988 F200.00
G01 X17.1301 Y11.4873 F200.00
G01 X17.0588 Y11.4083 F200.00
G01 X17.0044 Y11.3353 F200.00
G01 X15.4433 Y11.3353 F200.00
G01 X12.6592 Y14.1194 F200.00
G01 X12.6592 Y50.6506 F200.00
G01 X18.9993 Y56.9907 F200.00
G01 X25.0506 Y56.9907 F200.00
G01 X29.4301 Y52.6113 F200.00
G01 X29.4756 Y52.5702 F200.00
G01 X29.5215 Y52.5359 F200.00
G01 X29.5317 Y52.5290 F200.00
G01 X29.5773 Y52.5016 F200.00
G01 X29.5917 Y52.4939 F200.00
G01 X29.6436 Y52.4695 F200.00
G01 X29.7052 Y52.4475 F200.00
G01 X29.7688 Y52.4316 F200.00
G01 X29.8295 Y52.4224 F200.00
G01 X29.8417 Y52.4214 F200.00
G01 X29.8989 Y52.4187 F200.00
G01 X33.0739 Y52.4187 F200.00
G01 X33.1393 Y52.4220 F200.00
G01 X33.1960 Y52.4302 F200.00
G01 X33.2121 Y52.4334 F200.00
G01 X33.2597 Y52.4453 F200.00
G01 X33.2715 Y52.4487 F200.00
G01 X33.3216 Y52.4666 F200.00
G01 X33.3368 Y52.4729 F200.00
G01 X33.3885 Y52.4975 F200.00
G01 X33.4377 Y52.5268 F200.00
G01 X33.4513 Y52.5359 F200.00
G01 X33.4972 Y52.5702 F200.00
G01 X33.5428 Y52.6113 F200.00
G01 X35.1283 Y54.1967 F200.00
G01 X42.0686 Y54.1967 F200.00
G01 X47.7737 Y48.4916 F200.00
G01 X47.7737 Y25.6540 F200.00
G01 X47.7763 Y25.5968 F200.00
G01 X47.7779 Y25.5805 F200.00
G01 X47.7865 Y25.5238 F200.00
G01 X47.8002 Y25.4682 F200.00
G01 X47.8050 Y25.4525 F200.00
G01 X47.8245 Y25.3987 F200.00
G01 X47.8488 Y25.3468 F200.00
G01 X47.8565 Y25.3323 F200.00
G01 X47.8861 Y25.2833 F200.00
G01 X47.9201 Y25.2372 F200.00
G01 X47.9305 Y25.2245 F200.00
G01 X47.9691 Y25.1822 F200.00
G01 X52.4141 Y20.7372 F200.00
G01 X52.4626 Y20.6932 F200.00
G01 X52.5085 Y20.6589 F200.00
G01 X52.5222 Y20.6498 F200.00
G01 X52.5678 Y20.6225 F200.00
G01 X52.5787 Y20.6169 F200.00
G01 X52.6306 Y20.5925 F200.00
G01 X52.6765 Y20.5759 F200.00
G01 X52.6993 Y20.5453 F200.00
G01 X52.7069 Y20.5357 F200.00
G01 X52.7683 Y20.4679 F200.00
G01 X52.7769 Y20.4591 F200.00
G01 X52.8507 Y20.3924 F200.00
G01 X52.9340 Y20.3306 F200.00
G01 X53.0229 Y20.2773 F200.00
G01 X53.1092 Y20.2363 F200.00
G01 X53.1243 Y20.2300 F200.00
G01 X53.2143 Y20.1980 F200.00
G01 X53.3068 Y20.1747 F200.00
G01 X53.3229 Y20.1715 F200.00
G01 X53.4133 Y20.1581 F200.00
G01 X53.4256 Y20.1570 F200.00
G01 X53.5209 Y20.1526 F200.00
G01 X54.0330 Y20.1526 F200.00
G01 X54.1325 Y20.1576 F200.00
G01 X54.2310 Y20.1721 F200.00
G01 X54.2430 Y20.1747 F200.00
G01 X54.3356 Y20.1980 F200.00
G01 X54.4332 Y20.2330 F200.00
G01 X54.5269 Y20.2773 F200.00
G01 X54.6089 Y20.3262 F200.00
G01 X54.6226 Y20.3353 F200.00
G01 X54.6927 Y20.3873 F200.00
G01 X54.7053 Y20.3977 F200.00
G01 X54.7760 Y20.4620 F200.00
G01 X54.8402 Y20.5326 F200.00
G01 X54.8506 Y20.5453 F200.00
G01 X54.9073 Y20.6221 F200.00
G01 X54.9587 Y20.7074 F200.00
G01 X54.9643 Y20.7183 F200.00
G01 X55.0050 Y20.8047 F200.00
G01 X55.0373 Y20.8945 F200.00
G01 X55.0421 Y20.9102 F200.00
G01 X55.0633 Y20.9949 F200.00
G01 X55.0665 Y21.0110 F200.00
G01 X55.0803 Y21.1055 F200.00
G01 X55.0854 Y21.2090 F200.00
G01 X55.0803 Y21.3125 F200.00
G01 X55.0651 Y21.4151 F200.00
G01 X55.0399 Y21.5157 F200.00
G01 X55.0079 Y21.6056 F200.00
G01 X55.0016 Y21.6208 F200.00
G01 X54.9643 Y21.6997 F200.00
G01 X54.9566 Y21.7141 F200.00
G01 X54.9073 Y21.7959 F200.00
G01 X54.8456 Y21.8792 F200.00
G01 X54.7760 Y21.9560 F200.00
G01 X54.7053 Y22.0203 F200.00
G01 X54.6927 Y22.0307 F200.00
G01 X54.6159 Y22.0874 F200.00
G01 X54.5341 Y22.1367 F200.00
G01 X54.5196 Y22.1444 F200.00
G01 X54.4407 Y22.1817 F200.00
G01 X54.4256 Y22.1880 F200.00
G01 X54.3356 Y22.2200 F200.00
G01 X54.2350 Y22.2451 F200.00
G01 X54.1325 Y22.2604 F200.00
G01 X54.0371 Y22.2652 F200.00
G01 X53.5168 Y22.2654 F200.00
G01 X53.4174 Y22.2604 F200.00
G01 X53.3229 Y22.2465 F200.00
G01 X53.3068 Y22.2433 F200.00
G01 X53.2143 Y22.2200 F200.00
G01 X53.1167 Y22.1850 F200.00
G01 X53.0229 Y22.1407 F200.00
G01 X52.9446 Y22.0940 F200.00
G01 X49.1082 Y25.9304 F200.00
G01 X49.1082 Y48.7680 F200.00
G01 X49.1050 Y48.8334 F200.00
G01 X49.0968 Y48.8901 F200.00
G01 X49.0945 Y48.9022 F200.00
G01 X49.0816 Y48.9538 F200.00
G01 X49.0769 Y48.9695 F200.00
G01 X49.0574 Y49.0233 F200.00
G01 X49.0331 Y49.0752 F200.00
G01 X49.0274 Y49.0861 F200.00
G01 X49.0001 Y49.1318 F200.00
G01 X48.9910 Y49.1454 F200.00
G01 X48.9567 Y49.1913 F200.00
G01 X48.9128 Y49.2398 F200.00
G01 X42.8168 Y55.3358 F200.00
G01 X42.7744 Y55.3744 F200.00
G01 X42.7618 Y55.3848 F200.00
G01 X42.7156 Y55.4188 F200.00
G01 X42.6631 Y55.4505 F200.00
G01 X42.6522 Y55.4561 F200.00
G01 X42.6003 Y55.4805 F200.00
G01 X42.5464 Y55.4999 F200.00
G01 X42.5307 Y55.5047 F200.00
G01 X42.4751 Y55.5184 F200.00
G01 X42.4185 Y55.5270 F200.00
G01 X42.4022 Y55.5286 F200.00
G01 X42.3449 Y55.5313 F200.00
G01 X34.8519 Y55.5313 F200.00
G01 X34.7947 Y55.5286 F200.00
G01 X34.7784 Y55.5270 F200.00
G01 X34.7218 Y55.5184 F200.00
G01 X34.6661 Y55.5047 F200.00
G01 X34.6505 Y55.4999 F200.00
G01 X34.6042 Y55.4834 F200.00
G01 X34.5928 Y55.4788 F200.00
G01 X34.5374 Y55.4525 F200.00
G01 X34.4882 Y55.4232 F200.00
G01 X34.4779 Y55.4165 F200.00
G01 X34.4351 Y55.3848 F200.00
G01 X34.4224 Y55.3744 F200.00
G01 X34.3801 Y55.3358 F200.00
G01 X32.7976 Y53.7533 F200.00
G01 X30.1753 Y53.7533 F200.00
G01 X25.7988 Y58.1298 F200.00
G01 X25.7502 Y58.1738 F200.00
G01 X25.6976 Y58.2128 F200.00
G01 X25.6415 Y58.2465 F200.00
G01 X25.5898 Y58.2711 F200.00
G01 X25.5785 Y58.2760 F200.00
G01 X25.5206 Y58.2965 F200.00
G01 X25.4571 Y58.3124 F200.00
G01 X25.3923 Y58.3220 F200.00
G01 X25.3269 Y58.3253 F200.00
G01 X18.7229 Y58.3253 F200.00
G01 X18.6657 Y58.3226 F200.00
G01 X18.6535 Y58.3216 F200.00
G01 X18.5928 Y58.3124 F200.00
G01 X18.5292 Y58.2965 F200.00
G01 X18.4676 Y58.2745 F200.00
G01 X18.4157 Y58.2501 F200.00
G01 X18.4013 Y58.2424 F200.00
G01 X18.3557 Y58.2150 F200.00
G01 X18.3455 Y58.2081 F200.00
G01 X18.2996 Y58.1738 F200.00
G01 X18.2511 Y58.1298 F200.00
G01 X11.5201 Y51.3988 F200.00
G01 X11.4815 Y51.3565 F200.00
G01 X11.4711 Y51.3438 F200.00
G01 X11.4371 Y51.2977 F200.00
G01 X11.4055 Y51.2451 F200.00
G01 X11.3998 Y51.2342 F200.00
G01 X11.3755 Y51.1823 F200.00
G01 X11.3560 Y51.1285 F200.00
G01 X11.3512 Y51.1128 F200.00
G01 X11.3375 Y51.0572 F200.00
G01 X11.3289 Y51.0005 F200.00
G01 X11.3273 Y50.9842 F200.00
G01 X11.3247 Y50.9270 F200.00
G01 X11.3247 Y13.8430 F200.00
G01 X11.3273 Y13.7858 F200.00
G01 X11.3284 Y13.7735 F200.00
G01 X11.3375 Y13.7128 F200.00
G01 X11.3534 Y13.6493 F200.00
G01 X11.3755 Y13.5877 F200.00
G01 X11.3998 Y13.5358 F200.00
G01 X11.4075 Y13.5213 F200.00
G01 X11.4349 Y13.4757 F200.00
G01 X11.4419 Y13.4656 F200.00
G01 X11.4761 Y13.4197 F200.00
G01 X11.5173 Y13.3741 F200.00
G01 X14.6951 Y10.1962 F200.00
G01 X14.7436 Y10.1522 F200.00
G01 X14.7962 Y10.1132 F200.00
G01 X14.8453 Y10.0836 F200.00
G01 X14.8597 Y10.0759 F200.00
G01 X14.9116 Y10.0515 F200.00
G01 X14.9655 Y10.0321 F200.00
G01 X14.9811 Y10.0273 F200.00
G01 X15.0368 Y10.0136 F200.00
G01 X15.0934 Y10.0050 F200.00
G01 X15.1097 Y10.0034 F200.00
G01 X15.1669 Y10.0007 F200.00
G01 X17.0044 Y10.0007 F200.00
G00 Z2.0000
G00 X17.0747 Y12.5730
G01 F60.00
G01 Z-0.2500
G01 F200.00
G01 X17.0183 Y12.5997 F200.00
G01 X16.9940 Y12.6116 F200.00
G01 X16.9700 Y12.6240 F200.00
G01 X16.9463 Y12.6371 F200.00
G01 X16.9229 Y12.6507 F200.00
G01 X16.8387 Y12.7011 F200.00
G01 X16.8157 Y12.7153 F200.00
G01 X16.7930 Y12.7301 F200.00
G01 X16.7707 Y12.7454 F200.00
G01 X16.7488 Y12.7612 F200.00
G01 X16.6700 Y12.8197 F200.00
G01 X16.6484 Y12.8361 F200.00
G01 X16.6273 Y12.8530 F200.00
G01 X16.6066 Y12.8704 F200.00
G01 X16.5864 Y12.8883 F200.00
G01 X16.5136 Y12.9542 F200.00
G01 X16.4938 Y12.9726 F200.00
G01 X16.4745 Y12.9915 F200.00
G01 X16.4556 Y13.0109 F200.00
G01 X16.4372 Y13.0307 F200.00
G01 X16.3713 Y13.1034 F200.00
G01 X16.3533 Y13.1237 F200.00
G01 X16.3359 Y13.1444 F200.00
G01 X16.3190 Y13.1655 F200.00
G01 X16.3026 Y13.1870 F200.00
G01 X16.2442 Y13.2659 F200.00
G01 X16.2283 Y13.2878 F200.00
G01 X16.2130 Y13.3101 F200.00
G01 X16.1983 Y13.3328 F200.00
G01 X16.1841 Y13.3558 F200.00
G01 X16.1336 Y13.4400 F200.00
G01 X16.1200 Y13.4633 F200.00
G01 X16.1070 Y13.4870 F200.00
G01 X16.0945 Y13.5110 F200.00
G01 X16.0826 Y13.5354 F200.00
G01 X16.0407 Y13.6241 F200.00
G01 X16.0294 Y13.6487 F200.00
G01 X16.0188 Y13.6735 F200.00
G01 X16.0087 Y13.6986 F200.00
G01 X15.9993 Y13.7240 F200.00
G01 X15.9662 Y13.8164 F200.00
G01 X15.9574 Y13.8420 F200.00
G01 X15.9493 Y13.8678 F200.00
G01 X15.9417 Y13.8937 F200.00
G01 X15.9348 Y13.9199 F200.00
G01 X15.9110 Y14.0151 F200.00
G01 X15.9047 Y14.0414 F200.00
G01 X15.8991 Y14.0679 F200.00
G01 X15.8942 Y14.0945 F200.00
G01 X15.8899 Y14.1212 F200.00
G01 X15.8755 Y14.2183 F200.00
G01 X15.8718 Y14.2451 F200.00
G01 X15.8689 Y14.2719 F200.00
G01 X15.8665 Y14.2989 F200.00
G01 X15.8649 Y14.3259 F200.00
G01 X15.8601 Y14.4239 F200.00
G01 X15.8591 Y14.4510 F200.00
G01 X15.8587 Y14.4780 F200.00
G01 X15.8591 Y14.5050 F200.00
G01 X15.8601 Y14.5321 F200.00
G01 X15.8649 Y14.6301 F200.00
G01 X15.8665 Y14.6571 F200.00
G01 X15.8689 Y14.6841 F200.00
G01 X15.8718 Y14.7109 F200.00
G01 X15.8755 Y14.7377 F200.00
G01 X15.8899 Y14.8348 F200.00
G01 X15.8942 Y14.8615 F200.00
G01 X15.8991 Y14.8881 F200.00
G01 X15.9047 Y14.9146 F200.00
G01 X15.9110 Y14.9409 F200.00
G01 X15.9348 Y15.0361 F200.00
G01 X15.9417 Y15.0623 F200.00
G01 X15.9493 Y15.0882 F200.00
G01 X15.9574 Y15.1140 F200.00
G01 X15.9662 Y15.1396 F200.00
G01 X15.9993 Y15.2320 F200.00
G01 X16.0087 Y15.2574 F200.00
G01 X16.0188 Y15.2825 F200.00
G01 X16.0294 Y15.3073 F200.00
G01 X16.0407 Y15.3319 F200.00
G01 X16.0826 Y15.4206 F200.00
G01 X16.0945 Y15.4450 F200.00
G01 X16.1070 Y15.4690 F200.00
G01 X16.1200 Y15.4927 F200.00
G01 X16.1336 Y15.5160 F200.00
G01 X16.1841 Y15.6002 F200.00
G01 X16.1983 Y15.6232 F200.00
G01 X16.2130 Y15.6459 F200.00
G01 X16.2283 Y15.6682 F200.00
G01 X16.2442 Y15.6901 F200.00
G01 X16.3026 Y15.7690 F200.00
G01 X16.3190 Y15.7905 F200.00
G01 X16.3359 Y15.8116 F200.00
G01 X16.3533 Y15.8323 F200.00
G01 X16.3713 Y15.8526 F200.00
G01 X16.4372 Y15.9253 F200.00
G01 X16.4556 Y15.9451 F200.00
G01 X16.4745 Y15.9645 F200.00
G01 X16.4938 Y15.9834 F200.00
G01 X16.5136 Y16.0018 F200.00
G01 X16.5864 Y16.0677 F200.00
G01 X16.6066 Y16.0856 F200.00
G01 X16.6273 Y16.1030 F200.00
G01 X16.6484 Y16.1199 F200.00
G01 X16.6700 Y16.1363 F200.00
G01 X16.7488 Y16.1948 F200.00
G01 X16.7707 Y16.2106 F200.00
G01 X16.7930 Y16.2259 F200.00
G01 X16.8157 Y16.2407 F200.00
G01 X16.8387 Y16.2549 F200.00
G01 X16.9229 Y16.3053 F200.00
G01 X16.9463 Y16.3189 F200.00
G01 X16.9700 Y16.3320 F200.00
G01 X16.9940 Y16.3444 F200.00
G01 X17.0183 Y16.3563 F200.00
G01 X17.0747 Y16.3830 F200.00
G01 X17.0183 Y16.4097 F200.00
G01 X16.9940 Y16.4216 F200.00
G01 X16.9700 Y16.4340 F200.00
G01 X16.9463 Y16.4471 F200.00
G01 X16.9229 Y16.4607 F200.00
G01 X16.8387 Y16.5111 F200.00
G01 X16.8157 Y16.5253 F200.00
G01 X16.7930 Y16.5401 F200.00
G01 X16.7707 Y16.5554 F200.00
G01 X16.7488 Y16.5712 F200.00
G01 X16.6700 Y16.6297 F200.00
G01 X16.6484 Y16.6461 F200.00
G01 X16.6273 Y16.6630 F200.00
G01 X16.6066 Y16.6804 F200.00
G01 X16.5864 Y16.6983 F200.00
G01 X16.5136 Y16.7642 F200.00
G01 X16.4938 Y16.7826 F200.00
G01 X16.4745 Y16.8015 F200.00
G01 X16.4556 Y16.8209 F200.00
G01 X16.4372 Y16.8407 F200.00
G01 X16.3713 Y16.9134 F200.00
G01 X16.3533 Y16.9337 F200.00
G01 X16.3359 Y16.9544 F200.00
G01 X16.3190 Y16.9755 F200.00
G01 X16.3026 Y16.9970 F200.00
G01 X16.2442 Y17.0759 F200.00
G01 X16.2283 Y17.0978 F200.00
G01 X16.2130 Y17.1201 F200.00
G01 X16.1983 Y17.1428 F200.00
G01 X16.1841 Y17.1658 F200.00
G01 X16.1336 Y17.2500 F200.00
G01 X16.1200 Y17.2733 F200.00
G01 X16.1070 Y17.2970 F200.00
G01 X16.0945 Y17.3210 F200.00
G01 X16.0826 Y17.3454 F200.00
G01 X16.0407 Y17.4341 F200.00
G01 X16.0294 Y17.4587 F200.00
G01 X16.0188 Y17.4835 F200.00
G01 X16.0087 Y17.5086 F200.00
G01 X15.9993 Y17.5340 F200.00
G01 X15.9662 Y17.6264 F200.00
G01 X15.9574 Y17.6520 F200.00
G01 X15.9493 Y17.6778 F200.00
G01 X15.9417 Y17.7037 F200.00
G01 X15.9348 Y17.7299 F200.00
G01 X15.9110 Y17.8251 F200.00
G01 X15.9047 Y17.8514 F200.00
G01 X15.8991 Y17.8779 F200.00
G01 X15.8942 Y17.9045 F200.00
G01 X15.8899 Y17.9312 F200.00
G01 X15.8755 Y18.0283 F200.00
G01 X15.8718 Y18.0551 F200.00
G01 X15.8689 Y18.0819 F200.00
G01 X15.8665 Y18.1089 F200.00
G01 X15.8649 Y18.1359 F200.00
G01 X15.8601 Y18.2339 F200.00
G01 X15.8591 Y18.2610 F200.00
G01 X15.8587 Y18.2880 F200.00
G01 X15.8591 Y18.3150 F200.00
G01 X15.8601 Y18.3421 F200.00
G01 X15.8649 Y18.4401 F200.00
G01 X15.8665 Y18.4671 F200.00
G01 X15.8689 Y18.4941 F200.00
G01 X15.8718 Y18.5209 F200.00
G01 X15.8755 Y18.5477 F200.00
G01 X15.8899 Y18.6448 F200.00
G01 X15.8942 Y18.6715 F200.00
G01 X15.8991 Y18.6981 F200.00
G01 X15.9047 Y18.7246 F200.00
G01 X15.9110 Y18.7509 F200.00
G01 X15.9348 Y18.8461 F200.00
G01 X15.9417 Y18.8723 F200.00
G01 X15.9493 Y18.8982 F200.00
G01 X15.9574 Y18.9240 F200.00
G01 X15.9662 Y18.9496 F200.00
G01 X15.9993 Y19.0420 F200.00
G01 X16.0087 Y19.0674 F200.00
G01 X16.0188 Y19.0925 F200.00
G01 X16.0294 Y19.1173 F200.00
G01 X16.0407 Y19.1419 F200.00
G01 X16.0826 Y19.2306 F200.00
G01 X16.0945 Y19.2550 F200.00
G01 X16.1070 Y19.2790 F200.00
G01 X16.1200 Y19.3027 F200.00
G01 X16.1336 Y19.3260 F200.00
G01 X16.1841 Y19.4102 F200.00
G01 X16.1983 Y19.4332 F200.00
G01 X16.2130 Y19.4559 F200.00
G01 X16.2283 Y19.4782 F200.00
G01 X16.2442 Y19.5001 F200.00
G01 X16.3026 Y19.5790 F200.00
G01 X16.3190 Y19.6005 F200.00
G01 X16.3359 Y19.6216 F200.00
G01 X16.3533 Y19.6423 F200.00
G01 X16.3713 Y19.6626 F200.00
G01 X16.4372 Y19.7353 F200.00
G01 X16.4556 Y19.7551 F200.00
G01 X16.4745 Y19.7745 F200.00
G01 X16.4938 Y19.7934 F200.00
G01 X16.5136 Y19.8118 F200.00
G01 X16.5864 Y19.8777 F200.00
G01 X16.6066 Y19.8956 F200.00
G01 X16.6273 Y19.9130 F200.00
G01 X16.6484 Y19.9299 F200.00
G01 X16.6700 Y19.9463 F200.00
G01 X16.7488 Y20.0048 F200.00
G01 X16.7707 Y20.0206 F200.00
G01 X16.7930 Y20.0359 F200.00
G01 X16.8157 Y20.0507 F200.00
G01 X16.8387 Y20.0649 F200.00
G01 X16.9229 Y20.1153 F200.00
G01 X16.9463 Y20.1289 F200.00
G01 X16.9700 Y20.1420 F200.00
G01 X16.9940 Y20.1544 F200.00
G01 X17.0183 Y20.1663 F200.00
G01 X17.1070 Y20.2083 F200.00
G01 X17.1316 Y20.2195 F200.00
G01 X17.1565 Y20.2302 F200.00
G01 X17.1816 Y20.2402 F200.00
G01 X17.2069 Y20.2496 F200.00
G01 X17.2993 Y20.2827 F200.00
G01 X17.3249 Y20.2915 F200.00
G01 X17.3507 Y20.2997 F200.00
G01 X17.3767 Y20.3072 F200.00
G01 X17.4028 Y20.3141 F200.00
G01 X17.4980 Y20.3380 F200.00
G01 X17.5244 Y20.3442 F200.00
G01 X17.5508 Y20.3498 F200.00
G01 X17.5774 Y20.3548 F200.00
G01 X17.6041 Y20.3591 F200.00
G01 X17.7012 Y20.3735 F200.00
G01 X17.7280 Y20.3771 F200.00
G01 X17.7549 Y20.3801 F200.00
G01 X17.7818 Y20.3824 F200.00
G01 X17.8088 Y20.3841 F200.00
G01 X17.9069 Y20.3889 F200.00
G01 X17.9339 Y20.3899 F200.00
G01 X17.9609 Y20.3902 F200.00
G01 X17.9880 Y20.3899 F200.00
G01 X18.0150 Y20.3889 F200.00
G01 X18.1130 Y20.3841 F200.00
G01 X18.1400 Y20.3824 F200.00
G01 X18.1670 Y20.3801 F200.00
G01 X18.1939 Y20.3771 F200.00
G01 X18.2207 Y20.3735 F200.00
G01 X18.3178 Y20.3591 F200.00
G01 X18.3445 Y20.3548 F200.00
G01 X18.3711 Y20.3498 F200.00
G01 X18.3975 Y20.3442 F200.00
G01 X18.4238 Y20.3380 F200.00
G01 X18.5190 Y20.3141 F200.00
G01 X18.5452 Y20.3072 F200.00
G01 X18.5712 Y20.2997 F200.00
G01 X18.5970 Y20.2915 F200.00
G01 X18.6225 Y20.2827 F200.00
G01 X18.7149 Y20.2496 F200.00
G01 X18.7403 Y20.2402 F200.00
G01 X18.7654 Y20.2302 F200.00
G01 X18.7903 Y20.2195 F200.00
G01 X18.8149 Y20.2083 F200.00
G01 X18.9036 Y20.1663 F200.00
G01 X18.9279 Y20.1544 F200.00
G01 X18.9519 Y20.1420 F200.00
G01 X18.9756 Y20.1289 F200.00
G01 X18.9990 Y20.1153 F200.00
G01 X19.0832 Y20.0649 F200.00
G01 X19.1062 Y20.0507 F200.00
G01 X19.1289 Y20.0359 F200.00
G01 X19.1512 Y20.0206 F200.00
G01 X19.1731 Y20.0048 F200.00
G01 X19.2519 Y19.9463 F200.00
G01 X19.2734 Y19.9299 F200.00
G01 X19.2946 Y19.9130 F200.00
G01 X19.3211 Y19.8904 F200.00
G01 X28.8542 Y19.8904 F200.00
G01 X29.2690 Y20.3053 F200.00
G01 X29.2118 Y20.3084 F200.00
G01 X29.1849 Y20.3107 F200.00
G01 X29.1580 Y20.3137 F200.00
G01 X29.1312 Y20.3173 F200.00
G01 X29.0341 Y20.3317 F200.00
G01 X29.0074 Y20.3360 F200.00
G01 X28.9808 Y20.3410 F200.00
G01 X28.9544 Y20.3466 F200.00
G01 X28.9280 Y20.3528 F200.00
G01 X28.8328 Y20.3767 F200.00
G01 X28.8067 Y20.3836 F200.00
G01 X28.7807 Y20.3911 F200.00
G01 X28.7549 Y20.3993 F200.00
G01 X28.7293 Y20.4081 F200.00
G01 X28.6369 Y20.4411 F200.00
G01 X28.6116 Y20.4506 F200.00
G01 X28.5865 Y20.4606 F200.00
G01 X28.5616 Y20.4713 F200.00
G01 X28.5370 Y20.4825 F200.00
G01 X28.4483 Y20.5245 F200.00
G01 X28.4240 Y20.5364 F200.00
G01 X28.4000 Y20.5488 F200.00
G01 X28.3763 Y20.5619 F200.00
G01 X28.3529 Y20.5755 F200.00
G01 X28.2687 Y20.6259 F200.00
G01 X28.2457 Y20.6401 F200.00
G01 X28.2230 Y20.6549 F200.00
G01 X28.2007 Y20.6702 F200.00
G01 X28.1788 Y20.6860 F200.00
G01 X28.1000 Y20.7445 F200.00
G01 X28.0784 Y20.7609 F200.00
G01 X28.0573 Y20.7778 F200.00
G01 X28.0308 Y20.8003 F200.00
G01 X18.1642 Y20.8003 F200.00
G01 X18.1371 Y20.8007 F200.00
G01 X18.1101 Y20.8017 F200.00
G01 X18.0340 Y20.8057 F200.00
G01 X18.0071 Y20.8081 F200.00
G01 X17.9802 Y20.8110 F200.00
G01 X17.9534 Y20.8147 F200.00
G01 X17.8781 Y20.8262 F200.00
G01 X17.8515 Y20.8311 F200.00
G01 X17.8251 Y20.8367 F200.00
G01 X17.7987 Y20.8430 F200.00
G01 X17.7250 Y20.8618 F200.00
G01 X17.6990 Y20.8693 F200.00
G01 X17.6732 Y20.8775 F200.00
G01 X17.6476 Y20.8863 F200.00
G01 X17.5760 Y20.9123 F200.00
G01 X17.5509 Y20.9223 F200.00
G01 X17.5261 Y20.9330 F200.00
G01 X17.4571 Y20.9652 F200.00
G01 X17.4328 Y20.9771 F200.00
G01 X17.4088 Y20.9896 F200.00
G01 X17.3851 Y21.0026 F200.00
G01 X17.3196 Y21.0415 F200.00
G01 X17.2966 Y21.0556 F200.00
G01 X17.2739 Y21.0704 F200.00
G01 X17.2516 Y21.0857 F200.00
G01 X17.1902 Y21.1308 F200.00
G01 X17.1687 Y21.1472 F200.00
G01 X17.1476 Y21.1641 F200.00
G01 X17.1269 Y21.1815 F200.00
G01 X17.0702 Y21.2324 F200.00
G01 X17.0504 Y21.2508 F200.00
G01 X17.0310 Y21.2697 F200.00
G01 X14.6688 Y23.6319 F200.00
G01 X14.6499 Y23.6513 F200.00
G01 X14.6315 Y23.6711 F200.00
G01 X14.5806 Y23.7277 F200.00
G01 X14.5632 Y23.7484 F200.00
G01 X14.5463 Y23.7695 F200.00
G01 X14.5299 Y23.7911 F200.00
G01 X14.4849 Y23.8524 F200.00
G01 X14.4696 Y23.8747 F200.00
G01 X14.4548 Y23.8974 F200.00
G01 X14.4154 Y23.9625 F200.00
G01 X14.4017 Y23.9859 F200.00
G01 X14.3887 Y24.0096 F200.00
G01 X14.3762 Y24.0336 F200.00
G01 X14.3644 Y24.0579 F200.00
G01 X14.3321 Y24.1269 F200.00
G01 X14.3215 Y24.1518 F200.00
G01 X14.3114 Y24.1769 F200.00
G01 X14.3020 Y24.2022 F200.00
G01 X14.2767 Y24.2740 F200.00
G01 X14.2685 Y24.2998 F200.00
G01 X14.2610 Y24.3258 F200.00
G01 X14.2421 Y24.3996 F200.00
G01 X14.2359 Y24.4259 F200.00
G01 X14.2303 Y24.4524 F200.00
G01 X14.2253 Y24.4790 F200.00
G01 X14.2210 Y24.5057 F200.00
G01 X14.2102 Y24.5810 F200.00
G01 X14.2072 Y24.6079 F200.00
G01 X14.2049 Y24.6349 F200.00
G01 X14.2032 Y24.6619 F200.00
G01 X14.1998 Y24.7380 F200.00
G01 X14.1995 Y24.7650 F200.00
G01 X14.1995 Y27.9399 F200.00
G01 X14.1272 Y28.0196 F200.00
G01 X14.1093 Y28.0399 F200.00
G01 X14.0919 Y28.0606 F200.00
G01 X14.0750 Y28.0817 F200.00
G01 X14.0586 Y28.1032 F200.00
G01 X13.9937 Y28.1907 F200.00
G01 X13.9779 Y28.2127 F200.00
G01 X13.9626 Y28.2350 F200.00
G01 X13.9478 Y28.2576 F200.00
G01 X13.9336 Y28.2807 F200.00
G01 X13.8776 Y28.3741 F200.00
G01 X13.8640 Y28.3975 F200.00
G01 X13.8510 Y28.4212 F200.00
G01 X13.8385 Y28.4452 F200.00
G01 X13.8266 Y28.4695 F200.00
G01 X13.7801 Y28.5680 F200.00
G01 X13.7688 Y28.5926 F200.00
G01 X13.7581 Y28.6174 F200.00
G01 X13.7481 Y28.6425 F200.00
G01 X13.7387 Y28.6679 F200.00
G01 X13.7020 Y28.7705 F200.00
G01 X13.6932 Y28.7960 F200.00
G01 X13.6850 Y28.8218 F200.00
G01 X13.6775 Y28.8478 F200.00
G01 X13.6706 Y28.8740 F200.00
G01 X13.6441 Y28.9796 F200.00
G01 X13.6378 Y29.0060 F200.00
G01 X13.6322 Y29.0324 F200.00
G01 X13.6273 Y29.0590 F200.00
G01 X13.6230 Y29.0857 F200.00
G01 X13.6070 Y29.1935 F200.00
G01 X13.6034 Y29.2203 F200.00
G01 X13.6004 Y29.2472 F200.00
G01 X13.5981 Y29.2741 F200.00
G01 X13.5944 Y29.3423 F200.00
G01 X13.5944 Y14.5068 F200.00
G01 X15.8307 Y12.2704 F200.00
G01 X16.6008 Y12.2704 F200.00
G01 X16.6273 Y12.2930 F200.00
G01 X16.6484 Y12.3099 F200.00
G01 X16.6700 Y12.3263 F200.00
G01 X16.7488 Y12.3848 F200.00
G01 X16.7707 Y12.4006 F200.00
G01 X16.7930 Y12.4159 F200.00
G01 X16.8157 Y12.4307 F200.00
G01 X16.8387 Y12.4449 F200.00
G01 X16.9229 Y12.4953 F200.00
G01 X16.9463 Y12.5089 F200.00
G01 X16.9700 Y12.5220 F200.00
G01 X16.9940 Y12.5344 F200.00
G01 X17.0183 Y12.5463 F200.00
G01 X17.0747 Y12.5730 F200.00
G00 Z2.0000
G00 X16.6101 Y12.5730
G01 F60.00
G01 Z-0.2500
G01 F200.00
G01 X16.5307 Y12.6319 F200.00
G01 X16.5046 Y12.6518 F200.00
G01 X16.4790 Y12.6722 F200.00
G01 X16.4539 Y12.6934 F200.00
G01 X16.4293 Y12.7151 F200.00
G01 X16.3566 Y12.7810 F200.00
G01 X16.3326 Y12.8033 F200.00
G01 X16.3091 Y12.8262 F200.00
G01 X16.2862 Y12.8497 F200.00
G01 X16.2639 Y12.8737 F200.00
G01 X16.1980 Y12.9464 F200.00
G01 X16.1763 Y12.9710 F200.00
G01 X16.1552 Y12.9961 F200.00
G01 X16.1347 Y13.0217 F200.00
G01 X16.1148 Y13.0478 F200.00
G01 X16.0564 Y13.1266 F200.00
G01 X16.0372 Y13.1532 F200.00
G01 X16.0186 Y13.1802 F200.00
G01 X16.0007 Y13.2077 F200.00
G01 X15.9835 Y13.2356 F200.00
G01 X15.9331 Y13.3198 F200.00
G01 X15.9166 Y13.3481 F200.00
G01 X15.9008 Y13.3768 F200.00
G01 X15.8857 Y13.4059 F200.00
G01 X15.8713 Y13.4354 F200.00
G01 X15.8293 Y13.5241 F200.00
G01 X15.8157 Y13.5539 F200.00
G01 X15.8028 Y13.5841 F200.00
G01 X15.7906 Y13.6145 F200.00
G01 X15.7792 Y13.6452 F200.00
G01 X15.7461 Y13.7376 F200.00
G01 X15.7354 Y13.7686 F200.00
G01 X15.7255 Y13.7999 F200.00
G01 X15.7164 Y13.8314 F200.00
G01 X15.7080 Y13.8631 F200.00
G01 X15.6842 Y13.9583 F200.00
G01 X15.6766 Y13.9902 F200.00
G01 X15.6698 Y14.0223 F200.00
G01 X15.6638 Y14.0545 F200.00
G01 X15.6586 Y14.0869 F200.00
G01 X15.6442 Y14.1840 F200.00
G01 X15.6398 Y14.2164 F200.00
G01 X15.6362 Y14.2490 F200.00
G01 X15.6334 Y14.2817 F200.00
G01 X15.6314 Y14.3144 F200.00
G01 X15.6265 Y14.4124 F200.00
G01 X15.6253 Y14.4452 F200.00
G01 X15.6249 Y14.4780 F200.00
G01 X15.6253 Y14.5108 F200.00
G01 X15.6265 Y14.5436 F200.00
G01 X15.6314 Y14.6416 F200.00
G01 X15.6334 Y14.6743 F200.00
G01 X15.6362 Y14.7070 F200.00
G01 X15.6398 Y14.7396 F200.00
G01 X15.6442 Y14.7720 F200.00
G01 X15.6586 Y14.8691 F200.00
G01 X15.6638 Y14.9015 F200.00
G01 X15.6698 Y14.9337 F200.00
G01 X15.6766 Y14.9658 F200.00
G01 X15.6842 Y14.9977 F200.00
G01 X15.7080 Y15.0929 F200.00
G01 X15.7164 Y15.1246 F200.00
G01 X15.7255 Y15.1561 F200.00
G01 X15.7354 Y15.1874 F200.00
G01 X15.7461 Y15.2184 F200.00
G01 X15.7792 Y15.3108 F200.00
G01 X15.7906 Y15.3415 F200.00
G01 X15.8028 Y15.3719 F200.00
G01 X15.8157 Y15.4021 F200.00
G01 X15.8293 Y15.4319 F200.00
G01 X15.8713 Y15.5206 F200.00
G01 X15.8857 Y15.5501 F200.00
G01 X15.9008 Y15.5792 F200.00
G01 X15.9166 Y15.6079 F200.00
G01 X15.9331 Y15.6362 F200.00
G01 X15.9835 Y15.7204 F200.00
G01 X16.0007 Y15.7483 F200.00
G01 X16.0186 Y15.7758 F200.00
G01 X16.0372 Y15.8028 F200.00
G01 X16.0564 Y15.8294 F200.00
G01 X16.1148 Y15.9082 F200.00
G01 X16.1347 Y15.9343 F200.00
G01 X16.1552 Y15.9599 F200.00
G01 X16.1763 Y15.9850 F200.00
G01 X16.1980 Y16.0096 F200.00
G01 X16.2639 Y16.0823 F200.00
G01 X16.2862 Y16.1063 F200.00
G01 X16.3091 Y16.1298 F200.00
G01 X16.3326 Y16.1527 F200.00
G01 X16.3566 Y16.1750 F200.00
G01 X16.4293 Y16.2409 F200.00
G01 X16.4539 Y16.2626 F200.00
G01 X16.4790 Y16.2838 F200.00
G01 X16.5046 Y16.3042 F200.00
G01 X16.5307 Y16.3241 F200.00
G01 X16.6101 Y16.3830 F200.00
G01 X16.5307 Y16.4419 F200.00
G01 X16.5046 Y16.4618 F200.00
G01 X16.4790 Y16.4822 F200.00
G01 X16.4539 Y16.5034 F200.00
G01 X16.4293 Y16.5251 F200.00
G01 X16.3566 Y16.5910 F200.00
G01 X16.3326 Y16.6133 F200.00
G01 X16.3091 Y16.6362 F200.00
G01 X16.2862 Y16.6597 F200.00
G01 X16.2639 Y16.6837 F200.00
G01 X16.1980 Y16.7564 F200.00
G01 X16.1763 Y16.7810 F200.00
G01 X16.1552 Y16.8061 F200.00
G01 X16.1347 Y16.8317 F200.00
G01 X16.1148 Y16.8578 F200.00
G01 X16.0564 Y16.9366 F200.00
G01 X16.0372 Y16.9632 F200.00
G01 X16.0186 Y16.9902 F200.00
G01 X16.0007 Y17.0177 F200.00
G01 X15.9835 Y17.0456 F200.00
G01 X15.9331 Y17.1298 F200.00
G01 X15.9166 Y17.1581 F200.00
G01 X15.9008 Y17.1868 F200.00
G01 X15.8857 Y17.2159 F200.00
G01 X15.8713 Y17.2454 F200.00
G01 X15.8293 Y17.3341 F200.00
G01 X15.8157 Y17.3639 F200.00
G01 X15.8028 Y17.3941 F200.00
G01 X15.7906 Y17.4245 F200.00
G01 X15.7792 Y17.4552 F200.00
G01 X15.7461 Y17.5476 F200.00
G01 X15.7354 Y17.5786 F200.00
G01 X15.7255 Y17.6099 F200.00
G01 X15.7164 Y17.6414 F200.00
G01 X15.7080 Y17.6731 F200.00
G01 X15.6842 Y17.7683 F200.00
G01 X15.6766 Y17.8002 F200.00
G01 X15.6698 Y17.8323 F200.00
G01 X15.6638 Y17.8645 F200.00
G01 X15.6586 Y17.8969 F200.00
G01 X15.6442 Y17.9940 F200.00
G01 X15.6398 Y18.0264 F200.00
G01 X15.6362 Y18.0590 F200.00
G01 X15.6334 Y18.0917 F200.00
G01 X15.6314 Y18.1244 F200.00
G01 X15.6265 Y18.2224 F200.00
G01 X15.6253 Y18.2552 F200.00
G01 X15.6249 Y18.2880 F200.00
G01 X15.6253 Y18.3208 F200.00
G01 X15.6265 Y18.3536 F200.00
G01 X15.6314 Y18.4516 F200.00
G01 X15.6334 Y18.4843 F200.00
G01 X15.6362 Y18.5170 F200.00
G01 X15.6398 Y18.5496 F200.00
G01 X15.6442 Y18.5820 F200.00
G01 X15.6586 Y18.6791 F200.00
G01 X15.6638 Y18.7115 F200.00
G01 X15.6698 Y18.7437 F200.00
G01 X15.6766 Y18.7758 F200.00
G01 X15.6842 Y18.8077 F200.00
G01 X15.7080 Y18.9029 F200.00
G01 X15.7164 Y18.9346 F200.00
G01 X15.7255 Y18.9661 F200.00
G01 X15.7354 Y18.9974 F200.00
G01 X15.7461 Y19.0284 F200.00
G01 X15.7792 Y19.1208 F200.00
G01 X15.7906 Y19.1515 F200.00
G01 X15.8028 Y19.1819 F200.00
G01 X15.8157 Y19.2121 F200.00
G01 X15.8293 Y19.2419 F200.00
G01 X15.8713 Y19.3306 F200.00
G01 X15.8857 Y19.3601 F200.00
G01 X15.9008 Y19.3892 F200.00
G01 X15.9166 Y19.4179 F200.00
G01 X15.9331 Y19.4462 F200.00
G01 X15.9835 Y19.5304 F200.00
G01 X16.0007 Y19.5583 F200.00
G01 X16.0186 Y19.5858 F200.00
G01 X16.0372 Y19.6128 F200.00
G01 X16.0564 Y19.6394 F200.00
G01 X16.1148 Y19.7182 F200.00
G01 X16.1347 Y19.7443 F200.00
G01 X16.1552 Y19.7699 F200.00
G01 X16.1763 Y19.7950 F200.00
G01 X16.1980 Y19.8196 F200.00
G01 X16.2639 Y19.8923 F200.00
G01 X16.2862 Y19.9163 F200.00
G01 X16.3091 Y19.9398 F200.00
G01 X16.3326 Y19.9627 F200.00
G01 X16.3566 Y19.9850 F200.00
G01 X16.4293 Y20.0509 F200.00
G01 X16.4539 Y20.0726 F200.00
G01 X16.4790 Y20.0938 F200.00
G01 X16.5046 Y20.1142 F200.00
G01 X16.5307 Y20.1341 F200.00
G01 X16.6095 Y20.1926 F200.00
G01 X16.6361 Y20.2118 F200.00
G01 X16.6631 Y20.2303 F200.00
G01 X16.6906 Y20.2482 F200.00
G01 X16.7185 Y20.2654 F200.00
G01 X16.8027 Y20.3158 F200.00
G01 X16.8310 Y20.3324 F200.00
G01 X16.8598 Y20.3482 F200.00
G01 X16.8889 Y20.3633 F200.00
G01 X16.9183 Y20.3777 F200.00
G01 X17.0070 Y20.4196 F200.00
G01 X17.0369 Y20.4333 F200.00
G01 X17.0670 Y20.4462 F200.00
G01 X17.0974 Y20.4584 F200.00
G01 X17.1282 Y20.4698 F200.00
G01 X17.2206 Y20.5028 F200.00
G01 X17.2516 Y20.5135 F200.00
G01 X17.2828 Y20.5234 F200.00
G01 X17.3143 Y20.5325 F200.00
G01 X17.3460 Y20.5409 F200.00
G01 X17.4412 Y20.5647 F200.00
G01 X17.4731 Y20.5723 F200.00
G01 X17.5052 Y20.5791 F200.00
G01 X17.5374 Y20.5851 F200.00
G01 X17.5698 Y20.5903 F200.00
G01 X17.6669 Y20.6047 F200.00
G01 X17.6994 Y20.6091 F200.00
G01 X17.7320 Y20.6128 F200.00
G01 X17.7499 Y20.6143 F200.00
G01 X17.6943 Y20.6281 F200.00
G01 X17.6626 Y20.6365 F200.00
G01 X17.6311 Y20.6456 F200.00
G01 X17.5999 Y20.6555 F200.00
G01 X17.5689 Y20.6662 F200.00
G01 X17.4919 Y20.6941 F200.00
G01 X17.4614 Y20.7063 F200.00
G01 X17.4313 Y20.7192 F200.00
G01 X17.4015 Y20.7329 F200.00
G01 X17.3277 Y20.7683 F200.00
G01 X17.2985 Y20.7834 F200.00
G01 X17.2698 Y20.7992 F200.00
G01 X17.1994 Y20.8409 F200.00
G01 X17.1715 Y20.8581 F200.00
G01 X17.1440 Y20.8760 F200.00
G01 X17.1169 Y20.8946 F200.00
G01 X17.0509 Y20.9430 F200.00
G01 X17.0248 Y20.9629 F200.00
G01 X16.9992 Y20.9833 F200.00
G01 X16.9742 Y21.0045 F200.00
G01 X16.9132 Y21.0591 F200.00
G01 X16.8892 Y21.0815 F200.00
G01 X16.8657 Y21.1044 F200.00
G01 X14.5035 Y23.4666 F200.00
G01 X14.4806 Y23.4900 F200.00
G01 X14.4253 Y23.5504 F200.00
G01 X14.4036 Y23.5750 F200.00
G01 X14.3825 Y23.6001 F200.00
G01 X14.3620 Y23.6257 F200.00
G01 X14.3129 Y23.6912 F200.00
G01 X14.2937 Y23.7178 F200.00
G01 X14.2752 Y23.7448 F200.00
G01 X14.2573 Y23.7723 F200.00
G01 X14.2148 Y23.8423 F200.00
G01 X14.1983 Y23.8707 F200.00
G01 X14.1825 Y23.8994 F200.00
G01 X14.1674 Y23.9285 F200.00
G01 X14.1320 Y24.0023 F200.00
G01 X14.1184 Y24.0322 F200.00
G01 X14.1055 Y24.0623 F200.00
G01 X14.0933 Y24.0927 F200.00
G01 X14.0819 Y24.1235 F200.00
G01 X14.0547 Y24.2007 F200.00
G01 X14.0448 Y24.2320 F200.00
G01 X14.0356 Y24.2635 F200.00
G01 X14.0153 Y24.3428 F200.00
G01 X14.0078 Y24.3747 F200.00
G01 X14.0010 Y24.4068 F200.00
G01 X13.9950 Y24.4390 F200.00
G01 X13.9826 Y24.5199 F200.00
G01 X13.9781 Y24.5524 F200.00
G01 X13.9745 Y24.5850 F200.00
G01 X13.9717 Y24.6177 F200.00
G01 X13.9673 Y24.6994 F200.00
G01 X13.9661 Y24.7322 F200.00
G01 X13.9657 Y24.7650 F200.00
G01 X13.9657 Y27.8497 F200.00
G01 X13.9323 Y27.8872 F200.00
G01 X13.9112 Y27.9123 F200.00
G01 X13.8907 Y27.9379 F200.00
G01 X13.8708 Y27.9640 F200.00
G01 X13.8282 Y28.0214 F200.00
G01 X13.8282 Y14.6036 F200.00
G01 X15.9275 Y12.5042 F200.00
G01 X16.5178 Y12.5042 F200.00
G01 X16.6101 Y12.5730 F200.00
G00 Z2.0000
G00 X18.9175 Y13.8107
G01 F60.00
G01 Z-0.2500
G01 F200.00
G01 X28.8829 Y13.8107 F200.00
G01 X28.9483 Y13.8140 F200.00
G01 X29.0131 Y13.8236 F200.00
G01 X29.0766 Y13.8395 F200.00
G01 X29.1345 Y13.8600 F200.00
G01 X29.1458 Y13.8649 F200.00
G01 X29.1975 Y13.8895 F200.00
G01 X29.2536 Y13.9232 F200.00
G01 X29.3062 Y13.9622 F200.00
G01 X29.3548 Y14.0062 F200.00
G01 X35.8903 Y20.5417 F200.00
G01 X37.4619 Y20.5417 F200.00
G01 X37.4697 Y20.5326 F200.00
G01 X37.5339 Y20.4620 F200.00
G01 X37.6045 Y20.3977 F200.00
G01 X37.6172 Y20.3873 F200.00
G01 X37.6873 Y20.3353 F200.00
G01 X37.7009 Y20.3262 F200.00
G01 X37.7829 Y20.2773 F200.00
G01 X37.8767 Y20.2330 F200.00
G01 X37.9743 Y20.1980 F200.00
G01 X38.0748 Y20.1729 F200.00
G01 X38.1774 Y20.1576 F200.00
G01 X38.2768 Y20.1526 F200.00
G01 X38.7930 Y20.1526 F200.00
G01 X38.8843 Y20.1570 F200.00
G01 X38.9006 Y20.1586 F200.00
G01 X38.9950 Y20.1729 F200.00
G01 X39.0917 Y20.1969 F200.00
G01 X39.1034 Y20.2006 F200.00
G01 X39.1932 Y20.2330 F200.00
G01 X39.2869 Y20.2773 F200.00
G01 X39.3759 Y20.3306 F200.00
G01 X39.4591 Y20.3924 F200.00
G01 X39.5360 Y20.4620 F200.00
G01 X39.6056 Y20.5388 F200.00
G01 X39.6673 Y20.6221 F200.00
G01 X39.7166 Y20.7039 F200.00
G01 X39.7243 Y20.7183 F200.00
G01 X39.7650 Y20.8047 F200.00
G01 X39.7973 Y20.8945 F200.00
G01 X39.8021 Y20.9102 F200.00
G01 X39.8233 Y20.9949 F200.00
G01 X39.8265 Y21.0110 F200.00
G01 X39.8403 Y21.1055 F200.00
G01 X39.8452 Y21.2008 F200.00
G01 X39.8452 Y21.2172 F200.00
G01 X39.8403 Y21.3125 F200.00
G01 X39.8251 Y21.4151 F200.00
G01 X39.7999 Y21.5157 F200.00
G01 X39.7665 Y21.6095 F200.00
G01 X39.7616 Y21.6208 F200.00
G01 X39.7243 Y21.6997 F200.00
G01 X39.7166 Y21.7141 F200.00
G01 X39.6673 Y21.7959 F200.00
G01 X39.6056 Y21.8792 F200.00
G01 X39.5360 Y21.9560 F200.00
G01 X39.4653 Y22.0203 F200.00
G01 X39.4527 Y22.0307 F200.00
G01 X39.3759 Y22.0874 F200.00
G01 X39.2941 Y22.1367 F200.00
G01 X39.2796 Y22.1444 F200.00
G01 X39.1932 Y22.1850 F200.00
G01 X39.0956 Y22.2200 F200.00
G01 X39.0030 Y22.2433 F200.00
G01 X38.9870 Y22.2465 F200.00
G01 X38.8925 Y22.2604 F200.00
G01 X38.7971 Y22.2652 F200.00
G01 X38.2809 Y22.2654 F200.00
G01 X38.1856 Y22.2610 F200.00
G01 X38.1693 Y22.2594 F200.00
G01 X38.0748 Y22.2451 F200.00
G01 X37.9743 Y22.2200 F200.00
G01 X37.8843 Y22.1880 F200.00
G01 X37.8692 Y22.1817 F200.00
G01 X37.7829 Y22.1407 F200.00
G01 X37.6940 Y22.0874 F200.00
G01 X37.6107 Y22.0256 F200.00
G01 X37.5399 Y21.9617 F200.00
G01 X37.5283 Y21.9501 F200.00
G01 X37.4697 Y21.8854 F200.00
G01 X37.4619 Y21.8763 F200.00
G01 X35.6057 Y21.8760 F200.00
G01 X35.5526 Y21.8734 F200.00
G01 X35.5404 Y21.8720 F200.00
G01 X35.4838 Y21.8634 F200.00
G01 X35.4281 Y21.8497 F200.00
G01 X35.4125 Y21.8449 F200.00
G01 X35.3586 Y21.8255 F200.00
G01 X35.3067 Y21.8011 F200.00
G01 X35.2958 Y21.7955 F200.00
G01 X35.2432 Y21.7638 F200.00
G01 X35.1971 Y21.7298 F200.00
G01 X35.1844 Y21.7194 F200.00
G01 X35.1421 Y21.6808 F200.00
G01 X28.6066 Y15.1453 F200.00
G01 X18.9175 Y15.1453 F200.00
G01 X18.8630 Y15.2183 F200.00
G01 X18.7918 Y15.2973 F200.00
G01 X18.7802 Y15.3088 F200.00
G01 X18.7075 Y15.3747 F200.00
G01 X18.6948 Y15.3851 F200.00
G01 X18.6093 Y15.4483 F200.00
G01 X18.5111 Y15.5072 F200.00
G01 X18.4075 Y15.5562 F200.00
G01 X18.3075 Y15.5922 F200.00
G01 X18.2918 Y15.5969 F200.00
G01 X18.1886 Y15.6226 F200.00
G01 X18.0835 Y15.6384 F200.00
G01 X18.0672 Y15.6400 F200.00
G01 X17.9609 Y15.6450 F200.00
G01 X17.8466 Y15.6394 F200.00
G01 X17.7413 Y15.6240 F200.00
G01 X17.7253 Y15.6208 F200.00
G01 X17.6222 Y15.5947 F200.00
G01 X17.5220 Y15.5591 F200.00
G01 X17.5069 Y15.5528 F200.00
G01 X17.4108 Y15.5072 F200.00
G01 X17.3126 Y15.4483 F200.00
G01 X17.2271 Y15.3851 F200.00
G01 X17.2144 Y15.3747 F200.00
G01 X17.1357 Y15.3032 F200.00
G01 X17.0642 Y15.2245 F200.00
G01 X17.0538 Y15.2119 F200.00
G01 X16.9906 Y15.1264 F200.00
G01 X16.9317 Y15.0281 F200.00
G01 X16.8828 Y14.9246 F200.00
G01 X16.8442 Y14.8168 F200.00
G01 X16.8164 Y14.7057 F200.00
G01 X16.7996 Y14.5924 F200.00
G01 X16.7939 Y14.4780 F200.00
G01 X16.7996 Y14.3636 F200.00
G01 X16.8164 Y14.2503 F200.00
G01 X16.8442 Y14.1392 F200.00
G01 X16.8828 Y14.0314 F200.00
G01 X16.9317 Y13.9279 F200.00
G01 X16.9906 Y13.8296 F200.00
G01 X17.0588 Y13.7377 F200.00
G01 X17.1357 Y13.6528 F200.00
G01 X17.2206 Y13.5759 F200.00
G01 X17.3126 Y13.5077 F200.00
G01 X17.4108 Y13.4488 F200.00
G01 X17.5143 Y13.3998 F200.00
G01 X17.6222 Y13.3613 F200.00
G01 X17.7333 Y13.3334 F200.00
G01 X17.8466 Y13.3166 F200.00
G01 X17.9609 Y13.3110 F200.00
G01 X18.0753 Y13.3166 F200.00
G01 X18.1886 Y13.3334 F200.00
G01 X18.2997 Y13.3613 F200.00
G01 X18.4075 Y13.3998 F200.00
G01 X18.5111 Y13.4488 F200.00
G01 X18.6093 Y13.5077 F200.00
G01 X18.7013 Y13.5759 F200.00
G01 X18.7861 Y13.6528 F200.00
G01 X18.8630 Y13.7377 F200.00
G01 X18.9175 Y13.8107 F200.00
G00 Z2.0000
G00 X18.8471 Y16.3830
G01 F60.00
G01 Z-0.2500
G01 F200.00
G01 X18.9036 Y16.3563 F200.00
G01 X18.9279 Y16.3444 F200.00
G01 X18.9519 Y16.3320 F200.00
G01 X18.9756 Y16.3189 F200.00
G01 X18.9990 Y16.3053 F200.00
G01 X19.0832 Y16.2549 F200.00
G01 X19.1062 Y16.2407 F200.00
G01 X19.1289 Y16.2259 F200.00
G01 X19.1512 Y16.2106 F200.00
G01 X19.1731 Y16.1948 F200.00
G01 X19.2519 Y16.1363 F200.00
G01 X19.2734 Y16.1199 F200.00
G01 X19.2946 Y16.1030 F200.00
G01 X19.3211 Y16.0804 F200.00
G01 X28.2192 Y16.0804 F200.00
G01 X28.8243 Y16.6856 F200.00
G01 X19.3211 Y16.6855 F200.00
G01 X19.2946 Y16.6630 F200.00
G01 X19.2734 Y16.6461 F200.00
G01 X19.2519 Y16.6297 F200.00
G01 X19.1731 Y16.5712 F200.00
G01 X19.1512 Y16.5554 F200.00
G01 X19.1289 Y16.5401 F200.00
G01 X19.1062 Y16.5253 F200.00
G01 X19.0832 Y16.5111 F200.00
G01 X18.9990 Y16.4607 F200.00
G01 X18.9756 Y16.4471 F200.00
G01 X18.9519 Y16.4340 F200.00
G01 X18.9279 Y16.4216 F200.00
G01 X18.9036 Y16.4097 F200.00
G01 X18.8471 Y16.3830 F200.00
G00 Z2.0000
G00 X19.3117 Y16.3830
G01 F60.00
G01 Z-0.2500
G01 F200.00
G01 X19.4041 Y16.3142 F200.00
G01 X28.1223 Y16.3142 F200.00
G01 X28.2598 Y16.4518 F200.00
G01 X19.4041 Y16.4518 F200.00
G01 X19.3117 Y16.3830 F200.00
G00 Z2.0000
G00 X18.9175 Y17.6207
G01 F60.00
G01 Z-0.2500
G01 F200.00
G01 X29.5179 Y17.6207 F200.00
G01 X29.5752 Y17.6234 F200.00
G01 X29.5915 Y17.6250 F200.00
G01 X29.6481 Y17.6336 F200.00
G01 X29.7116 Y17.6495 F200.00
G01 X29.7656 Y17.6686 F200.00
G01 X29.7808 Y17.6749 F200.00
G01 X29.8325 Y17.6995 F200.00
G01 X29.8817 Y17.7288 F200.00
G01 X29.8953 Y17.7379 F200.00
G01 X29.9412 Y17.7722 F200.00
G01 X29.9898 Y17.8162 F200.00
G01 X35.2553 Y23.0817 F200.00
G01 X37.4619 Y23.0817 F200.00
G01 X37.4697 Y23.0726 F200.00
G01 X37.5339 Y23.0020 F200.00
G01 X37.6045 Y22.9377 F200.00
G01 X37.6172 Y22.9273 F200.00
G01 X37.6873 Y22.8753 F200.00
G01 X37.7009 Y22.8662 F200.00
G01 X37.7829 Y22.8173 F200.00
G01 X37.8767 Y22.7730 F200.00
G01 X37.9743 Y22.7380 F200.00
G01 X38.0668 Y22.7147 F200.00
G01 X38.0829 Y22.7115 F200.00
G01 X38.1774 Y22.6976 F200.00
G01 X38.2809 Y22.6926 F200.00
G01 X38.7930 Y22.6926 F200.00
G01 X38.8925 Y22.6976 F200.00
G01 X38.9870 Y22.7115 F200.00
G01 X38.9991 Y22.7137 F200.00
G01 X39.0956 Y22.7380 F200.00
G01 X39.1932 Y22.7730 F200.00
G01 X39.2869 Y22.8173 F200.00
G01 X39.3689 Y22.8662 F200.00
G01 X39.3826 Y22.8753 F200.00
G01 X39.4527 Y22.9273 F200.00
G01 X39.4653 Y22.9377 F200.00
G01 X39.5360 Y23.0020 F200.00
G01 X39.6002 Y23.0726 F200.00
G01 X39.6106 Y23.0853 F200.00
G01 X39.6673 Y23.1621 F200.00
G01 X39.7166 Y23.2439 F200.00
G01 X39.7243 Y23.2583 F200.00
G01 X39.7650 Y23.3447 F200.00
G01 X39.7999 Y23.4423 F200.00
G01 X39.8251 Y23.5429 F200.00
G01 X39.8403 Y23.6455 F200.00
G01 X39.8454 Y23.7490 F200.00
G01 X39.8403 Y23.8525 F200.00
G01 X39.8251 Y23.9551 F200.00
G01 X39.7999 Y24.0557 F200.00
G01 X39.7679 Y24.1456 F200.00
G01 X39.7616 Y24.1608 F200.00
G01 X39.7206 Y24.2470 F200.00
G01 X39.6673 Y24.3359 F200.00
G01 X39.6056 Y24.4192 F200.00
G01 X39.5416 Y24.4901 F200.00
G01 X39.5300 Y24.5017 F200.00
G01 X39.4591 Y24.5656 F200.00
G01 X39.3759 Y24.6274 F200.00
G01 X39.2941 Y24.6767 F200.00
G01 X39.2796 Y24.6844 F200.00
G01 X39.1932 Y24.7250 F200.00
G01 X39.0956 Y24.7600 F200.00
G01 X39.0030 Y24.7833 F200.00
G01 X38.9870 Y24.7865 F200.00
G01 X38.9006 Y24.7994 F200.00
G01 X38.8843 Y24.8010 F200.00
G01 X38.7889 Y24.8054 F200.00
G01 X38.2727 Y24.8052 F200.00
G01 X38.1774 Y24.8004 F200.00
G01 X38.0829 Y24.7865 F200.00
G01 X38.0668 Y24.7833 F200.00
G01 X37.9782 Y24.7611 F200.00
G01 X37.9665 Y24.7574 F200.00
G01 X37.8843 Y24.7280 F200.00
G01 X37.8692 Y24.7217 F200.00
G01 X37.7829 Y24.6807 F200.00
G01 X37.6940 Y24.6274 F200.00
G01 X37.6107 Y24.5656 F200.00
G01 X37.5399 Y24.5017 F200.00
G01 X37.5283 Y24.4901 F200.00
G01 X37.4697 Y24.4254 F200.00
G01 X37.4619 Y24.4163 F200.00
G01 X34.9748 Y24.4162 F200.00
G01 X34.9135 Y24.4130 F200.00
G01 X34.8568 Y24.4048 F200.00
G01 X34.8408 Y24.4016 F200.00
G01 X34.7852 Y24.3875 F200.00
G01 X34.7312 Y24.3684 F200.00
G01 X34.7198 Y24.3638 F200.00
G01 X34.6717 Y24.3411 F200.00
G01 X34.6608 Y24.3355 F200.00
G01 X34.6152 Y24.3082 F200.00
G01 X34.6015 Y24.2991 F200.00
G01 X34.5556 Y24.2648 F200.00
G01 X34.5071 Y24.2208 F200.00
G01 X29.2416 Y18.9553 F200.00
G01 X18.9175 Y18.9553 F200.00
G01 X18.8630 Y19.0283 F200.00
G01 X18.7918 Y19.1073 F200.00
G01 X18.7802 Y19.1188 F200.00
G01 X18.7075 Y19.1847 F200.00
G01 X18.6948 Y19.1951 F200.00
G01 X18.6093 Y19.2583 F200.00
G01 X18.5111 Y19.3172 F200.00
G01 X18.4075 Y19.3662 F200.00
G01 X18.3075 Y19.4022 F200.00
G01 X18.2918 Y19.4069 F200.00
G01 X18.1886 Y19.4326 F200.00
G01 X18.0835 Y19.4484 F200.00
G01 X18.0672 Y19.4500 F200.00
G01 X17.9609 Y19.4550 F200.00
G01 X17.8466 Y19.4494 F200.00
G01 X17.7413 Y19.4340 F200.00
G01 X17.7253 Y19.4308 F200.00
G01 X17.6222 Y19.4047 F200.00
G01 X17.5220 Y19.3691 F200.00
G01 X17.5069 Y19.3628 F200.00
G01 X17.4108 Y19.3172 F200.00
G01 X17.3126 Y19.2583 F200.00
G01 X17.2271 Y19.1951 F200.00
G01 X17.2144 Y19.1847 F200.00
G01 X17.1357 Y19.1132 F200.00
G01 X17.0642 Y19.0345 F200.00
G01 X17.0538 Y19.0219 F200.00
G01 X16.9906 Y18.9364 F200.00
G01 X16.9317 Y18.8381 F200.00
G01 X16.8828 Y18.7346 F200.00
G01 X16.8442 Y18.6268 F200.00
G01 X16.8164 Y18.5157 F200.00
G01 X16.7996 Y18.4024 F200.00
G01 X16.7939 Y18.2880 F200.00
G01 X16.7996 Y18.1736 F200.00
G01 X16.8164 Y18.0603 F200.00
G01 X16.8442 Y17.9492 F200.00
G01 X16.8828 Y17.8414 F200.00
G01 X16.9317 Y17.7379 F200.00
G01 X16.9906 Y17.6396 F200.00
G01 X17.0588 Y17.5477 F200.00
G01 X17.1357 Y17.4628 F200.00
G01 X17.2206 Y17.3859 F200.00
G01 X17.3126 Y17.3177 F200.00
G01 X17.4108 Y17.2588 F200.00
G01 X17.5143 Y17.2098 F200.00
G01 X17.6222 Y17.1713 F200.00
G01 X17.7333 Y17.1434 F200.00
G01 X17.8466 Y17.1266 F200.00
G01 X17.9609 Y17.1210 F200.00
G01 X18.0753 Y17.1266 F200.00
G01 X18.1886 Y17.1434 F200.00
G01 X18.2997 Y17.1713 F200.00
G01 X18.4075 Y17.2098 F200.00
G01 X18.5111 Y17.2588 F200.00
G01 X18.6093 Y17.3177 F200.00
G01 X18.7013 Y17.3859 F200.00
G01 X18.7861 Y17.4628 F200.00
G01 X18.8630 Y17.5477 F200.00
G01 X18.9175 Y17.6207 F200.00
G00 Z2.0000
G00 X18.4731 Y20.5665
G01 F60.00
G01 Z-0.2500
G01 F200.00
G01 X18.5758 Y20.5409 F200.00
G01 X18.6076 Y20.5325 F200.00
G01 X18.6390 Y20.5234 F200.00
G01 X18.6703 Y20.5135 F200.00
G01 X18.7013 Y20.5028 F200.00
G01 X18.7937 Y20.4698 F200.00
G01 X18.8244 Y20.4584 F200.00
G01 X18.8549 Y20.4462 F200.00
G01 X18.8850 Y20.4333 F200.00
G01 X18.9148 Y20.4196 F200.00
G01 X19.0036 Y20.3777 F200.00
G01 X19.0330 Y20.3633 F200.00
G01 X19.0621 Y20.3482 F200.00
G01 X19.0908 Y20.3324 F200.00
G01 X19.1192 Y20.3158 F200.00
G01 X19.2034 Y20.2654 F200.00
G01 X19.2313 Y20.2482 F200.00
G01 X19.2588 Y20.2303 F200.00
G01 X19.2858 Y20.2118 F200.00
G01 X19.3124 Y20.1926 F200.00
G01 X19.4041 Y20.1242 F200.00
G01 X28.7573 Y20.1242 F200.00
G01 X28.7816 Y20.1485 F200.00
G01 X28.7443 Y20.1582 F200.00
G01 X28.7128 Y20.1674 F200.00
G01 X28.6816 Y20.1773 F200.00
G01 X28.6506 Y20.1879 F200.00
G01 X28.5582 Y20.2210 F200.00
G01 X28.5274 Y20.2324 F200.00
G01 X28.4970 Y20.2446 F200.00
G01 X28.4669 Y20.2575 F200.00
G01 X28.4370 Y20.2712 F200.00
G01 X28.3483 Y20.3131 F200.00
G01 X28.3189 Y20.3275 F200.00
G01 X28.2898 Y20.3426 F200.00
G01 X28.2610 Y20.3584 F200.00
G01 X28.2327 Y20.3749 F200.00
G01 X28.1485 Y20.4254 F200.00
G01 X28.1206 Y20.4426 F200.00
G01 X28.0931 Y20.4605 F200.00
G01 X28.0661 Y20.4790 F200.00
G01 X28.0395 Y20.4982 F200.00
G01 X27.9478 Y20.5665 F200.00
G01 X18.4731 Y20.5665 F200.00
G00 Z2.0000
G00 X18.8822 Y30.4674
G01 F60.00
G01 Z-0.2500
G01 F200.00
G01 X18.9366 Y30.4931 F200.00
G01 X18.9475 Y30.4988 F200.00
G01 X19.0445 Y30.5568 F200.00
G01 X19.0548 Y30.5635 F200.00
G01 X19.1521 Y30.6359 F200.00
G01 X19.2390 Y30.7144 F200.00
G01 X19.2478 Y30.7230 F200.00
G01 X19.3291 Y30.8129 F200.00
G01 X19.4037 Y30.9135 F200.00
G01 X19.4682 Y31.0210 F200.00
G01 X19.5184 Y31.1268 F200.00
G01 X19.5233 Y31.1381 F200.00
G01 X19.5640 Y31.2523 F200.00
G01 X19.5944 Y31.3739 F200.00
G01 X19.6128 Y31.4978 F200.00
G01 X19.6189 Y31.6230 F200.00
G01 X19.6128 Y31.7482 F200.00
G01 X19.5944 Y31.8721 F200.00
G01 X19.5640 Y31.9937 F200.00
G01 X19.5247 Y32.1040 F200.00
G01 X19.5201 Y32.1155 F200.00
G01 X19.4682 Y32.2250 F200.00
G01 X19.4037 Y32.3325 F200.00
G01 X19.3291 Y32.4331 F200.00
G01 X19.2449 Y32.5260 F200.00
G01 X19.1521 Y32.6101 F200.00
G01 X19.0514 Y32.6848 F200.00
G01 X18.9439 Y32.7492 F200.00
G01 X18.8306 Y32.8028 F200.00
G01 X18.7126 Y32.8450 F200.00
G01 X18.5911 Y32.8755 F200.00
G01 X18.4671 Y32.8939 F200.00
G01 X18.3419 Y32.9000 F200.00
G01 X18.2168 Y32.8939 F200.00
G01 X18.0928 Y32.8755 F200.00
G01 X17.9712 Y32.8450 F200.00
G01 X17.8609 Y32.8057 F200.00
G01 X17.8495 Y32.8012 F200.00
G01 X17.7400 Y32.7492 F200.00
G01 X17.6394 Y32.6892 F200.00
G01 X17.6258 Y32.6801 F200.00
G01 X17.5318 Y32.6101 F200.00
G01 X17.4449 Y32.5316 F200.00
G01 X17.4333 Y32.5200 F200.00
G01 X17.3548 Y32.4331 F200.00
G01 X17.2802 Y32.3325 F200.00
G01 X17.2198 Y32.2321 F200.00
G01 X17.2120 Y32.2177 F200.00
G01 X17.1621 Y32.1117 F200.00
G01 X17.1199 Y31.9937 F200.00
G01 X17.0913 Y31.8801 F200.00
G01 X17.0881 Y31.8641 F200.00
G01 X17.0711 Y31.7482 F200.00
G01 X17.0650 Y31.6271 F200.00
G01 X17.0651 Y31.6148 F200.00
G01 X17.0711 Y31.4978 F200.00
G01 X17.0881 Y31.3819 F200.00
G01 X17.0913 Y31.3659 F200.00
G01 X17.1199 Y31.2523 F200.00
G01 X17.1592 Y31.1420 F200.00
G01 X17.1655 Y31.1268 F200.00
G01 X17.2120 Y31.0283 F200.00
G01 X17.2198 Y31.0139 F200.00
G01 X17.2802 Y30.9135 F200.00
G01 X17.3548 Y30.8129 F200.00
G01 X17.4390 Y30.7200 F200.00
G01 X17.5256 Y30.6412 F200.00
G01 X17.5350 Y30.6333 F200.00
G01 X17.5477 Y30.6238 F200.00
G01 X17.5479 Y27.5508 F200.00
G01 X17.5509 Y27.4936 F200.00
G01 X17.5598 Y27.4329 F200.00
G01 X17.5623 Y27.4208 F200.00
G01 X17.5742 Y27.3732 F200.00
G01 X17.5790 Y27.3575 F200.00
G01 X17.5985 Y27.3037 F200.00
G01 X17.6265 Y27.2445 F200.00
G01 X17.6601 Y27.1883 F200.00
G01 X17.6941 Y27.1422 F200.00
G01 X17.7045 Y27.1295 F200.00
G01 X17.7431 Y27.0872 F200.00
G01 X18.8921 Y25.9385 F200.00
G01 X18.9315 Y25.9028 F200.00
G01 X18.9411 Y25.8952 F200.00
G01 X18.9872 Y25.8612 F200.00
G01 X19.0363 Y25.8316 F200.00
G01 X19.0507 Y25.8239 F200.00
G01 X19.1026 Y25.7995 F200.00
G01 X19.1565 Y25.7801 F200.00
G01 X19.1682 Y25.7763 F200.00
G01 X19.2278 Y25.7616 F200.00
G01 X19.2844 Y25.7530 F200.00
G01 X19.3007 Y25.7514 F200.00
G01 X19.3579 Y25.7487 F200.00
G01 X22.1519 Y25.7487 F200.00
G01 X22.2173 Y25.7520 F200.00
G01 X22.2821 Y25.7616 F200.00
G01 X22.3456 Y25.7775 F200.00
G01 X22.4073 Y25.7995 F200.00
G01 X22.4665 Y25.8275 F200.00
G01 X22.5226 Y25.8612 F200.00
G01 X22.5752 Y25.9002 F200.00
G01 X22.6238 Y25.9442 F200.00
G01 X29.1008 Y32.4212 F200.00
G01 X29.1447 Y32.4697 F200.00
G01 X29.1837 Y32.5223 F200.00
G01 X29.2134 Y32.5713 F200.00
G01 X29.2211 Y32.5858 F200.00
G01 X29.2454 Y32.6377 F200.00
G01 X29.2649 Y32.6915 F200.00
G01 X29.2696 Y32.7072 F200.00
G01 X29.2834 Y32.7628 F200.00
G01 X29.2920 Y32.8195 F200.00
G01 X29.2936 Y32.8358 F200.00
G01 X29.2962 Y32.8930 F200.00
G01 X29.2962 Y33.5787 F200.00
G01 X29.3708 Y33.6237 F200.00
G01 X29.4581 Y33.6884 F200.00
G01 X29.5386 Y33.7614 F200.00
G01 X29.6062 Y33.8356 F200.00
G01 X29.6141 Y33.8451 F200.00
G01 X29.6762 Y33.9291 F200.00
G01 X29.7321 Y34.0223 F200.00
G01 X29.7785 Y34.1204 F200.00
G01 X29.8125 Y34.2149 F200.00
G01 X29.8173 Y34.2306 F200.00
G01 X29.8415 Y34.3281 F200.00
G01 X29.8574 Y34.4355 F200.00
G01 X29.8627 Y34.5440 F200.00
G01 X29.8580 Y34.6443 F200.00
G01 X29.8564 Y34.6606 F200.00
G01 X29.8429 Y34.7518 F200.00
G01 X29.8397 Y34.7679 F200.00
G01 X29.8151 Y34.8653 F200.00
G01 X29.7785 Y34.9676 F200.00
G01 X29.7357 Y35.0584 F200.00
G01 X29.7280 Y35.0729 F200.00
G01 X29.6762 Y35.1589 F200.00
G01 X29.6166 Y35.2397 F200.00
G01 X29.6062 Y35.2524 F200.00
G01 X29.5386 Y35.3266 F200.00
G01 X29.4581 Y35.3996 F200.00
G01 X29.3775 Y35.4596 F200.00
G01 X29.3639 Y35.4687 F200.00
G01 X29.2777 Y35.5201 F200.00
G01 X29.1870 Y35.5632 F200.00
G01 X29.1718 Y35.5695 F200.00
G01 X29.0772 Y35.6031 F200.00
G01 X28.9719 Y35.6295 F200.00
G01 X28.8726 Y35.6445 F200.00
G01 X28.8563 Y35.6461 F200.00
G01 X28.7559 Y35.6508 F200.00
G01 X28.6556 Y35.6461 F200.00
G01 X28.6393 Y35.6445 F200.00
G01 X28.5400 Y35.6295 F200.00
G01 X28.4347 Y35.6031 F200.00
G01 X28.3324 Y35.5665 F200.00
G01 X28.2415 Y35.5238 F200.00
G01 X28.2271 Y35.5161 F200.00
G01 X28.1410 Y35.4643 F200.00
G01 X28.0603 Y35.4046 F200.00
G01 X28.0476 Y35.3942 F200.00
G01 X27.9733 Y35.3266 F200.00
G01 X27.9004 Y35.2461 F200.00
G01 X27.8357 Y35.1589 F200.00
G01 X27.7798 Y35.0657 F200.00
G01 X27.7334 Y34.9676 F200.00
G01 X27.6968 Y34.8653 F200.00
G01 X27.6704 Y34.7599 F200.00
G01 X27.6545 Y34.6525 F200.00
G01 X27.6491 Y34.5440 F200.00
G01 X27.6545 Y34.4355 F200.00
G01 X27.6704 Y34.3281 F200.00
G01 X27.6968 Y34.2227 F200.00
G01 X27.7334 Y34.1204 F200.00
G01 X27.7798 Y34.0223 F200.00
G01 X27.8357 Y33.9291 F200.00
G01 X27.9004 Y33.8419 F200.00
G01 X27.9617 Y33.7739 F200.00
G01 X27.9617 Y33.1694 F200.00
G01 X21.8756 Y27.0833 F200.00
G01 X19.6343 Y27.0833 F200.00
G01 X18.8822 Y27.8354 F200.00
G01 X18.8822 Y30.4674 F200.00
G00 Z2.0000
G00 X17.3139 Y30.5176
G01 F60.00
G01 Z-0.2500
G01 F200.00
G01 X17.3139 Y27.5590 F200.00
G01 X17.3144 Y27.5393 F200.00
G01 X17.3168 Y27.4903 F200.00
G01 X17.3182 Y27.4707 F200.00
G01 X17.3206 Y27.4512 F200.00
G01 X17.3278 Y27.4026 F200.00
G01 X17.3332 Y27.3736 F200.00
G01 X17.3474 Y27.3164 F200.00
G01 X17.3527 Y27.2974 F200.00
G01 X17.3589 Y27.2788 F200.00
G01 X17.3754 Y27.2325 F200.00
G01 X17.3825 Y27.2142 F200.00
G01 X17.3905 Y27.1962 F200.00
G01 X17.4114 Y27.1518 F200.00
G01 X17.4203 Y27.1342 F200.00
G01 X17.4300 Y27.1171 F200.00
G01 X17.4552 Y27.0750 F200.00
G01 X17.4713 Y27.0503 F200.00
G01 X17.5123 Y26.9951 F200.00
G01 X17.5313 Y26.9725 F200.00
G01 X17.5642 Y26.9361 F200.00
G01 X17.5778 Y26.9219 F200.00
G01 X18.7278 Y25.7720 F200.00
G01 X18.7714 Y25.7323 F200.00
G01 X18.7863 Y25.7195 F200.00
G01 X18.8018 Y25.7074 F200.00
G01 X18.8413 Y25.6781 F200.00
G01 X18.8573 Y25.6668 F200.00
G01 X18.8740 Y25.6563 F200.00
G01 X18.9161 Y25.6310 F200.00
G01 X18.9332 Y25.6213 F200.00
G01 X18.9508 Y25.6125 F200.00
G01 X19.0041 Y25.5874 F200.00
G01 X19.0315 Y25.5765 F200.00
G01 X19.0870 Y25.5567 F200.00
G01 X19.1058 Y25.5510 F200.00
G01 X19.1630 Y25.5366 F200.00
G01 X19.1918 Y25.5305 F200.00
G01 X19.2501 Y25.5217 F200.00
G01 X19.2696 Y25.5193 F200.00
G01 X19.2892 Y25.5178 F200.00
G01 X19.3383 Y25.5154 F200.00
G01 X19.3579 Y25.5149 F200.00
G01 X22.1618 Y25.5151 F200.00
G01 X22.2206 Y25.5178 F200.00
G01 X22.2403 Y25.5193 F200.00
G01 X22.2598 Y25.5217 F200.00
G01 X22.3181 Y25.5305 F200.00
G01 X22.3373 Y25.5343 F200.00
G01 X22.3945 Y25.5485 F200.00
G01 X22.4135 Y25.5537 F200.00
G01 X22.4322 Y25.5599 F200.00
G01 X22.4876 Y25.5799 F200.00
G01 X22.5147 Y25.5915 F200.00
G01 X22.5591 Y25.6125 F200.00
G01 X22.5767 Y25.6213 F200.00
G01 X22.5938 Y25.6310 F200.00
G01 X22.6359 Y25.6563 F200.00
G01 X22.6606 Y25.6724 F200.00
G01 X22.7159 Y25.7133 F200.00
G01 X22.7385 Y25.7323 F200.00
G01 X22.7748 Y25.7653 F200.00
G01 X22.7891 Y25.7789 F200.00
G01 X29.2661 Y32.2559 F200.00
G01 X29.2796 Y32.2701 F200.00
G01 X29.3126 Y32.3065 F200.00
G01 X29.3255 Y32.3214 F200.00
G01 X29.3376 Y32.3369 F200.00
G01 X29.3726 Y32.3843 F200.00
G01 X29.3887 Y32.4090 F200.00
G01 X29.4139 Y32.4511 F200.00
G01 X29.4236 Y32.4682 F200.00
G01 X29.4324 Y32.4858 F200.00
G01 X29.4534 Y32.5302 F200.00
G01 X29.4651 Y32.5573 F200.00
G01 X29.4850 Y32.6128 F200.00
G01 X29.4912 Y32.6314 F200.00
G01 X29.4964 Y32.6504 F200.00
G01 X29.5084 Y32.6980 F200.00
G01 X29.5145 Y32.7269 F200.00
G01 X29.5232 Y32.7852 F200.00
G01 X29.5257 Y32.8047 F200.00
G01 X29.5271 Y32.8243 F200.00
G01 X29.5299 Y32.8832 F200.00
G01 X29.5300 Y33.4504 F200.00
G01 X29.5909 Y33.4956 F200.00
G01 X29.6064 Y33.5077 F200.00
G01 X29.6213 Y33.5206 F200.00
G01 X29.6896 Y33.5825 F200.00
G01 X29.7039 Y33.5961 F200.00
G01 X29.7175 Y33.6103 F200.00
G01 X29.7794 Y33.6786 F200.00
G01 X29.7922 Y33.6935 F200.00
G01 X29.8043 Y33.7090 F200.00
G01 X29.8650 Y33.7911 F200.00
G01 X29.8811 Y33.8158 F200.00
G01 X29.9285 Y33.8949 F200.00
G01 X29.9382 Y33.9120 F200.00
G01 X29.9471 Y33.9296 F200.00
G01 X29.9865 Y34.0130 F200.00
G01 X29.9945 Y34.0310 F200.00
G01 X30.0016 Y34.0493 F200.00
G01 X30.0326 Y34.1362 F200.00
G01 X30.0416 Y34.1643 F200.00
G01 X30.0665 Y34.2633 F200.00
G01 X30.0708 Y34.2825 F200.00
G01 X30.0741 Y34.3018 F200.00
G01 X30.0877 Y34.3931 F200.00
G01 X30.0901 Y34.4126 F200.00
G01 X30.0915 Y34.4322 F200.00
G01 X30.0961 Y34.5243 F200.00
G01 X30.0965 Y34.5440 F200.00
G01 X30.0961 Y34.5637 F200.00
G01 X30.0915 Y34.6558 F200.00
G01 X30.0901 Y34.6754 F200.00
G01 X30.0877 Y34.6949 F200.00
G01 X30.0741 Y34.7862 F200.00
G01 X30.0687 Y34.8152 F200.00
G01 X30.0441 Y34.9142 F200.00
G01 X30.0388 Y34.9332 F200.00
G01 X30.0326 Y34.9518 F200.00
G01 X30.0016 Y35.0387 F200.00
G01 X29.9945 Y35.0570 F200.00
G01 X29.9865 Y35.0750 F200.00
G01 X29.9471 Y35.1584 F200.00
G01 X29.9335 Y35.1846 F200.00
G01 X29.8760 Y35.2806 F200.00
G01 X29.8593 Y35.3049 F200.00
G01 X29.8043 Y35.3790 F200.00
G01 X29.7922 Y35.3945 F200.00
G01 X29.7794 Y35.4094 F200.00
G01 X29.7175 Y35.4777 F200.00
G01 X29.7039 Y35.4919 F200.00
G01 X29.6896 Y35.5055 F200.00
G01 X29.6213 Y35.5674 F200.00
G01 X29.6064 Y35.5803 F200.00
G01 X29.5909 Y35.5924 F200.00
G01 X29.5168 Y35.6473 F200.00
G01 X29.5007 Y35.6587 F200.00
G01 X29.4841 Y35.6692 F200.00
G01 X29.4050 Y35.7166 F200.00
G01 X29.3879 Y35.7263 F200.00
G01 X29.3703 Y35.7351 F200.00
G01 X29.2869 Y35.7746 F200.00
G01 X29.2690 Y35.7826 F200.00
G01 X29.2506 Y35.7896 F200.00
G01 X29.1638 Y35.8207 F200.00
G01 X29.1451 Y35.8269 F200.00
G01 X29.1261 Y35.8321 F200.00
G01 X29.0367 Y35.8545 F200.00
G01 X29.0175 Y35.8588 F200.00
G01 X28.9981 Y35.8622 F200.00
G01 X28.9069 Y35.8757 F200.00
G01 X28.8873 Y35.8781 F200.00
G01 X28.8677 Y35.8796 F200.00
G01 X28.7756 Y35.8841 F200.00
G01 X28.7559 Y35.8846 F200.00
G01 X28.7363 Y35.8841 F200.00
G01 X28.6442 Y35.8796 F200.00
G01 X28.6245 Y35.8781 F200.00
G01 X28.6050 Y35.8757 F200.00
G01 X28.5138 Y35.8622 F200.00
G01 X28.4848 Y35.8568 F200.00
G01 X28.3762 Y35.8296 F200.00
G01 X28.3481 Y35.8207 F200.00
G01 X28.2613 Y35.7896 F200.00
G01 X28.2429 Y35.7826 F200.00
G01 X28.2249 Y35.7746 F200.00
G01 X28.1416 Y35.7351 F200.00
G01 X28.1240 Y35.7263 F200.00
G01 X28.1069 Y35.7166 F200.00
G01 X28.0278 Y35.6692 F200.00
G01 X28.0111 Y35.6587 F200.00
G01 X27.9951 Y35.6473 F200.00
G01 X27.9210 Y35.5924 F200.00
G01 X27.8979 Y35.5740 F200.00
G01 X27.8222 Y35.5055 F200.00
G01 X27.8080 Y35.4919 F200.00
G01 X27.7944 Y35.4777 F200.00
G01 X27.7325 Y35.4094 F200.00
G01 X27.7196 Y35.3945 F200.00
G01 X27.7075 Y35.3790 F200.00
G01 X27.6526 Y35.3049 F200.00
G01 X27.6413 Y35.2888 F200.00
G01 X27.6307 Y35.2722 F200.00
G01 X27.5833 Y35.1931 F200.00
G01 X27.5736 Y35.1760 F200.00
G01 X27.5648 Y35.1584 F200.00
G01 X27.5213 Y35.0661 F200.00
G01 X27.5103 Y35.0387 F200.00
G01 X27.4792 Y34.9518 F200.00
G01 X27.4731 Y34.9332 F200.00
G01 X27.4678 Y34.9142 F200.00
G01 X27.4454 Y34.8247 F200.00
G01 X27.4411 Y34.8055 F200.00
G01 X27.4377 Y34.7862 F200.00
G01 X27.4242 Y34.6949 F200.00
G01 X27.4218 Y34.6754 F200.00
G01 X27.4203 Y34.6558 F200.00
G01 X27.4158 Y34.5637 F200.00
G01 X27.4155 Y34.5342 F200.00
G01 X27.4210 Y34.4224 F200.00
G01 X27.4242 Y34.3931 F200.00
G01 X27.4377 Y34.3018 F200.00
G01 X27.4431 Y34.2728 F200.00
G01 X27.4678 Y34.1738 F200.00
G01 X27.4731 Y34.1548 F200.00
G01 X27.4792 Y34.1362 F200.00
G01 X27.5103 Y34.0493 F200.00
G01 X27.5174 Y34.0310 F200.00
G01 X27.5254 Y34.0130 F200.00
G01 X27.5648 Y33.9296 F200.00
G01 X27.5736 Y33.9120 F200.00
G01 X27.5833 Y33.8949 F200.00
G01 X27.6307 Y33.8158 F200.00
G01 X27.6413 Y33.7992 F200.00
G01 X27.6526 Y33.7831 F200.00
G01 X27.7075 Y33.7090 F200.00
G01 X27.7196 Y33.6935 F200.00
G01 X27.7279 Y33.6838 F200.00
G01 X27.7279 Y33.2662 F200.00
G01 X21.7787 Y27.3171 F200.00
G01 X19.7312 Y27.3171 F200.00
G01 X19.1160 Y27.9322 F200.00
G01 X19.1160 Y30.3271 F200.00
G01 X19.1730 Y30.3615 F200.00
G01 X19.1894 Y30.3724 F200.00
G01 X19.2927 Y30.4490 F200.00
G01 X19.3153 Y30.4680 F200.00
G01 X19.3960 Y30.5411 F200.00
G01 X19.4171 Y30.5617 F200.00
G01 X19.4970 Y30.6497 F200.00
G01 X19.5098 Y30.6646 F200.00
G01 X19.5219 Y30.6801 F200.00
G01 X19.5868 Y30.7676 F200.00
G01 X19.5981 Y30.7836 F200.00
G01 X19.6086 Y30.8003 F200.00
G01 X19.6696 Y30.9022 F200.00
G01 X19.6832 Y30.9284 F200.00
G01 X19.7298 Y31.0269 F200.00
G01 X19.7377 Y31.0448 F200.00
G01 X19.7448 Y31.0632 F200.00
G01 X19.7815 Y31.1658 F200.00
G01 X19.7877 Y31.1844 F200.00
G01 X19.7929 Y31.2034 F200.00
G01 X19.8194 Y31.3091 F200.00
G01 X19.8237 Y31.3283 F200.00
G01 X19.8271 Y31.3476 F200.00
G01 X19.8431 Y31.4554 F200.00
G01 X19.8455 Y31.4749 F200.00
G01 X19.8469 Y31.4945 F200.00
G01 X19.8526 Y31.6132 F200.00
G01 X19.8523 Y31.6427 F200.00
G01 X19.8469 Y31.7515 F200.00
G01 X19.8455 Y31.7711 F200.00
G01 X19.8431 Y31.7906 F200.00
G01 X19.8271 Y31.8984 F200.00
G01 X19.8237 Y31.9177 F200.00
G01 X19.8194 Y31.9369 F200.00
G01 X19.7929 Y32.0426 F200.00
G01 X19.7877 Y32.0616 F200.00
G01 X19.7815 Y32.0802 F200.00
G01 X19.7448 Y32.1828 F200.00
G01 X19.7377 Y32.2012 F200.00
G01 X19.7298 Y32.2191 F200.00
G01 X19.6832 Y32.3176 F200.00
G01 X19.6743 Y32.3352 F200.00
G01 X19.6647 Y32.3523 F200.00
G01 X19.6086 Y32.4457 F200.00
G01 X19.5981 Y32.4624 F200.00
G01 X19.5868 Y32.4784 F200.00
G01 X19.5219 Y32.5659 F200.00
G01 X19.5098 Y32.5814 F200.00
G01 X19.4970 Y32.5963 F200.00
G01 X19.4238 Y32.6770 F200.00
G01 X19.4102 Y32.6913 F200.00
G01 X19.3960 Y32.7049 F200.00
G01 X19.3153 Y32.7780 F200.00
G01 X19.3004 Y32.7909 F200.00
G01 X19.2849 Y32.8030 F200.00
G01 X19.1894 Y32.8736 F200.00
G01 X19.1647 Y32.8897 F200.00
G01 X19.0712 Y32.9457 F200.00
G01 X19.0541 Y32.9554 F200.00
G01 X19.0366 Y32.9643 F200.00
G01 X18.9381 Y33.0108 F200.00
G01 X18.9201 Y33.0188 F200.00
G01 X18.9017 Y33.0259 F200.00
G01 X18.7992 Y33.0626 F200.00
G01 X18.7805 Y33.0687 F200.00
G01 X18.7615 Y33.0740 F200.00
G01 X18.6559 Y33.1005 F200.00
G01 X18.6367 Y33.1048 F200.00
G01 X18.6173 Y33.1081 F200.00
G01 X18.4998 Y33.1254 F200.00
G01 X18.4704 Y33.1280 F200.00
G01 X18.3616 Y33.1333 F200.00
G01 X18.3321 Y33.1337 F200.00
G01 X18.2135 Y33.1280 F200.00
G01 X18.1939 Y33.1265 F200.00
G01 X18.1743 Y33.1241 F200.00
G01 X18.0666 Y33.1081 F200.00
G01 X18.0472 Y33.1048 F200.00
G01 X18.0280 Y33.1005 F200.00
G01 X17.9223 Y33.0740 F200.00
G01 X17.9034 Y33.0687 F200.00
G01 X17.8847 Y33.0626 F200.00
G01 X17.7821 Y33.0259 F200.00
G01 X17.7638 Y33.0188 F200.00
G01 X17.7458 Y33.0108 F200.00
G01 X17.6473 Y32.9643 F200.00
G01 X17.6298 Y32.9554 F200.00
G01 X17.6126 Y32.9457 F200.00
G01 X17.5192 Y32.8897 F200.00
G01 X17.5026 Y32.8792 F200.00
G01 X17.4865 Y32.8679 F200.00
G01 X17.3990 Y32.8030 F200.00
G01 X17.3835 Y32.7909 F200.00
G01 X17.3686 Y32.7780 F200.00
G01 X17.2879 Y32.7049 F200.00
G01 X17.2736 Y32.6913 F200.00
G01 X17.2601 Y32.6770 F200.00
G01 X17.1869 Y32.5963 F200.00
G01 X17.1679 Y32.5738 F200.00
G01 X17.0971 Y32.4784 F200.00
G01 X17.0858 Y32.4624 F200.00
G01 X17.0752 Y32.4457 F200.00
G01 X17.0192 Y32.3523 F200.00
G01 X17.0095 Y32.3352 F200.00
G01 X17.0007 Y32.3176 F200.00
G01 X16.9541 Y32.2191 F200.00
G01 X16.9461 Y32.2012 F200.00
G01 X16.9391 Y32.1828 F200.00
G01 X16.9024 Y32.0802 F200.00
G01 X16.8962 Y32.0616 F200.00
G01 X16.8909 Y32.0426 F200.00
G01 X16.8645 Y31.9369 F200.00
G01 X16.8602 Y31.9177 F200.00
G01 X16.8568 Y31.8984 F200.00
G01 X16.8408 Y31.7906 F200.00
G01 X16.8384 Y31.7711 F200.00
G01 X16.8370 Y31.7515 F200.00
G01 X16.8316 Y31.6427 F200.00
G01 X16.8311 Y31.6230 F200.00
G01 X16.8316 Y31.6033 F200.00
G01 X16.8376 Y31.4847 F200.00
G01 X16.8408 Y31.4554 F200.00
G01 X16.8568 Y31.3476 F200.00
G01 X16.8602 Y31.3283 F200.00
G01 X16.8645 Y31.3091 F200.00
G01 X16.8909 Y31.2034 F200.00
G01 X16.8962 Y31.1844 F200.00
G01 X16.9024 Y31.1658 F200.00
G01 X16.9391 Y31.0632 F200.00
G01 X16.9461 Y31.0448 F200.00
G01 X16.9541 Y31.0269 F200.00
G01 X17.0050 Y30.9195 F200.00
G01 X17.0192 Y30.8937 F200.00
G01 X17.0752 Y30.8003 F200.00
G01 X17.0858 Y30.7836 F200.00
G01 X17.0971 Y30.7676 F200.00
G01 X17.1679 Y30.6722 F200.00
G01 X17.1869 Y30.6497 F200.00
G01 X17.2668 Y30.5617 F200.00
G01 X17.2807 Y30.5478 F200.00
G01 X17.3139 Y30.5176 F200.00
G00 Z2.0000
G00 X16.3830 Y31.3551
G01 F60.00
G01 Z-0.2500
G01 F200.00
G01 X16.3754 Y31.4079 F200.00
G01 X16.3731 Y31.4291 F200.00
G01 X16.3712 Y31.4503 F200.00
G01 X16.3646 Y31.5804 F200.00
G01 X16.3638 Y31.6017 F200.00
G01 X16.3635 Y31.6230 F200.00
G01 X16.3638 Y31.6443 F200.00
G01 X16.3699 Y31.7744 F200.00
G01 X16.3712 Y31.7957 F200.00
G01 X16.3731 Y31.8169 F200.00
G01 X16.3754 Y31.8381 F200.00
G01 X16.3783 Y31.8592 F200.00
G01 X16.3943 Y31.9670 F200.00
G01 X16.3977 Y31.9880 F200.00
G01 X16.4016 Y32.0090 F200.00
G01 X16.4060 Y32.0298 F200.00
G01 X16.4374 Y32.1562 F200.00
G01 X16.4428 Y32.1768 F200.00
G01 X16.4487 Y32.1973 F200.00
G01 X16.4552 Y32.2176 F200.00
G01 X16.4621 Y32.2378 F200.00
G01 X16.4988 Y32.3403 F200.00
G01 X16.5062 Y32.3603 F200.00
G01 X16.5141 Y32.3801 F200.00
G01 X16.5225 Y32.3997 F200.00
G01 X16.5314 Y32.4191 F200.00
G01 X16.5780 Y32.5175 F200.00
G01 X16.5873 Y32.5367 F200.00
G01 X16.5971 Y32.5556 F200.00
G01 X16.6074 Y32.5743 F200.00
G01 X16.6182 Y32.5927 F200.00
G01 X16.6853 Y32.7043 F200.00
G01 X16.6970 Y32.7221 F200.00
G01 X16.7090 Y32.7397 F200.00
G01 X16.7215 Y32.7570 F200.00
G01 X16.7993 Y32.8614 F200.00
G01 X16.8126 Y32.8781 F200.00
G01 X16.8263 Y32.8944 F200.00
G01 X16.9136 Y32.9911 F200.00
G01 X16.9281 Y33.0067 F200.00
G01 X16.9430 Y33.0219 F200.00
G01 X16.9583 Y33.0368 F200.00
G01 X16.9739 Y33.0513 F200.00
G01 X17.0705 Y33.1386 F200.00
G01 X17.0869 Y33.1523 F200.00
G01 X17.1035 Y33.1656 F200.00
G01 X17.1205 Y33.1785 F200.00
G01 X17.2080 Y33.2434 F200.00
G01 X17.2252 Y33.2559 F200.00
G01 X17.2428 Y33.2680 F200.00
G01 X17.2607 Y33.2796 F200.00
G01 X17.2788 Y33.2908 F200.00
G01 X17.3722 Y33.3468 F200.00
G01 X17.3907 Y33.3575 F200.00
G01 X17.4093 Y33.3678 F200.00
G01 X17.4282 Y33.3776 F200.00
G01 X17.4474 Y33.3870 F200.00
G01 X17.5459 Y33.4335 F200.00
G01 X17.5652 Y33.4424 F200.00
G01 X17.5848 Y33.4508 F200.00
G01 X17.6046 Y33.4587 F200.00
G01 X17.6246 Y33.4661 F200.00
G01 X17.7473 Y33.5098 F200.00
G01 X17.7676 Y33.5162 F200.00
G01 X17.7881 Y33.5221 F200.00
G01 X17.8087 Y33.5276 F200.00
G01 X17.9144 Y33.5540 F200.00
G01 X17.9351 Y33.5590 F200.00
G01 X17.9560 Y33.5634 F200.00
G01 X17.9769 Y33.5673 F200.00
G01 X17.9980 Y33.5707 F200.00
G01 X18.1268 Y33.5895 F200.00
G01 X18.1480 Y33.5919 F200.00
G01 X18.1693 Y33.5937 F200.00
G01 X18.1905 Y33.5950 F200.00
G01 X18.2993 Y33.6004 F200.00
G01 X18.3206 Y33.6011 F200.00
G01 X18.3419 Y33.6014 F200.00
G01 X18.3633 Y33.6011 F200.00
G01 X18.3846 Y33.6004 F200.00
G01 X18.4933 Y33.5950 F200.00
G01 X18.5146 Y33.5937 F200.00
G01 X18.5359 Y33.5919 F200.00
G01 X18.5570 Y33.5895 F200.00
G01 X18.6859 Y33.5707 F200.00
G01 X18.7070 Y33.5673 F200.00
G01 X18.7279 Y33.5634 F200.00
G01 X18.7488 Y33.5590 F200.00
G01 X18.7695 Y33.5540 F200.00
G01 X18.8958 Y33.5221 F200.00
G01 X18.9162 Y33.5162 F200.00
G01 X18.9366 Y33.5098 F200.00
G01 X18.9567 Y33.5028 F200.00
G01 X19.0593 Y33.4661 F200.00
G01 X19.0793 Y33.4587 F200.00
G01 X19.0990 Y33.4508 F200.00
G01 X19.1186 Y33.4424 F200.00
G01 X19.1380 Y33.4335 F200.00
G01 X19.2365 Y33.3870 F200.00
G01 X19.2556 Y33.3776 F200.00
G01 X19.2746 Y33.3678 F200.00
G01 X19.2932 Y33.3575 F200.00
G01 X19.4051 Y33.2908 F200.00
G01 X19.4232 Y33.2796 F200.00
G01 X19.4411 Y33.2680 F200.00
G01 X19.4587 Y33.2559 F200.00
G01 X19.4759 Y33.2434 F200.00
G01 X19.5634 Y33.1785 F200.00
G01 X19.5804 Y33.1656 F200.00
G01 X19.5970 Y33.1523 F200.00
G01 X19.6133 Y33.1386 F200.00
G01 X19.7100 Y33.0513 F200.00
G01 X19.7256 Y33.0368 F200.00
G01 X19.7409 Y33.0219 F200.00
G01 X19.7558 Y33.0067 F200.00
G01 X19.7703 Y32.9911 F200.00
G01 X19.8434 Y32.9104 F200.00
G01 X19.8575 Y32.8944 F200.00
G01 X19.8713 Y32.8781 F200.00
G01 X19.8846 Y32.8614 F200.00
G01 X19.8975 Y32.8445 F200.00
G01 X19.9624 Y32.7570 F200.00
G01 X19.9749 Y32.7397 F200.00
G01 X19.9869 Y32.7221 F200.00
G01 X19.9985 Y32.7043 F200.00
G01 X20.0657 Y32.5927 F200.00
G01 X20.0765 Y32.5743 F200.00
G01 X20.0867 Y32.5556 F200.00
G01 X20.0965 Y32.5367 F200.00
G01 X20.1059 Y32.5175 F200.00
G01 X20.1525 Y32.4191 F200.00
G01 X20.1613 Y32.3997 F200.00
G01 X20.1697 Y32.3801 F200.00
G01 X20.1777 Y32.3603 F200.00
G01 X20.2218 Y32.2378 F200.00
G01 X20.2287 Y32.2176 F200.00
G01 X20.2352 Y32.1973 F200.00
G01 X20.2411 Y32.1768 F200.00
G01 X20.2465 Y32.1562 F200.00
G01 X20.2730 Y32.0506 F200.00
G01 X20.2779 Y32.0298 F200.00
G01 X20.2823 Y32.0090 F200.00
G01 X20.2862 Y31.9880 F200.00
G01 X20.2896 Y31.9670 F200.00
G01 X20.3085 Y31.8381 F200.00
G01 X20.3108 Y31.8169 F200.00
G01 X20.3126 Y31.7957 F200.00
G01 X20.3139 Y31.7744 F200.00
G01 X20.3201 Y31.6443 F200.00
G01 X20.3203 Y31.6230 F200.00
G01 X20.3201 Y31.6017 F200.00
G01 X20.3139 Y31.4716 F200.00
G01 X20.3126 Y31.4503 F200.00
G01 X20.3108 Y31.4291 F200.00
G01 X20.3085 Y31.4079 F200.00
G01 X20.3009 Y31.3551 F200.00
G01 X20.3281 Y31.3631 F200.00
G01 X20.3487 Y31.3686 F200.00
G01 X20.4544 Y31.3950 F200.00
G01 X20.4751 Y31.4000 F200.00
G01 X20.4960 Y31.4044 F200.00
G01 X20.5169 Y31.4083 F200.00
G01 X20.5380 Y31.4117 F200.00
G01 X20.6457 Y31.4277 F200.00
G01 X20.6668 Y31.4305 F200.00
G01 X20.6893 Y31.4330 F200.00
G01 X22.7703 Y33.5140 F200.00
G01 X21.3310 Y34.9534 F200.00
G01 X19.4938 Y34.9533 F200.00
G01 X19.4637 Y34.9274 F200.00
G01 X19.4470 Y34.9141 F200.00
G01 X19.4301 Y34.9012 F200.00
G01 X19.3261 Y34.8244 F200.00
G01 X19.3085 Y34.8123 F200.00
G01 X19.2907 Y34.8007 F200.00
G01 X19.2725 Y34.7895 F200.00
G01 X19.1615 Y34.7233 F200.00
G01 X19.1428 Y34.7130 F200.00
G01 X19.1239 Y34.7032 F200.00
G01 X19.1048 Y34.6939 F200.00
G01 X19.0072 Y34.6477 F200.00
G01 X18.9878 Y34.6388 F200.00
G01 X18.9682 Y34.6304 F200.00
G01 X18.9484 Y34.6225 F200.00
G01 X18.9284 Y34.6151 F200.00
G01 X18.8067 Y34.5718 F200.00
G01 X18.7863 Y34.5654 F200.00
G01 X18.7659 Y34.5594 F200.00
G01 X18.7453 Y34.5540 F200.00
G01 X18.6405 Y34.5278 F200.00
G01 X18.6198 Y34.5228 F200.00
G01 X18.5990 Y34.5184 F200.00
G01 X18.5780 Y34.5145 F200.00
G01 X18.5570 Y34.5111 F200.00
G01 X18.4291 Y34.4924 F200.00
G01 X18.4079 Y34.4901 F200.00
G01 X18.3866 Y34.4882 F200.00
G01 X18.3654 Y34.4869 F200.00
G01 X18.2363 Y34.4809 F200.00
G01 X18.2149 Y34.4806 F200.00
G01 X18.1936 Y34.4809 F200.00
G01 X18.0645 Y34.4869 F200.00
G01 X18.0432 Y34.4882 F200.00
G01 X18.0220 Y34.4901 F200.00
G01 X18.0008 Y34.4924 F200.00
G01 X17.8729 Y34.5111 F200.00
G01 X17.8519 Y34.5145 F200.00
G01 X17.8309 Y34.5184 F200.00
G01 X17.8101 Y34.5228 F200.00
G01 X17.7893 Y34.5278 F200.00
G01 X17.6846 Y34.5540 F200.00
G01 X17.6640 Y34.5594 F200.00
G01 X17.6435 Y34.5654 F200.00
G01 X17.6232 Y34.5718 F200.00
G01 X17.6031 Y34.5787 F200.00
G01 X17.5014 Y34.6151 F200.00
G01 X17.4815 Y34.6225 F200.00
G01 X17.4617 Y34.6304 F200.00
G01 X17.4421 Y34.6388 F200.00
G01 X17.4227 Y34.6477 F200.00
G01 X17.3251 Y34.6939 F200.00
G01 X17.3060 Y34.7032 F200.00
G01 X17.2870 Y34.7130 F200.00
G01 X17.2684 Y34.7233 F200.00
G01 X17.2500 Y34.7340 F200.00
G01 X17.1574 Y34.7895 F200.00
G01 X17.1392 Y34.8007 F200.00
G01 X17.1214 Y34.8123 F200.00
G01 X17.1038 Y34.8244 F200.00
G01 X17.0865 Y34.8369 F200.00
G01 X16.9998 Y34.9012 F200.00
G01 X16.9828 Y34.9141 F200.00
G01 X16.9662 Y34.9274 F200.00
G01 X16.9499 Y34.9411 F200.00
G01 X16.9339 Y34.9552 F200.00
G01 X16.8539 Y35.0277 F200.00
G01 X16.8383 Y35.0422 F200.00
G01 X16.8231 Y35.0571 F200.00
G01 X16.8082 Y35.0724 F200.00
G01 X16.7937 Y35.0880 F200.00
G01 X16.7212 Y35.1680 F200.00
G01 X16.7071 Y35.1840 F200.00
G01 X16.6933 Y35.2003 F200.00
G01 X16.6800 Y35.2169 F200.00
G01 X16.6671 Y35.2339 F200.00
G01 X16.5903 Y35.3378 F200.00
G01 X16.5783 Y35.3554 F200.00
G01 X16.5667 Y35.3733 F200.00
G01 X16.5555 Y35.3914 F200.00
G01 X16.5000 Y35.4840 F200.00
G01 X16.4892 Y35.5024 F200.00
G01 X16.4790 Y35.5211 F200.00
G01 X16.4692 Y35.5400 F200.00
G01 X16.4598 Y35.5592 F200.00
G01 X16.4136 Y35.6568 F200.00
G01 X16.4048 Y35.6761 F200.00
G01 X16.3964 Y35.6957 F200.00
G01 X16.3885 Y35.7155 F200.00
G01 X16.3447 Y35.8371 F200.00
G01 X16.3377 Y35.8573 F200.00
G01 X16.3313 Y35.8776 F200.00
G01 X16.3254 Y35.8981 F200.00
G01 X16.3199 Y35.9187 F200.00
G01 X16.2937 Y36.0234 F200.00
G01 X16.2888 Y36.0441 F200.00
G01 X16.2844 Y36.0650 F200.00
G01 X16.2805 Y36.0859 F200.00
G01 X16.2771 Y36.1070 F200.00
G01 X16.2584 Y36.2349 F200.00
G01 X16.2560 Y36.2561 F200.00
G01 X16.2542 Y36.2773 F200.00
G01 X16.2529 Y36.2986 F200.00
G01 X16.2476 Y36.4064 F200.00
G01 X16.2468 Y36.4277 F200.00
G01 X16.2465 Y36.4490 F200.00
G01 X16.2468 Y36.4703 F200.00
G01 X16.2476 Y36.4916 F200.00
G01 X16.2529 Y36.5994 F200.00
G01 X16.2542 Y36.6207 F200.00
G01 X16.2560 Y36.6419 F200.00
G01 X16.2584 Y36.6631 F200.00
G01 X16.2771 Y36.7910 F200.00
G01 X16.2805 Y36.8121 F200.00
G01 X16.2844 Y36.8330 F200.00
G01 X16.2888 Y36.8539 F200.00
G01 X16.2937 Y36.8746 F200.00
G01 X16.3199 Y36.9793 F200.00
G01 X16.3254 Y36.9999 F200.00
G01 X16.3313 Y37.0204 F200.00
G01 X16.3377 Y37.0407 F200.00
G01 X16.3810 Y37.1625 F200.00
G01 X16.3885 Y37.1825 F200.00
G01 X16.3964 Y37.2023 F200.00
G01 X16.4048 Y37.2219 F200.00
G01 X16.4136 Y37.2412 F200.00
G01 X16.4598 Y37.3388 F200.00
G01 X16.4692 Y37.3580 F200.00
G01 X16.4790 Y37.3769 F200.00
G01 X16.4892 Y37.3956 F200.00
G01 X16.5000 Y37.4140 F200.00
G01 X16.5555 Y37.5066 F200.00
G01 X16.5667 Y37.5247 F200.00
G01 X16.5783 Y37.5426 F200.00
G01 X16.5903 Y37.5602 F200.00
G01 X16.6671 Y37.6641 F200.00
G01 X16.6800 Y37.6811 F200.00
G01 X16.6933 Y37.6977 F200.00
G01 X16.7071 Y37.7140 F200.00
G01 X16.7212 Y37.7300 F200.00
G01 X16.7937 Y37.8100 F200.00
G01 X16.8082 Y37.8256 F200.00
G01 X16.8231 Y37.8409 F200.00
G01 X16.8383 Y37.8558 F200.00
G01 X16.9339 Y37.9428 F200.00
G01 X16.9499 Y37.9569 F200.00
G01 X16.9662 Y37.9706 F200.00
G01 X16.9828 Y37.9839 F200.00
G01 X16.9998 Y37.9968 F200.00
G01 X17.0865 Y38.0611 F200.00
G01 X17.1038 Y38.0736 F200.00
G01 X17.1214 Y38.0857 F200.00
G01 X17.1392 Y38.0973 F200.00
G01 X17.1574 Y38.1085 F200.00
G01 X17.2684 Y38.1747 F200.00
G01 X17.2870 Y38.1850 F200.00
G01 X17.3060 Y38.1948 F200.00
G01 X17.4227 Y38.2503 F200.00
G01 X17.4421 Y38.2592 F200.00
G01 X17.4617 Y38.2676 F200.00
G01 X17.4815 Y38.2755 F200.00
G01 X17.5014 Y38.2829 F200.00
G01 X17.6232 Y38.3262 F200.00
G01 X17.6435 Y38.3326 F200.00
G01 X17.6640 Y38.3386 F200.00
G01 X17.7245 Y38.3540 F200.00
G01 X17.6640 Y38.3694 F200.00
G01 X17.6435 Y38.3754 F200.00
G01 X17.6232 Y38.3818 F200.00
G01 X17.6031 Y38.3887 F200.00
G01 X17.4815 Y38.4325 F200.00
G01 X17.4617 Y38.4404 F200.00
G01 X17.4421 Y38.4488 F200.00
G01 X17.4227 Y38.4577 F200.00
G01 X17.3060 Y38.5132 F200.00
G01 X17.2870 Y38.5230 F200.00
G01 X17.2684 Y38.5333 F200.00
G01 X17.2500 Y38.5440 F200.00
G01 X17.1574 Y38.5995 F200.00
G01 X17.1392 Y38.6107 F200.00
G01 X17.1214 Y38.6223 F200.00
G01 X17.1038 Y38.6344 F200.00
G01 X17.0865 Y38.6469 F200.00
G01 X16.9998 Y38.7112 F200.00
G01 X16.9828 Y38.7241 F200.00
G01 X16.9662 Y38.7374 F200.00
G01 X16.9499 Y38.7511 F200.00
G01 X16.8539 Y38.8377 F200.00
G01 X16.8383 Y38.8522 F200.00
G01 X16.8231 Y38.8671 F200.00
G01 X16.8082 Y38.8824 F200.00
G01 X16.7937 Y38.8980 F200.00
G01 X16.7212 Y38.9780 F200.00
G01 X16.7071 Y38.9940 F200.00
G01 X16.6933 Y39.0103 F200.00
G01 X16.6800 Y39.0269 F200.00
G01 X16.6671 Y39.0439 F200.00
G01 X16.6028 Y39.1306 F200.00
G01 X16.5903 Y39.1478 F200.00
G01 X16.5783 Y39.1654 F200.00
G01 X16.5667 Y39.1833 F200.00
G01 X16.5000 Y39.2940 F200.00
G01 X16.4892 Y39.3124 F200.00
G01 X16.4790 Y39.3311 F200.00
G01 X16.4692 Y39.3500 F200.00
G01 X16.4598 Y39.3692 F200.00
G01 X16.4136 Y39.4668 F200.00
G01 X16.4048 Y39.4861 F200.00
G01 X16.3964 Y39.5057 F200.00
G01 X16.3885 Y39.5255 F200.00
G01 X16.3810 Y39.5455 F200.00
G01 X16.3377 Y39.6673 F200.00
G01 X16.3313 Y39.6876 F200.00
G01 X16.3254 Y39.7081 F200.00
G01 X16.3199 Y39.7287 F200.00
G01 X16.2937 Y39.8334 F200.00
G01 X16.2888 Y39.8541 F200.00
G01 X16.2844 Y39.8750 F200.00
G01 X16.2805 Y39.8959 F200.00
G01 X16.2771 Y39.9170 F200.00
G01 X16.2612 Y40.0238 F200.00
G01 X16.2584 Y40.0449 F200.00
G01 X16.2560 Y40.0661 F200.00
G01 X16.2542 Y40.0873 F200.00
G01 X16.2476 Y40.2164 F200.00
G01 X16.2468 Y40.2377 F200.00
G01 X16.2465 Y40.2590 F200.00
G01 X16.2468 Y40.2803 F200.00
G01 X16.2476 Y40.3016 F200.00
G01 X16.2529 Y40.4094 F200.00
G01 X16.2542 Y40.4307 F200.00
G01 X16.2560 Y40.4519 F200.00
G01 X16.2584 Y40.4731 F200.00
G01 X16.2612 Y40.4942 F200.00
G01 X16.2771 Y40.6010 F200.00
G01 X16.2805 Y40.6221 F200.00
G01 X16.2844 Y40.6430 F200.00
G01 X16.2888 Y40.6639 F200.00
G01 X16.2937 Y40.6846 F200.00
G01 X16.3254 Y40.8099 F200.00
G01 X16.3313 Y40.8304 F200.00
G01 X16.3377 Y40.8507 F200.00
G01 X16.3447 Y40.8709 F200.00
G01 X16.3810 Y40.9725 F200.00
G01 X16.3885 Y40.9925 F200.00
G01 X16.3964 Y41.0123 F200.00
G01 X16.4048 Y41.0319 F200.00
G01 X16.4136 Y41.0512 F200.00
G01 X16.4598 Y41.1488 F200.00
G01 X16.4692 Y41.1680 F200.00
G01 X16.4790 Y41.1869 F200.00
G01 X16.4892 Y41.2056 F200.00
G01 X16.5000 Y41.2240 F200.00
G01 X16.5667 Y41.3347 F200.00
G01 X16.5783 Y41.3526 F200.00
G01 X16.5903 Y41.3702 F200.00
G01 X16.6028 Y41.3874 F200.00
G01 X16.6671 Y41.4741 F200.00
G01 X16.6800 Y41.4911 F200.00
G01 X16.6933 Y41.5077 F200.00
G01 X16.7071 Y41.5240 F200.00
G01 X16.7212 Y41.5400 F200.00
G01 X16.8082 Y41.6356 F200.00
G01 X16.8231 Y41.6509 F200.00
G01 X16.8383 Y41.6658 F200.00
G01 X16.8539 Y41.6803 F200.00
G01 X16.9339 Y41.7528 F200.00
G01 X16.9499 Y41.7669 F200.00
G01 X16.9662 Y41.7806 F200.00
G01 X16.9828 Y41.7939 F200.00
G01 X16.9998 Y41.8068 F200.00
G01 X17.0865 Y41.8711 F200.00
G01 X17.1038 Y41.8836 F200.00
G01 X17.1214 Y41.8957 F200.00
G01 X17.1392 Y41.9073 F200.00
G01 X17.2500 Y41.9740 F200.00
G01 X17.2684 Y41.9847 F200.00
G01 X17.2870 Y41.9950 F200.00
G01 X17.3060 Y42.0048 F200.00
G01 X17.3251 Y42.0141 F200.00
G01 X17.4227 Y42.0603 F200.00
G01 X17.4421 Y42.0692 F200.00
G01 X17.4617 Y42.0776 F200.00
G01 X17.4815 Y42.0855 F200.00
G01 X17.5014 Y42.0929 F200.00
G01 X17.6232 Y42.1362 F200.00
G01 X17.6435 Y42.1426 F200.00
G01 X17.6640 Y42.1486 F200.00
G01 X17.6846 Y42.1540 F200.00
G01 X17.7893 Y42.1802 F200.00
G01 X17.8101 Y42.1852 F200.00
G01 X17.8309 Y42.1896 F200.00
G01 X17.8519 Y42.1935 F200.00
G01 X17.8729 Y42.1969 F200.00
G01 X17.9797 Y42.2127 F200.00
G01 X18.0008 Y42.2156 F200.00
G01 X18.0220 Y42.2179 F200.00
G01 X18.0432 Y42.2198 F200.00
G01 X18.1723 Y42.2264 F200.00
G01 X18.1936 Y42.2271 F200.00
G01 X18.2149 Y42.2274 F200.00
G01 X18.2363 Y42.2271 F200.00
G01 X18.2576 Y42.2264 F200.00
G01 X18.3654 Y42.2211 F200.00
G01 X18.3866 Y42.2198 F200.00
G01 X18.4079 Y42.2179 F200.00
G01 X18.4291 Y42.2156 F200.00
G01 X18.4502 Y42.2127 F200.00
G01 X18.5570 Y42.1969 F200.00
G01 X18.5780 Y42.1935 F200.00
G01 X18.5990 Y42.1896 F200.00
G01 X18.6198 Y42.1852 F200.00
G01 X18.6405 Y42.1802 F200.00
G01 X18.7453 Y42.1540 F200.00
G01 X18.7659 Y42.1486 F200.00
G01 X18.7863 Y42.1426 F200.00
G01 X18.8067 Y42.1362 F200.00
G01 X18.8268 Y42.1293 F200.00
G01 X18.9484 Y42.0855 F200.00
G01 X18.9682 Y42.0776 F200.00
G01 X18.9878 Y42.0692 F200.00
G01 X19.0072 Y42.0603 F200.00
G01 X19.1048 Y42.0141 F200.00
G01 X19.1239 Y42.0048 F200.00
G01 X19.1428 Y41.9950 F200.00
G01 X19.1615 Y41.9847 F200.00
G01 X19.1799 Y41.9740 F200.00
G01 X19.2725 Y41.9185 F200.00
G01 X19.2907 Y41.9073 F200.00
G01 X19.3085 Y41.8957 F200.00
G01 X19.3261 Y41.8836 F200.00
G01 X19.3434 Y41.8711 F200.00
G01 X19.4470 Y41.7939 F200.00
G01 X19.4637 Y41.7806 F200.00
G01 X19.4800 Y41.7669 F200.00
G01 X19.4960 Y41.7528 F200.00
G01 X19.5759 Y41.6803 F200.00
G01 X19.5916 Y41.6658 F200.00
G01 X19.6068 Y41.6509 F200.00
G01 X19.6217 Y41.6356 F200.00
G01 X19.6362 Y41.6200 F200.00
G01 X19.7087 Y41.5400 F200.00
G01 X19.7228 Y41.5240 F200.00
G01 X19.7422 Y41.5006 F200.00
G01 X21.3310 Y41.5006 F200.00
G01 X23.1106 Y43.2802 F200.00
G01 X23.1208 Y43.3198 F200.00
G01 X23.1267 Y43.3403 F200.00
G01 X23.1331 Y43.3606 F200.00
G01 X23.1698 Y43.4639 F200.00
G01 X23.1772 Y43.4839 F200.00
G01 X23.1852 Y43.5037 F200.00
G01 X23.1935 Y43.5233 F200.00
G01 X23.2402 Y43.6225 F200.00
G01 X23.2495 Y43.6416 F200.00
G01 X23.2594 Y43.6606 F200.00
G01 X23.2696 Y43.6792 F200.00
G01 X23.3258 Y43.7734 F200.00
G01 X23.3369 Y43.7915 F200.00
G01 X23.3486 Y43.8094 F200.00
G01 X23.3606 Y43.8270 F200.00
G01 X23.3731 Y43.8443 F200.00
G01 X23.4257 Y43.9152 F200.00
G01 X23.4386 Y43.9322 F200.00
G01 X23.4519 Y43.9488 F200.00
G01 X23.4657 Y43.9651 F200.00
G01 X23.4798 Y43.9811 F200.00
G01 X23.5536 Y44.0621 F200.00
G01 X23.5685 Y44.0774 F200.00
G01 X23.5837 Y44.0923 F200.00
G01 X23.6648 Y44.1661 F200.00
G01 X23.6808 Y44.1802 F200.00
G01 X23.6971 Y44.1939 F200.00
G01 X23.7137 Y44.2072 F200.00
G01 X23.7307 Y44.2202 F200.00
G01 X23.8016 Y44.2728 F200.00
G01 X23.8189 Y44.2853 F200.00
G01 X23.8365 Y44.2973 F200.00
G01 X23.8543 Y44.3089 F200.00
G01 X23.8725 Y44.3201 F200.00
G01 X23.9482 Y44.3655 F200.00
G01 X23.9667 Y44.3763 F200.00
G01 X23.9853 Y44.3865 F200.00
G01 X24.0042 Y44.3963 F200.00
G01 X24.0234 Y44.4057 F200.00
G01 X24.1032 Y44.4435 F200.00
G01 X24.1226 Y44.4523 F200.00
G01 X24.1422 Y44.4607 F200.00
G01 X24.1620 Y44.4686 F200.00
G01 X24.1820 Y44.4761 F200.00
G01 X24.2853 Y44.5128 F200.00
G01 X24.3056 Y44.5192 F200.00
G01 X24.3261 Y44.5251 F200.00
G01 X24.4324 Y44.5520 F200.00
G01 X24.4531 Y44.5569 F200.00
G01 X24.4739 Y44.5614 F200.00
G01 X24.4949 Y44.5653 F200.00
G01 X24.5159 Y44.5686 F200.00
G01 X24.6033 Y44.5816 F200.00
G01 X24.6430 Y44.5865 F200.00
G01 X25.0428 Y44.9864 F200.00
G01 X19.7389 Y44.9864 F200.00
G01 X19.7176 Y44.9866 F200.00
G01 X19.6963 Y44.9874 F200.00
G01 X19.6260 Y44.9911 F200.00
G01 X19.6048 Y44.9929 F200.00
G01 X19.5836 Y44.9953 F200.00
G01 X19.5139 Y45.0054 F200.00
G01 X19.4929 Y45.0087 F200.00
G01 X19.4719 Y45.0126 F200.00
G01 X19.4511 Y45.0171 F200.00
G01 X19.4303 Y45.0220 F200.00
G01 X19.3621 Y45.0393 F200.00
G01 X19.3416 Y45.0453 F200.00
G01 X19.3213 Y45.0517 F200.00
G01 X19.3012 Y45.0587 F200.00
G01 X19.2549 Y45.0752 F200.00
G01 X19.2350 Y45.0826 F200.00
G01 X19.2152 Y45.0905 F200.00
G01 X19.1956 Y45.0989 F200.00
G01 X19.1762 Y45.1078 F200.00
G01 X19.1318 Y45.1288 F200.00
G01 X19.1127 Y45.1381 F200.00
G01 X19.0938 Y45.1480 F200.00
G01 X19.0751 Y45.1582 F200.00
G01 X19.0567 Y45.1690 F200.00
G01 X19.0146 Y45.1942 F200.00
G01 X18.9964 Y45.2054 F200.00
G01 X18.9786 Y45.2170 F200.00
G01 X18.9610 Y45.2291 F200.00
G01 X18.9043 Y45.2708 F200.00
G01 X18.8873 Y45.2837 F200.00
G01 X18.8707 Y45.2970 F200.00
G01 X18.8544 Y45.3107 F200.00
G01 X18.8384 Y45.3249 F200.00
G01 X18.7864 Y45.3723 F200.00
G01 X18.7712 Y45.3872 F200.00
G01 X18.1201 Y46.0383 F200.00
G01 X18.0879 Y46.0376 F200.00
G01 X18.0558 Y46.0383 F200.00
G01 X15.3926 Y43.3751 F200.00
G01 X15.3926 Y31.8089 F200.00
G01 X15.7601 Y31.4414 F200.00
G01 X15.7806 Y31.4421 F200.00
G01 X15.8019 Y31.4424 F200.00
G01 X15.8233 Y31.4421 F200.00
G01 X15.9533 Y31.4360 F200.00
G01 X15.9746 Y31.4347 F200.00
G01 X15.9959 Y31.4329 F200.00
G01 X16.0170 Y31.4305 F200.00
G01 X16.0382 Y31.4277 F200.00
G01 X16.1459 Y31.4117 F200.00
G01 X16.1670 Y31.4083 F200.00
G01 X16.1879 Y31.4044 F200.00
G01 X16.2088 Y31.4000 F200.00
G01 X16.2295 Y31.3950 F200.00
G01 X16.3352 Y31.3686 F200.00
G01 X16.3558 Y31.3631 F200.00
G01 X16.3830 Y31.3551 F200.00
G00 Z2.0000
G00 X16.1301 Y31.6504
G01 F60.00
G01 Z-0.2500
G01 F200.00
G01 X16.1311 Y31.6771 F200.00
G01 X16.1364 Y31.7859 F200.00
G01 X16.1381 Y31.8129 F200.00
G01 X16.1404 Y31.8398 F200.00
G01 X16.1434 Y31.8667 F200.00
G01 X16.1470 Y31.8935 F200.00
G01 X16.1630 Y32.0013 F200.00
G01 X16.1673 Y32.0280 F200.00
G01 X16.1722 Y32.0546 F200.00
G01 X16.1778 Y32.0810 F200.00
G01 X16.1841 Y32.1074 F200.00
G01 X16.2106 Y32.2130 F200.00
G01 X16.2175 Y32.2392 F200.00
G01 X16.2250 Y32.2652 F200.00
G01 X16.2332 Y32.2910 F200.00
G01 X16.2420 Y32.3165 F200.00
G01 X16.2787 Y32.4191 F200.00
G01 X16.2881 Y32.4445 F200.00
G01 X16.2981 Y32.4696 F200.00
G01 X16.3088 Y32.4944 F200.00
G01 X16.3201 Y32.5190 F200.00
G01 X16.3666 Y32.6175 F200.00
G01 X16.3785 Y32.6418 F200.00
G01 X16.3910 Y32.6658 F200.00
G01 X16.4040 Y32.6895 F200.00
G01 X16.4176 Y32.7129 F200.00
G01 X16.4736 Y32.8063 F200.00
G01 X16.4878 Y32.8294 F200.00
G01 X16.5026 Y32.8520 F200.00
G01 X16.5179 Y32.8743 F200.00
G01 X16.5337 Y32.8963 F200.00
G01 X16.5986 Y32.9838 F200.00
G01 X16.6150 Y33.0053 F200.00
G01 X16.6319 Y33.0264 F200.00
G01 X16.6493 Y33.0471 F200.00
G01 X16.6672 Y33.0674 F200.00
G01 X16.7404 Y33.1481 F200.00
G01 X16.7588 Y33.1679 F200.00
G01 X16.7777 Y33.1873 F200.00
G01 X16.7970 Y33.2062 F200.00
G01 X16.8169 Y33.2246 F200.00
G01 X16.8976 Y33.2977 F200.00
G01 X16.9178 Y33.3156 F200.00
G01 X16.9385 Y33.3331 F200.00
G01 X16.9597 Y33.3500 F200.00
G01 X16.9812 Y33.3663 F200.00
G01 X17.0687 Y33.4312 F200.00
G01 X17.0906 Y33.4471 F200.00
G01 X17.1129 Y33.4624 F200.00
G01 X17.1356 Y33.4771 F200.00
G01 X17.1586 Y33.4913 F200.00
G01 X17.2520 Y33.5473 F200.00
G01 X17.2754 Y33.5609 F200.00
G01 X17.2991 Y33.5740 F200.00
G01 X17.3231 Y33.5864 F200.00
G01 X17.3474 Y33.5983 F200.00
G01 X17.4459 Y33.6449 F200.00
G01 X17.4705 Y33.6561 F200.00
G01 X17.4954 Y33.6668 F200.00
G01 X17.5205 Y33.6769 F200.00
G01 X17.5458 Y33.6863 F200.00
G01 X17.6484 Y33.7230 F200.00
G01 X17.6740 Y33.7318 F200.00
G01 X17.6998 Y33.7399 F200.00
G01 X17.7258 Y33.7475 F200.00
G01 X17.7519 Y33.7544 F200.00
G01 X17.8576 Y33.7808 F200.00
G01 X17.8839 Y33.7871 F200.00
G01 X17.9104 Y33.7927 F200.00
G01 X17.9370 Y33.7976 F200.00
G01 X17.9637 Y33.8019 F200.00
G01 X18.0714 Y33.8179 F200.00
G01 X18.0982 Y33.8216 F200.00
G01 X18.1251 Y33.8245 F200.00
G01 X18.1521 Y33.8269 F200.00
G01 X18.1791 Y33.8285 F200.00
G01 X18.2879 Y33.8339 F200.00
G01 X18.3149 Y33.8349 F200.00
G01 X18.3419 Y33.8352 F200.00
G01 X18.3690 Y33.8349 F200.00
G01 X18.3960 Y33.8339 F200.00
G01 X18.5048 Y33.8285 F200.00
G01 X18.5318 Y33.8269 F200.00
G01 X18.5588 Y33.8245 F200.00
G01 X18.5857 Y33.8216 F200.00
G01 X18.6125 Y33.8179 F200.00
G01 X18.7202 Y33.8019 F200.00
G01 X18.7469 Y33.7976 F200.00
G01 X18.7735 Y33.7927 F200.00
G01 X18.8000 Y33.7871 F200.00
G01 X18.8263 Y33.7808 F200.00
G01 X18.9320 Y33.7544 F200.00
G01 X18.9581 Y33.7475 F200.00
G01 X18.9841 Y33.7399 F200.00
G01 X19.0099 Y33.7318 F200.00
G01 X19.0355 Y33.7230 F200.00
G01 X19.1380 Y33.6863 F200.00
G01 X19.1634 Y33.6769 F200.00
G01 X19.1885 Y33.6668 F200.00
G01 X19.2134 Y33.6561 F200.00
G01 X19.2380 Y33.6449 F200.00
G01 X19.3364 Y33.5983 F200.00
G01 X19.3608 Y33.5864 F200.00
G01 X19.3848 Y33.5740 F200.00
G01 X19.4085 Y33.5609 F200.00
G01 X19.4318 Y33.5473 F200.00
G01 X19.5253 Y33.4913 F200.00
G01 X19.5483 Y33.4771 F200.00
G01 X19.5710 Y33.4624 F200.00
G01 X19.5933 Y33.4471 F200.00
G01 X19.6152 Y33.4312 F200.00
G01 X19.7027 Y33.3663 F200.00
G01 X19.7242 Y33.3500 F200.00
G01 X19.7453 Y33.3331 F200.00
G01 X19.7660 Y33.3156 F200.00
G01 X19.7863 Y33.2977 F200.00
G01 X19.8670 Y33.2246 F200.00
G01 X19.8868 Y33.2062 F200.00
G01 X19.9062 Y33.1873 F200.00
G01 X19.9251 Y33.1679 F200.00
G01 X19.9435 Y33.1481 F200.00
G01 X20.0167 Y33.0674 F200.00
G01 X20.0346 Y33.0471 F200.00
G01 X20.0520 Y33.0264 F200.00
G01 X20.0689 Y33.0053 F200.00
G01 X20.0853 Y32.9838 F200.00
G01 X20.1502 Y32.8963 F200.00
G01 X20.1660 Y32.8743 F200.00
G01 X20.1813 Y32.8520 F200.00
G01 X20.1961 Y32.8294 F200.00
G01 X20.2103 Y32.8063 F200.00
G01 X20.2663 Y32.7129 F200.00
G01 X20.2799 Y32.6895 F200.00
G01 X20.2929 Y32.6658 F200.00
G01 X20.3054 Y32.6418 F200.00
G01 X20.3172 Y32.6175 F200.00
G01 X20.3638 Y32.5190 F200.00
G01 X20.3751 Y32.4944 F200.00
G01 X20.3857 Y32.4696 F200.00
G01 X20.3958 Y32.4445 F200.00
G01 X20.4052 Y32.4191 F200.00
G01 X20.4419 Y32.3165 F200.00
G01 X20.4507 Y32.2910 F200.00
G01 X20.4589 Y32.2652 F200.00
G01 X20.4664 Y32.2392 F200.00
G01 X20.4733 Y32.2130 F200.00
G01 X20.4998 Y32.1074 F200.00
G01 X20.5060 Y32.0810 F200.00
G01 X20.5116 Y32.0546 F200.00
G01 X20.5166 Y32.0280 F200.00
G01 X20.5209 Y32.0013 F200.00
G01 X20.5369 Y31.8935 F200.00
G01 X20.5405 Y31.8667 F200.00
G01 X20.5435 Y31.8398 F200.00
G01 X20.5458 Y31.8129 F200.00
G01 X20.5475 Y31.7859 F200.00
G01 X20.5528 Y31.6771 F200.00
G01 X20.5538 Y31.6504 F200.00
G01 X20.5799 Y31.6543 F200.00
G01 X22.4397 Y33.5140 F200.00
G01 X21.2342 Y34.7196 F200.00
G01 X19.5774 Y34.7196 F200.00
G01 X19.4826 Y34.6491 F200.00
G01 X19.4607 Y34.6332 F200.00
G01 X19.4384 Y34.6179 F200.00
G01 X19.4157 Y34.6032 F200.00
G01 X19.3927 Y34.5890 F200.00
G01 X19.3001 Y34.5335 F200.00
G01 X19.2767 Y34.5199 F200.00
G01 X19.2530 Y34.5068 F200.00
G01 X19.2290 Y34.4944 F200.00
G01 X19.2047 Y34.4825 F200.00
G01 X19.1071 Y34.4364 F200.00
G01 X19.0825 Y34.4251 F200.00
G01 X19.0577 Y34.4144 F200.00
G01 X19.0326 Y34.4044 F200.00
G01 X19.0072 Y34.3950 F200.00
G01 X18.9056 Y34.3586 F200.00
G01 X18.8800 Y34.3498 F200.00
G01 X18.8542 Y34.3416 F200.00
G01 X18.8282 Y34.3341 F200.00
G01 X18.8021 Y34.3272 F200.00
G01 X18.6974 Y34.3010 F200.00
G01 X18.6710 Y34.2947 F200.00
G01 X18.6446 Y34.2891 F200.00
G01 X18.6180 Y34.2842 F200.00
G01 X18.5913 Y34.2799 F200.00
G01 X18.4845 Y34.2640 F200.00
G01 X18.4577 Y34.2604 F200.00
G01 X18.4308 Y34.2574 F200.00
G01 X18.4038 Y34.2551 F200.00
G01 X18.3768 Y34.2534 F200.00
G01 X18.2690 Y34.2481 F200.00
G01 X18.2420 Y34.2471 F200.00
G01 X18.2149 Y34.2468 F200.00
G01 X18.1879 Y34.2471 F200.00
G01 X18.1609 Y34.2481 F200.00
G01 X18.0530 Y34.2534 F200.00
G01 X18.0260 Y34.2551 F200.00
G01 X17.9991 Y34.2574 F200.00
G01 X17.9722 Y34.2604 F200.00
G01 X17.9454 Y34.2640 F200.00
G01 X17.8386 Y34.2799 F200.00
G01 X17.8119 Y34.2842 F200.00
G01 X17.7853 Y34.2891 F200.00
G01 X17.7588 Y34.2947 F200.00
G01 X17.7325 Y34.3010 F200.00
G01 X17.6278 Y34.3272 F200.00
G01 X17.6017 Y34.3341 F200.00
G01 X17.5757 Y34.3416 F200.00
G01 X17.5499 Y34.3498 F200.00
G01 X17.5243 Y34.3586 F200.00
G01 X17.4227 Y34.3950 F200.00
G01 X17.3973 Y34.4044 F200.00
G01 X17.3722 Y34.4144 F200.00
G01 X17.3473 Y34.4251 F200.00
G01 X17.3227 Y34.4364 F200.00
G01 X17.2252 Y34.4825 F200.00
G01 X17.2008 Y34.4944 F200.00
G01 X17.1768 Y34.5068 F200.00
G01 X17.1531 Y34.5199 F200.00
G01 X17.1298 Y34.5335 F200.00
G01 X17.0372 Y34.5890 F200.00
G01 X17.0141 Y34.6032 F200.00
G01 X16.9915 Y34.6179 F200.00
G01 X16.9692 Y34.6332 F200.00
G01 X16.9472 Y34.6491 F200.00
G01 X16.8605 Y34.7134 F200.00
G01 X16.8390 Y34.7298 F200.00
G01 X16.8179 Y34.7467 F200.00
G01 X16.7972 Y34.7641 F200.00
G01 X16.7769 Y34.7820 F200.00
G01 X16.6969 Y34.8545 F200.00
G01 X16.6771 Y34.8729 F200.00
G01 X16.6577 Y34.8918 F200.00
G01 X16.6389 Y34.9112 F200.00
G01 X16.6204 Y34.9310 F200.00
G01 X16.5480 Y35.0110 F200.00
G01 X16.5300 Y35.0312 F200.00
G01 X16.5126 Y35.0519 F200.00
G01 X16.4957 Y35.0731 F200.00
G01 X16.4793 Y35.0946 F200.00
G01 X16.4150 Y35.1813 F200.00
G01 X16.3992 Y35.2032 F200.00
G01 X16.3839 Y35.2255 F200.00
G01 X16.3691 Y35.2482 F200.00
G01 X16.3549 Y35.2712 F200.00
G01 X16.2994 Y35.3638 F200.00
G01 X16.2858 Y35.3872 F200.00
G01 X16.2728 Y35.4109 F200.00
G01 X16.2603 Y35.4349 F200.00
G01 X16.2484 Y35.4592 F200.00
G01 X16.2023 Y35.5568 F200.00
G01 X16.1910 Y35.5814 F200.00
G01 X16.1804 Y35.6063 F200.00
G01 X16.1703 Y35.6314 F200.00
G01 X16.1609 Y35.6567 F200.00
G01 X16.1245 Y35.7584 F200.00
G01 X16.1157 Y35.7839 F200.00
G01 X16.1076 Y35.8097 F200.00
G01 X16.1000 Y35.8357 F200.00
G01 X16.0931 Y35.8619 F200.00
G01 X16.0669 Y35.9666 F200.00
G01 X16.0607 Y35.9929 F200.00
G01 X16.0551 Y36.0194 F200.00
G01 X16.0501 Y36.0460 F200.00
G01 X16.0458 Y36.0727 F200.00
G01 X16.0300 Y36.1795 F200.00
G01 X16.0263 Y36.2063 F200.00
G01 X16.0233 Y36.2331 F200.00
G01 X16.0210 Y36.2601 F200.00
G01 X16.0194 Y36.2871 F200.00
G01 X16.0141 Y36.3949 F200.00
G01 X16.0131 Y36.4220 F200.00
G01 X16.0127 Y36.4490 F200.00
G01 X16.0131 Y36.4760 F200.00
G01 X16.0141 Y36.5031 F200.00
G01 X16.0194 Y36.6109 F200.00
G01 X16.0210 Y36.6379 F200.00
G01 X16.0233 Y36.6649 F200.00
G01 X16.0263 Y36.6917 F200.00
G01 X16.0300 Y36.7185 F200.00
G01 X16.0458 Y36.8253 F200.00
G01 X16.0501 Y36.8520 F200.00
G01 X16.0551 Y36.8786 F200.00
G01 X16.0607 Y36.9051 F200.00
G01 X16.0669 Y36.9314 F200.00
G01 X16.0931 Y37.0361 F200.00
G01 X16.1000 Y37.0623 F200.00
G01 X16.1076 Y37.0883 F200.00
G01 X16.1157 Y37.1141 F200.00
G01 X16.1245 Y37.1396 F200.00
G01 X16.1609 Y37.2413 F200.00
G01 X16.1703 Y37.2666 F200.00
G01 X16.1804 Y37.2917 F200.00
G01 X16.1910 Y37.3166 F200.00
G01 X16.2023 Y37.3412 F200.00
G01 X16.2484 Y37.4388 F200.00
G01 X16.2603 Y37.4631 F200.00
G01 X16.2728 Y37.4871 F200.00
G01 X16.2858 Y37.5108 F200.00
G01 X16.2994 Y37.5342 F200.00
G01 X16.3549 Y37.6268 F200.00
G01 X16.3691 Y37.6498 F200.00
G01 X16.3839 Y37.6725 F200.00
G01 X16.3992 Y37.6948 F200.00
G01 X16.4150 Y37.7167 F200.00
G01 X16.4793 Y37.8034 F200.00
G01 X16.4957 Y37.8249 F200.00
G01 X16.5126 Y37.8461 F200.00
G01 X16.5300 Y37.8668 F200.00
G01 X16.5480 Y37.8870 F200.00
G01 X16.6204 Y37.9670 F200.00
G01 X16.6389 Y37.9868 F200.00
G01 X16.6577 Y38.0062 F200.00
G01 X16.6771 Y38.0251 F200.00
G01 X16.6969 Y38.0435 F200.00
G01 X16.7769 Y38.1160 F200.00
G01 X16.7972 Y38.1339 F200.00
G01 X16.8179 Y38.1513 F200.00
G01 X16.8390 Y38.1682 F200.00
G01 X16.8605 Y38.1846 F200.00
G01 X16.9472 Y38.2489 F200.00
G01 X16.9692 Y38.2648 F200.00
G01 X16.9915 Y38.2801 F200.00
G01 X17.0141 Y38.2948 F200.00
G01 X17.0372 Y38.3090 F200.00
G01 X17.1122 Y38.3540 F200.00
G01 X17.0372 Y38.3990 F200.00
G01 X17.0141 Y38.4132 F200.00
G01 X16.9915 Y38.4279 F200.00
G01 X16.9692 Y38.4432 F200.00
G01 X16.9472 Y38.4591 F200.00
G01 X16.8605 Y38.5234 F200.00
G01 X16.8390 Y38.5398 F200.00
G01 X16.8179 Y38.5567 F200.00
G01 X16.7972 Y38.5741 F200.00
G01 X16.7769 Y38.5920 F200.00
G01 X16.6969 Y38.6645 F200.00
G01 X16.6771 Y38.6829 F200.00
G01 X16.6577 Y38.7018 F200.00
G01 X16.6389 Y38.7212 F200.00
G01 X16.6204 Y38.7410 F200.00
G01 X16.5480 Y38.8210 F200.00
G01 X16.5300 Y38.8412 F200.00
G01 X16.5126 Y38.8619 F200.00
G01 X16.4957 Y38.8831 F200.00
G01 X16.4793 Y38.9046 F200.00
G01 X16.4150 Y38.9913 F200.00
G01 X16.3992 Y39.0132 F200.00
G01 X16.3839 Y39.0355 F200.00
G01 X16.3691 Y39.0582 F200.00
G01 X16.3549 Y39.0812 F200.00
G01 X16.2994 Y39.1738 F200.00
G01 X16.2858 Y39.1972 F200.00
G01 X16.2728 Y39.2209 F200.00
G01 X16.2603 Y39.2449 F200.00
G01 X16.2484 Y39.2692 F200.00
G01 X16.2023 Y39.3668 F200.00
G01 X16.1910 Y39.3914 F200.00
G01 X16.1804 Y39.4163 F200.00
G01 X16.1703 Y39.4414 F200.00
G01 X16.1609 Y39.4667 F200.00
G01 X16.1245 Y39.5684 F200.00
G01 X16.1157 Y39.5939 F200.00
G01 X16.1076 Y39.6197 F200.00
G01 X16.1000 Y39.6457 F200.00
G01 X16.0931 Y39.6719 F200.00
G01 X16.0669 Y39.7766 F200.00
G01 X16.0607 Y39.8029 F200.00
G01 X16.0551 Y39.8294 F200.00
G01 X16.0501 Y39.8560 F200.00
G01 X16.0458 Y39.8827 F200.00
G01 X16.0300 Y39.9895 F200.00
G01 X16.0263 Y40.0163 F200.00
G01 X16.0233 Y40.0431 F200.00
G01 X16.0210 Y40.0701 F200.00
G01 X16.0194 Y40.0971 F200.00
G01 X16.0141 Y40.2049 F200.00
G01 X16.0131 Y40.2320 F200.00
G01 X16.0127 Y40.2590 F200.00
G01 X16.0131 Y40.2860 F200.00
G01 X16.0141 Y40.3131 F200.00
G01 X16.0194 Y40.4209 F200.00
G01 X16.0210 Y40.4479 F200.00
G01 X16.0233 Y40.4749 F200.00
G01 X16.0263 Y40.5017 F200.00
G01 X16.0300 Y40.5285 F200.00
G01 X16.0458 Y40.6353 F200.00
G01 X16.0501 Y40.6620 F200.00
G01 X16.0551 Y40.6886 F200.00
G01 X16.0607 Y40.7151 F200.00
G01 X16.0669 Y40.7414 F200.00
G01 X16.0931 Y40.8461 F200.00
G01 X16.1000 Y40.8723 F200.00
G01 X16.1076 Y40.8983 F200.00
G01 X16.1157 Y40.9241 F200.00
G01 X16.1245 Y40.9496 F200.00
G01 X16.1609 Y41.0513 F200.00
G01 X16.1703 Y41.0766 F200.00
G01 X16.1804 Y41.1017 F200.00
G01 X16.1910 Y41.1266 F200.00
G01 X16.2023 Y41.1512 F200.00
G01 X16.2484 Y41.2488 F200.00
G01 X16.2603 Y41.2731 F200.00
G01 X16.2728 Y41.2971 F200.00
G01 X16.2858 Y41.3208 F200.00
G01 X16.2994 Y41.3442 F200.00
G01 X16.3549 Y41.4368 F200.00
G01 X16.3691 Y41.4598 F200.00
G01 X16.3839 Y41.4825 F200.00
G01 X16.3992 Y41.5048 F200.00
G01 X16.4150 Y41.5267 F200.00
G01 X16.4793 Y41.6134 F200.00
G01 X16.4957 Y41.6349 F200.00
G01 X16.5126 Y41.6561 F200.00
G01 X16.5300 Y41.6768 F200.00
G01 X16.5480 Y41.6970 F200.00
G01 X16.6204 Y41.7770 F200.00
G01 X16.6389 Y41.7968 F200.00
G01 X16.6577 Y41.8162 F200.00
G01 X16.6771 Y41.8351 F200.00
G01 X16.6969 Y41.8535 F200.00
G01 X16.7769 Y41.9260 F200.00
G01 X16.7972 Y41.9439 F200.00
G01 X16.8179 Y41.9613 F200.00
G01 X16.8390 Y41.9782 F200.00
G01 X16.8605 Y41.9946 F200.00
G01 X16.9472 Y42.0589 F200.00
G01 X16.9692 Y42.0748 F200.00
G01 X16.9915 Y42.0901 F200.00
G01 X17.0141 Y42.1048 F200.00
G01 X17.0372 Y42.1190 F200.00
G01 X17.1298 Y42.1745 F200.00
G01 X17.1531 Y42.1881 F200.00
G01 X17.1768 Y42.2012 F200.00
G01 X17.2008 Y42.2136 F200.00
G01 X17.2252 Y42.2255 F200.00
G01 X17.3227 Y42.2716 F200.00
G01 X17.3473 Y42.2829 F200.00
G01 X17.3722 Y42.2936 F200.00
G01 X17.3973 Y42.3036 F200.00
G01 X17.4227 Y42.3130 F200.00
G01 X17.5243 Y42.3494 F200.00
G01 X17.5499 Y42.3582 F200.00
G01 X17.5757 Y42.3664 F200.00
G01 X17.6017 Y42.3739 F200.00
G01 X17.6278 Y42.3808 F200.00
G01 X17.7325 Y42.4070 F200.00
G01 X17.7588 Y42.4133 F200.00
G01 X17.7853 Y42.4189 F200.00
G01 X17.8119 Y42.4238 F200.00
G01 X17.8386 Y42.4281 F200.00
G01 X17.9454 Y42.4440 F200.00
G01 X17.9722 Y42.4476 F200.00
G01 X17.9991 Y42.4506 F200.00
G01 X18.0260 Y42.4529 F200.00
G01 X18.0530 Y42.4546 F200.00
G01 X18.1609 Y42.4599 F200.00
G01 X18.1879 Y42.4609 F200.00
G01 X18.2149 Y42.4612 F200.00
G01 X18.2420 Y42.4609 F200.00
G01 X18.2690 Y42.4599 F200.00
G01 X18.3768 Y42.4546 F200.00
G01 X18.4038 Y42.4529 F200.00
G01 X18.4308 Y42.4506 F200.00
G01 X18.4577 Y42.4476 F200.00
G01 X18.4845 Y42.4440 F200.00
G01 X18.5913 Y42.4281 F200.00
G01 X18.6180 Y42.4238 F200.00
G01 X18.6446 Y42.4189 F200.00
G01 X18.6710 Y42.4133 F200.00
G01 X18.6974 Y42.4070 F200.00
G01 X18.8021 Y42.3808 F200.00
G01 X18.8282 Y42.3739 F200.00
G01 X18.8542 Y42.3664 F200.00
G01 X18.8800 Y42.3582 F200.00
G01 X18.9056 Y42.3494 F200.00
G01 X19.0072 Y42.3130 F200.00
G01 X19.0326 Y42.3036 F200.00
G01 X19.0577 Y42.2936 F200.00
G01 X19.0825 Y42.2829 F200.00
G01 X19.1071 Y42.2716 F200.00
G01 X19.2047 Y42.2255 F200.00
G01 X19.2290 Y42.2136 F200.00
G01 X19.2530 Y42.2012 F200.00
G01 X19.2767 Y42.1881 F200.00
G01 X19.3001 Y42.1745 F200.00
G01 X19.3927 Y42.1190 F200.00
G01 X19.4157 Y42.1048 F200.00
G01 X19.4384 Y42.0901 F200.00
G01 X19.4607 Y42.0748 F200.00
G01 X19.4826 Y42.0589 F200.00
G01 X19.5694 Y41.9946 F200.00
G01 X19.5909 Y41.9782 F200.00
G01 X19.6120 Y41.9613 F200.00
G01 X19.6327 Y41.9439 F200.00
G01 X19.6530 Y41.9260 F200.00
G01 X19.7329 Y41.8535 F200.00
G01 X19.7528 Y41.8351 F200.00
G01 X19.7721 Y41.8162 F200.00
G01 X19.7910 Y41.7968 F200.00
G01 X19.8480 Y41.7344 F200.00
G01 X21.2342 Y41.7344 F200.00
G01 X22.9009 Y43.4012 F200.00
G01 X22.9111 Y43.4339 F200.00
G01 X22.9199 Y43.4595 F200.00
G01 X22.9497 Y43.5427 F200.00
G01 X22.9591 Y43.5680 F200.00
G01 X22.9691 Y43.5931 F200.00
G01 X22.9798 Y43.6180 F200.00
G01 X22.9911 Y43.6426 F200.00
G01 X23.0288 Y43.7224 F200.00
G01 X23.0407 Y43.7468 F200.00
G01 X23.0532 Y43.7708 F200.00
G01 X23.0662 Y43.7945 F200.00
G01 X23.0798 Y43.8178 F200.00
G01 X23.1252 Y43.8936 F200.00
G01 X23.1394 Y43.9166 F200.00
G01 X23.1542 Y43.9393 F200.00
G01 X23.1695 Y43.9616 F200.00
G01 X23.1853 Y43.9835 F200.00
G01 X23.2379 Y44.0545 F200.00
G01 X23.2543 Y44.0760 F200.00
G01 X23.2712 Y44.0971 F200.00
G01 X23.2886 Y44.1178 F200.00
G01 X23.3066 Y44.1381 F200.00
G01 X23.3659 Y44.2035 F200.00
G01 X23.3843 Y44.2233 F200.00
G01 X23.4032 Y44.2427 F200.00
G01 X23.4225 Y44.2616 F200.00
G01 X23.4424 Y44.2800 F200.00
G01 X23.5078 Y44.3393 F200.00
G01 X23.5281 Y44.3572 F200.00
G01 X23.5488 Y44.3747 F200.00
G01 X23.5699 Y44.3916 F200.00
G01 X23.5914 Y44.4079 F200.00
G01 X23.6623 Y44.4606 F200.00
G01 X23.6843 Y44.4764 F200.00
G01 X23.7066 Y44.4917 F200.00
G01 X23.7293 Y44.5065 F200.00
G01 X23.7523 Y44.5207 F200.00
G01 X23.8280 Y44.5661 F200.00
G01 X23.8514 Y44.5797 F200.00
G01 X23.8751 Y44.5927 F200.00
G01 X23.8991 Y44.6052 F200.00
G01 X23.9234 Y44.6170 F200.00
G01 X24.0033 Y44.6548 F200.00
G01 X24.0279 Y44.6661 F200.00
G01 X24.0527 Y44.6767 F200.00
G01 X24.0778 Y44.6868 F200.00
G01 X24.1032 Y44.6962 F200.00
G01 X24.1864 Y44.7260 F200.00
G01 X24.2119 Y44.7348 F200.00
G01 X24.2377 Y44.7429 F200.00
G01 X24.2716 Y44.7526 F200.00
G01 X19.7389 Y44.7526 F200.00
G01 X19.7119 Y44.7529 F200.00
G01 X19.6849 Y44.7539 F200.00
G01 X19.6088 Y44.7579 F200.00
G01 X19.5819 Y44.7603 F200.00
G01 X19.5550 Y44.7632 F200.00
G01 X19.4796 Y44.7741 F200.00
G01 X19.4529 Y44.7784 F200.00
G01 X19.4263 Y44.7833 F200.00
G01 X19.3999 Y44.7889 F200.00
G01 X19.3259 Y44.8071 F200.00
G01 X19.2998 Y44.8140 F200.00
G01 X19.2738 Y44.8216 F200.00
G01 X19.2480 Y44.8297 F200.00
G01 X19.2224 Y44.8385 F200.00
G01 X19.1508 Y44.8645 F200.00
G01 X19.1257 Y44.8745 F200.00
G01 X19.1008 Y44.8852 F200.00
G01 X19.0763 Y44.8965 F200.00
G01 X19.0076 Y44.9293 F200.00
G01 X18.9836 Y44.9418 F200.00
G01 X18.9599 Y44.9548 F200.00
G01 X18.8944 Y44.9937 F200.00
G01 X18.8713 Y45.0079 F200.00
G01 X18.8487 Y45.0226 F200.00
G01 X18.8264 Y45.0379 F200.00
G01 X18.7650 Y45.0830 F200.00
G01 X18.7435 Y45.0994 F200.00
G01 X18.7224 Y45.1163 F200.00
G01 X18.7017 Y45.1337 F200.00
G01 X18.6814 Y45.1516 F200.00
G01 X18.6252 Y45.2030 F200.00
G01 X18.6058 Y45.2219 F200.00
G01 X18.0879 Y45.7398 F200.00
G01 X15.6264 Y43.2782 F200.00
G01 X15.6264 Y31.9058 F200.00
G01 X15.8573 Y31.6748 F200.00
G01 X15.9648 Y31.6695 F200.00
G01 X15.9918 Y31.6679 F200.00
G01 X16.0188 Y31.6655 F200.00
G01 X16.0457 Y31.6626 F200.00
G01 X16.0725 Y31.6589 F200.00
G01 X16.1301 Y31.6504 F200.00
G00 Z2.0000
G00 X15.9182 Y31.9446
G01 F60.00
G01 Z-0.2500
G01 F200.00
G01 X15.9317 Y32.0356 F200.00
G01 X15.9369 Y32.0680 F200.00
G01 X15.9429 Y32.1002 F200.00
G01 X15.9497 Y32.1323 F200.00
G01 X15.9573 Y32.1642 F200.00
G01 X15.9838 Y32.2698 F200.00
G01 X15.9921 Y32.3015 F200.00
G01 X16.0013 Y32.3330 F200.00
G01 X16.0112 Y32.3643 F200.00
G01 X16.0218 Y32.3953 F200.00
G01 X16.0585 Y32.4979 F200.00
G01 X16.0700 Y32.5286 F200.00
G01 X16.0821 Y32.5590 F200.00
G01 X16.0950 Y32.5892 F200.00
G01 X16.1087 Y32.6190 F200.00
G01 X16.1553 Y32.7175 F200.00
G01 X16.1697 Y32.7469 F200.00
G01 X16.1848 Y32.7760 F200.00
G01 X16.2006 Y32.8048 F200.00
G01 X16.2171 Y32.8331 F200.00
G01 X16.2731 Y32.9265 F200.00
G01 X16.2903 Y32.9544 F200.00
G01 X16.3082 Y32.9819 F200.00
G01 X16.3267 Y33.0090 F200.00
G01 X16.3459 Y33.0355 F200.00
G01 X16.4108 Y33.1230 F200.00
G01 X16.4307 Y33.1491 F200.00
G01 X16.4512 Y33.1747 F200.00
G01 X16.4723 Y33.1998 F200.00
G01 X16.4940 Y33.2244 F200.00
G01 X16.5671 Y33.3051 F200.00
G01 X16.5895 Y33.3291 F200.00
G01 X16.6124 Y33.3526 F200.00
G01 X16.6358 Y33.3755 F200.00
G01 X16.6598 Y33.3978 F200.00
G01 X16.7406 Y33.4710 F200.00
G01 X16.7651 Y33.4927 F200.00
G01 X16.7902 Y33.5138 F200.00
G01 X16.8158 Y33.5343 F200.00
G01 X16.8419 Y33.5541 F200.00
G01 X16.9294 Y33.6190 F200.00
G01 X16.9560 Y33.6382 F200.00
G01 X16.9830 Y33.6568 F200.00
G01 X17.0105 Y33.6747 F200.00
G01 X17.0384 Y33.6919 F200.00
G01 X17.1318 Y33.7479 F200.00
G01 X17.1602 Y33.7644 F200.00
G01 X17.1889 Y33.7802 F200.00
G01 X17.2180 Y33.7953 F200.00
G01 X17.2475 Y33.8097 F200.00
G01 X17.3459 Y33.8562 F200.00
G01 X17.3758 Y33.8699 F200.00
G01 X17.4059 Y33.8828 F200.00
G01 X17.4363 Y33.8950 F200.00
G01 X17.4671 Y33.9064 F200.00
G01 X17.5696 Y33.9431 F200.00
G01 X17.6006 Y33.9538 F200.00
G01 X17.6319 Y33.9637 F200.00
G01 X17.6634 Y33.9728 F200.00
G01 X17.6951 Y33.9812 F200.00
G01 X17.8008 Y34.0076 F200.00
G01 X17.8327 Y34.0152 F200.00
G01 X17.8647 Y34.0220 F200.00
G01 X17.8970 Y34.0280 F200.00
G01 X17.9195 Y34.0316 F200.00
G01 X17.8043 Y34.0486 F200.00
G01 X17.7719 Y34.0538 F200.00
G01 X17.7397 Y34.0598 F200.00
G01 X17.7076 Y34.0666 F200.00
G01 X17.6757 Y34.0742 F200.00
G01 X17.5710 Y34.1004 F200.00
G01 X17.5393 Y34.1088 F200.00
G01 X17.5078 Y34.1179 F200.00
G01 X17.4765 Y34.1278 F200.00
G01 X17.4455 Y34.1385 F200.00
G01 X17.3439 Y34.1748 F200.00
G01 X17.3132 Y34.1863 F200.00
G01 X17.2827 Y34.1984 F200.00
G01 X17.2526 Y34.2113 F200.00
G01 X17.2228 Y34.2250 F200.00
G01 X17.1252 Y34.2712 F200.00
G01 X17.0957 Y34.2855 F200.00
G01 X17.0666 Y34.3006 F200.00
