(G-CODE GENERATED BY FLATCAM v8.994 - www.flatcam.org - Version Date: 2020/11/7)

(Name: Gerber_BottomLayer.GBL_ncc_cnc)
(Type: G-code from Geometry)
(Units: MM)

(Created on Friday, 05 March 2021 at 15:03)

(This preprocessor is used with a motion controller loaded with GRBL firmware.)
(It is configured to be compatible with almost any version of GRBL firmware.)

(TOOL DIAMETER: 1.0 mm)
(Feedrate_XY: 100.0 mm/min)
(Feedrate_Z: 60.0 mm/min)
(Feedrate rapids 1500.0 mm/min)

(Z_Cut: -0.3 mm)
(Z_Move: 2.0 mm)
(Z Start: None mm)
(Z End: 2.0 mm)
(X,Y End: None mm)
(Steps per circle: 64)
(Steps per circle: 64)
(Preprocessor Geometry: GRBL_11_no_M6)

(X range:    9.2000 ...   67.1000  mm)
(Y range:    7.0000 ...   61.6000  mm)

(Spindle Speed: 1000.0 RPM)
G21
G90
G17
G94


G01 F100.00

M5             
G00 Z2.0000
G00 X0.0000 Y0.0000                
T1
(MSG, Change to Tool Dia = 1.0000)
M0
G00 Z2.0000
        
M03 S1000.0
G01 F100.00
G00 X10.5822 Y7.0000
G01 F60.00
G01 Z-0.3000
G01 F100.00
G01 X10.4922 Y7.0261 F100.00
G01 X9.8254 Y7.2373 F100.00
G01 X9.2000 Y7.4525 F100.00
G01 X9.2000 Y8.0916 F100.00
G01 X9.3661 Y8.0298 F100.00
G01 X10.0136 Y7.8071 F100.00
G01 X10.6664 Y7.6003 F100.00
G01 X11.3240 Y7.4095 F100.00
G01 X11.9862 Y7.2350 F100.00
G01 X12.6524 Y7.0768 F100.00
G01 X13.0152 Y7.0000 F100.00
G01 X14.9208 Y9.6991 F100.00
G01 X14.5084 Y9.7655 F100.00
G01 X13.9076 Y9.8773 F100.00
G01 X13.3097 Y10.0039 F100.00
G01 X12.7151 Y10.1451 F100.00
G01 X12.1242 Y10.3009 F100.00
G01 X11.5372 Y10.4711 F100.00
G01 X10.9547 Y10.6556 F100.00
G01 X10.3768 Y10.8544 F100.00
G01 X9.8039 Y11.0674 F100.00
G01 X9.2365 Y11.2943 F100.00
G01 X9.2000 Y11.3099 F100.00
G01 X9.2000 Y10.6627 F100.00
G01 X9.5880 Y10.5076 F100.00
G01 X10.1746 Y10.2895 F100.00
G01 X10.7664 Y10.0859 F100.00
G01 X11.3631 Y9.8969 F100.00
G01 X11.9642 Y9.7226 F100.00
G01 X12.5693 Y9.5631 F100.00
G01 X13.1783 Y9.4185 F100.00
G01 X13.7905 Y9.2889 F100.00
G01 X14.4058 Y9.1743 F100.00
G01 X15.0237 Y9.0749 F100.00
G01 X15.6439 Y8.9907 F100.00
G01 X16.2659 Y8.9217 F100.00
G01 X16.8894 Y8.8680 F100.00
G01 X17.5141 Y8.8296 F100.00
G01 X18.1395 Y8.8066 F100.00
G01 X18.7653 Y8.7989 F100.00
G01 X19.3911 Y8.8066 F100.00
G01 X20.0166 Y8.8296 F100.00
G01 X20.6412 Y8.8680 F100.00
G01 X21.2648 Y8.9217 F100.00
G01 X21.8868 Y8.9907 F100.00
G01 X22.5070 Y9.0749 F100.00
G01 X23.1249 Y9.1743 F100.00
G01 X23.7401 Y9.2889 F100.00
G01 X24.3524 Y9.4185 F100.00
G01 X24.9613 Y9.5631 F100.00
G01 X25.5665 Y9.7226 F100.00
G01 X26.1676 Y9.8969 F100.00
G01 X26.7642 Y10.0859 F100.00
G01 X27.3560 Y10.2895 F100.00
G01 X27.9427 Y10.5076 F100.00
G01 X28.5238 Y10.7400 F100.00
G01 X29.0990 Y10.9865 F100.00
G01 X29.6680 Y11.2472 F100.00
G01 X30.2304 Y11.5217 F100.00
G01 X30.7859 Y11.8099 F100.00
G01 X31.3342 Y12.1117 F100.00
G01 X31.8750 Y12.4268 F100.00
G01 X32.4078 Y12.7551 F100.00
G01 X32.9324 Y13.0964 F100.00
G01 X33.4484 Y13.4505 F100.00
G01 X33.9557 Y13.8171 F100.00
G01 X34.4537 Y14.1961 F100.00
G01 X34.9424 Y14.5871 F100.00
G01 X35.4212 Y14.9901 F100.00
G01 X35.8901 Y15.4046 F100.00
G01 X36.3486 Y15.8306 F100.00
G01 X36.7966 Y16.2677 F100.00
G01 X36.9164 Y16.3905 F100.00
G00 Z2.0000
G00 X36.9894 Y15.6176
G01 F60.00
G01 Z-0.3000
G01 F100.00
G01 X36.7623 Y15.3960 F100.00
G01 X36.2930 Y14.9601 F100.00
G01 X35.8131 Y14.5357 F100.00
G01 X35.3230 Y14.1233 F100.00
G01 X34.8229 Y13.7231 F100.00
G01 X34.3131 Y13.3352 F100.00
G01 X33.7939 Y12.9599 F100.00
G01 X33.2657 Y12.5975 F100.00
G01 X32.7288 Y12.2482 F100.00
G01 X32.1834 Y11.9122 F100.00
G01 X31.6300 Y11.5896 F100.00
G01 X31.0688 Y11.2807 F100.00
G01 X30.5002 Y10.9857 F100.00
G01 X29.9245 Y10.7048 F100.00
G01 X29.3421 Y10.4380 F100.00
G01 X28.7534 Y10.1856 F100.00
G01 X28.1586 Y9.9478 F100.00
G01 X27.5582 Y9.7246 F100.00
G01 X26.9524 Y9.5162 F100.00
G01 X26.3418 Y9.3227 F100.00
G01 X25.7265 Y9.1443 F100.00
G01 X25.1071 Y8.9811 F100.00
G01 X24.4839 Y8.8331 F100.00
G01 X23.8572 Y8.7004 F100.00
G01 X23.2274 Y8.5831 F100.00
G01 X22.5950 Y8.4814 F100.00
G01 X21.9603 Y8.3952 F100.00
G01 X21.3236 Y8.3246 F100.00
G01 X20.6854 Y8.2696 F100.00
G01 X20.0460 Y8.2303 F100.00
G01 X19.4059 Y8.2068 F100.00
G01 X18.7653 Y8.1989 F100.00
G01 X18.1248 Y8.2068 F100.00
G01 X17.4847 Y8.2303 F100.00
G01 X16.8453 Y8.2696 F100.00
G01 X16.2071 Y8.3246 F100.00
G01 X15.5704 Y8.3952 F100.00
G01 X14.9357 Y8.4814 F100.00
G01 X14.3032 Y8.5831 F100.00
G01 X13.6735 Y8.7004 F100.00
G01 X13.0468 Y8.8331 F100.00
G01 X12.4236 Y8.9811 F100.00
G01 X11.8041 Y9.1443 F100.00
G01 X11.1889 Y9.3227 F100.00
G01 X10.5782 Y9.5162 F100.00
G01 X9.9725 Y9.7246 F100.00
G01 X9.3721 Y9.9478 F100.00
G01 X9.2000 Y10.0166 F100.00
G01 X9.2000 Y9.3717 F100.00
G01 X9.7704 Y9.1597 F100.00
G01 X10.3900 Y8.9465 F100.00
G01 X11.0147 Y8.7486 F100.00
G01 X11.6441 Y8.5661 F100.00
G01 X12.2778 Y8.3991 F100.00
G01 X12.9153 Y8.2476 F100.00
G01 X13.5564 Y8.1119 F100.00
G01 X14.2007 Y7.9920 F100.00
G01 X14.8476 Y7.8879 F100.00
G01 X15.4970 Y7.7997 F100.00
G01 X16.1483 Y7.7275 F100.00
G01 X16.8012 Y7.6712 F100.00
G01 X17.4552 Y7.6311 F100.00
G01 X18.1101 Y7.6069 F100.00
G01 X18.7653 Y7.5989 F100.00
G01 X19.4206 Y7.6069 F100.00
G01 X20.0754 Y7.6311 F100.00
G01 X20.7295 Y7.6712 F100.00
G01 X21.3824 Y7.7275 F100.00
G01 X22.0337 Y7.7997 F100.00
G01 X22.6830 Y7.8879 F100.00
G01 X23.3300 Y7.9920 F100.00
G01 X23.9742 Y8.1119 F100.00
G01 X24.6153 Y8.2476 F100.00
G01 X25.2529 Y8.3991 F100.00
G01 X25.8866 Y8.5661 F100.00
G01 X26.5159 Y8.7486 F100.00
G01 X27.1406 Y8.9465 F100.00
G01 X27.7603 Y9.1597 F100.00
G01 X28.3745 Y9.3880 F100.00
G01 X28.9830 Y9.6313 F100.00
G01 X29.5853 Y9.8895 F100.00
G01 X30.1811 Y10.1624 F100.00
G01 X30.7700 Y10.4498 F100.00
G01 X31.3516 Y10.7516 F100.00
G01 X31.9257 Y11.0676 F100.00
G01 X32.4919 Y11.3975 F100.00
G01 X33.0498 Y11.7413 F100.00
G01 X33.5991 Y12.0987 F100.00
G01 X34.1394 Y12.4694 F100.00
G01 X34.6705 Y12.8533 F100.00
G01 X35.1920 Y13.2500 F100.00
G01 X35.7036 Y13.6595 F100.00
G01 X36.2050 Y14.0814 F100.00
G01 X36.6960 Y14.5155 F100.00
G01 X37.1761 Y14.9615 F100.00
G01 X37.3329 Y15.1145 F100.00
G00 Z2.0000
G00 X36.8919 Y13.8879
G01 F60.00
G01 Z-0.3000
G01 F100.00
G01 X36.5970 Y13.6271 F100.00
G01 X36.0843 Y13.1957 F100.00
G01 X35.5612 Y12.7770 F100.00
G01 X35.0279 Y12.3713 F100.00
G01 X34.4849 Y11.9788 F100.00
G01 X33.9324 Y11.5998 F100.00
G01 X33.3708 Y11.2344 F100.00
G01 X32.8003 Y10.8829 F100.00
G01 X32.2215 Y10.5455 F100.00
G01 X31.6345 Y10.2224 F100.00
G01 X31.0397 Y9.9139 F100.00
G01 X30.4376 Y9.6200 F100.00
G01 X29.8284 Y9.3410 F100.00
G01 X29.2126 Y9.0770 F100.00
G01 X28.5905 Y8.8282 F100.00
G01 X27.9624 Y8.5947 F100.00
G01 X27.3288 Y8.3768 F100.00
G01 X26.6901 Y8.1744 F100.00
G01 X26.0466 Y7.9878 F100.00
G01 X25.3987 Y7.8170 F100.00
G01 X24.7468 Y7.6622 F100.00
G01 X24.0913 Y7.5235 F100.00
G01 X23.4326 Y7.4008 F100.00
G01 X22.7711 Y7.2944 F100.00
G01 X22.1071 Y7.2042 F100.00
G01 X21.4412 Y7.1303 F100.00
G01 X20.7736 Y7.0729 F100.00
G01 X20.1049 Y7.0318 F100.00
G01 X19.4353 Y7.0071 F100.00
G01 X18.8556 Y7.0000 F100.00
G01 X18.6751 Y7.0000 F100.00
G01 X18.0954 Y7.0071 F100.00
G01 X17.4258 Y7.0318 F100.00
G01 X16.7570 Y7.0729 F100.00
G01 X16.0895 Y7.1303 F100.00
G01 X15.4235 Y7.2042 F100.00
G01 X14.7596 Y7.2944 F100.00
G01 X14.0981 Y7.4008 F100.00
G01 X13.4394 Y7.5235 F100.00
G01 X12.7839 Y7.6622 F100.00
G01 X12.1320 Y7.8170 F100.00
G01 X11.4841 Y7.9878 F100.00
G01 X10.8406 Y8.1744 F100.00
G01 X10.2018 Y8.3768 F100.00
G01 X9.5682 Y8.5947 F100.00
G01 X9.2000 Y8.7316 F100.00
G01 X9.2000 Y11.9627 F100.00
G01 X9.4661 Y11.8486 F100.00
G01 X10.0199 Y11.6272 F100.00
G01 X10.5789 Y11.4194 F100.00
G01 X11.1429 Y11.2254 F100.00
G01 X11.7114 Y11.0452 F100.00
G01 X12.2842 Y10.8791 F100.00
G01 X12.8609 Y10.7271 F100.00
G01 X13.4412 Y10.5893 F100.00
G01 X13.9357 Y10.4846 F100.00
G01 X13.1438 Y11.2766 F100.00
G01 X13.0067 Y11.3092 F100.00
G01 X12.4442 Y11.4574 F100.00
G01 X11.8856 Y11.6194 F100.00
G01 X11.3311 Y11.7951 F100.00
G01 X10.7810 Y11.9843 F100.00
G01 X10.2358 Y12.1870 F100.00
G01 X9.6957 Y12.4029 F100.00
G01 X9.2000 Y12.6155 F100.00
G01 X9.2000 Y13.2742 F100.00
G01 X9.4043 Y13.1806 F100.00
G01 X9.9253 Y12.9573 F100.00
G01 X10.4518 Y12.7468 F100.00
G01 X10.9832 Y12.5492 F100.00
G01 X11.5193 Y12.3648 F100.00
G01 X12.0598 Y12.1936 F100.00
G01 X12.2950 Y12.1253 F100.00
G00 Z2.0000
G00 X11.3696 Y13.0507
G01 F60.00
G01 Z-0.3000
G01 F100.00
G01 X11.1853 Y13.1142 F100.00
G01 X10.6677 Y13.3066 F100.00
G01 X10.1550 Y13.5116 F100.00
G01 X9.6474 Y13.7292 F100.00
G01 X9.2000 Y13.9341 F100.00
G01 X9.2000 Y14.6001 F100.00
G01 X9.4019 Y14.5015 F100.00
G01 X9.8905 Y14.2777 F100.00
G01 X10.3846 Y14.0659 F100.00
G01 X10.8836 Y13.8664 F100.00
G01 X10.9920 Y13.8261 F100.00
G00 Z2.0000
G00 X10.9917 Y14.4693
G01 F60.00
G01 Z-0.3000
G01 F100.00
G01 X10.6142 Y14.6203 F100.00
G01 X10.1337 Y14.8262 F100.00
G01 X9.6584 Y15.0439 F100.00
G01 X9.2000 Y15.2677 F100.00
G01 X9.2000 Y15.9432 F100.00
G01 X9.4584 Y15.8091 F100.00
G01 X9.9149 Y15.5863 F100.00
G01 X10.3768 Y15.3748 F100.00
G01 X10.8438 Y15.1746 F100.00
G01 X10.9917 Y15.1154 F100.00
G00 Z2.0000
G00 X10.9917 Y15.7639
G01 F60.00
G01 Z-0.3000
G01 F100.00
G01 X10.6200 Y15.9233 F100.00
G01 X10.1715 Y16.1287 F100.00
G01 X9.7281 Y16.3451 F100.00
G01 X9.2903 Y16.5723 F100.00
G01 X9.2000 Y16.6220 F100.00
G01 X9.2000 Y17.3068 F100.00
G01 X9.5731 Y17.1014 F100.00
G01 X9.9979 Y16.8810 F100.00
G01 X10.4280 Y16.6711 F100.00
G01 X10.8631 Y16.4718 F100.00
G01 X10.9917 Y16.4167 F100.00
G01 X10.9917 Y17.0728 F100.00
G01 X10.6845 Y17.2135 F100.00
G01 X10.2677 Y17.4170 F100.00
G01 X9.8559 Y17.6306 F100.00
G01 X9.4496 Y17.8542 F100.00
G01 X9.2000 Y17.9997 F100.00
G01 X9.2000 Y18.6994 F100.00
G01 X9.3573 Y18.6025 F100.00
G01 X9.7453 Y18.3763 F100.00
G01 X10.1388 Y18.1597 F100.00
G01 X10.5374 Y17.9529 F100.00
G01 X10.9411 Y17.7559 F100.00
G01 X10.9917 Y17.7327 F100.00
G00 Z2.0000
G00 X10.9917 Y18.3988
G01 F60.00
G01 Z-0.3000
G01 F100.00
G01 X10.8072 Y18.4888 F100.00
G01 X10.4216 Y18.6889 F100.00
G01 X10.0410 Y18.8984 F100.00
G01 X9.6657 Y19.1171 F100.00
G01 X9.2959 Y19.3450 F100.00
G01 X9.2000 Y19.4074 F100.00
G01 X9.2000 Y20.1254 F100.00
G01 X9.2651 Y20.0808 F100.00
G01 X9.6169 Y19.8519 F100.00
G01 X9.9742 Y19.6317 F100.00
G01 X10.3368 Y19.4204 F100.00
G01 X10.7044 Y19.2180 F100.00
G01 X10.9917 Y19.0690 F100.00
G00 Z2.0000
G00 X10.9917 Y19.7449
G01 F60.00
G01 Z-0.3000
G01 F100.00
G01 X10.6325 Y19.9425 F100.00
G01 X10.2826 Y20.1464 F100.00
G01 X9.9379 Y20.3588 F100.00
G01 X9.5984 Y20.5796 F100.00
G01 X9.2645 Y20.8087 F100.00
G01 X9.2000 Y20.8554 F100.00
G01 X9.2000 Y21.5992 F100.00
G01 X9.2937 Y21.5279 F100.00
G01 X9.6100 Y21.2993 F100.00
G01 X9.9318 Y21.0785 F100.00
G01 X10.2589 Y20.8657 F100.00
G01 X10.5911 Y20.6610 F100.00
G01 X10.9283 Y20.4645 F100.00
G01 X10.9917 Y20.4296 F100.00
G00 Z2.0000
G00 X10.9917 Y21.1220
G01 F60.00
G01 Z-0.3000
G01 F100.00
G01 X10.8996 Y21.1756 F100.00
G01 X10.5799 Y21.3726 F100.00
G01 X10.2651 Y21.5774 F100.00
G01 X9.9555 Y21.7898 F100.00
G01 X9.6511 Y22.0098 F100.00
G01 X9.3523 Y22.2372 F100.00
G01 X9.2000 Y22.3591 F100.00
G01 X9.2000 Y23.1374 F100.00
G01 X9.4398 Y22.9356 F100.00
G01 X9.7214 Y22.7102 F100.00
G01 X10.0086 Y22.4917 F100.00
G01 X10.3010 Y22.2804 F100.00
G01 X10.5985 Y22.0763 F100.00
G01 X10.9009 Y21.8795 F100.00
G01 X10.9917 Y21.8236 F100.00
G00 Z2.0000
G00 X10.9917 Y22.5362
G01 F60.00
G01 Z-0.3000
G01 F100.00
G01 X10.9318 Y22.5752 F100.00
G01 X10.6464 Y22.7709 F100.00
G01 X10.3660 Y22.9737 F100.00
G01 X10.0906 Y23.1832 F100.00
G01 X9.8204 Y23.3994 F100.00
G01 X9.5556 Y23.6222 F100.00
G01 X9.2964 Y23.8515 F100.00
G01 X9.2000 Y23.9410 F100.00
G01 X9.2000 Y24.7728 F100.00
G01 X9.2194 Y24.7530 F100.00
G01 X9.4565 Y24.5216 F100.00
G01 X9.6993 Y24.2961 F100.00
G01 X9.9475 Y24.0766 F100.00
G01 X10.2010 Y23.8633 F100.00
G01 X10.4597 Y23.6562 F100.00
G01 X10.7234 Y23.4556 F100.00
G01 X10.9917 Y23.2617 F100.00
G00 Z2.0000
G00 X10.9917 Y24.0053
G01 F60.00
G01 Z-0.3000
G01 F100.00
G01 X10.8288 Y24.1292 F100.00
G01 X10.5817 Y24.3271 F100.00
G01 X10.3394 Y24.5309 F100.00
G01 X10.1022 Y24.7406 F100.00
G01 X9.8703 Y24.9561 F100.00
G01 X9.6437 Y25.1772 F100.00
G01 X9.4225 Y25.4038 F100.00
G01 X9.2071 Y25.6358 F100.00
G01 X9.2000 Y25.6438 F100.00
G01 X9.2000 Y26.5675 F100.00
G01 X9.2573 Y26.4959 F100.00
G01 X9.4517 Y26.2649 F100.00
G01 X9.6516 Y26.0387 F100.00
G01 X9.8571 Y25.8175 F100.00
G01 X10.0679 Y25.6015 F100.00
G01 X10.2840 Y25.3907 F100.00
G01 X10.5052 Y25.1852 F100.00
G01 X10.7313 Y24.9852 F100.00
G01 X10.9623 Y24.7909 F100.00
G01 X10.9917 Y24.7673 F100.00
G01 X10.9917 Y25.5558 F100.00
G01 X10.9081 Y25.6298 F100.00
G01 X10.6977 Y25.8252 F100.00
G01 X10.4922 Y26.0257 F100.00
G01 X10.2916 Y26.2313 F100.00
G01 X10.0962 Y26.4417 F100.00
G01 X9.9060 Y26.6568 F100.00
G01 X9.7211 Y26.8765 F100.00
G01 X9.5417 Y27.1007 F100.00
G01 X9.3678 Y27.3292 F100.00
G01 X9.2000 Y27.5614 F100.00
G01 X9.2000 Y28.6688 F100.00
G01 X9.2445 Y28.5924 F100.00
G01 X9.3875 Y28.3604 F100.00
G01 X9.5360 Y28.1321 F100.00
G01 X9.6901 Y27.9074 F100.00
G01 X9.8497 Y27.6866 F100.00
G01 X10.0147 Y27.4698 F100.00
G01 X10.1849 Y27.2571 F100.00
G01 X10.3603 Y27.0487 F100.00
G01 X10.5408 Y26.8446 F100.00
G01 X10.7262 Y26.6450 F100.00
G01 X10.9164 Y26.4500 F100.00
G01 X10.9917 Y26.3766 F100.00
G01 X10.9917 Y27.2407 F100.00
G01 X10.8146 Y27.4406 F100.00
G01 X10.6487 Y27.6378 F100.00
G01 X10.4877 Y27.8390 F100.00
G01 X10.3317 Y28.0440 F100.00
G01 X10.1807 Y28.2529 F100.00
G01 X10.0349 Y28.4654 F100.00
G01 X9.8944 Y28.6814 F100.00
G01 X9.7592 Y28.9008 F100.00
G01 X9.6294 Y29.1235 F100.00
G01 X9.5052 Y29.3492 F100.00
G01 X9.3865 Y29.5780 F100.00
G01 X9.2734 Y29.8096 F100.00
G01 X9.2000 Y29.9699 F100.00
G01 X9.2000 Y31.7493 F100.00
G01 X9.2239 Y31.6584 F100.00
G01 X9.2916 Y31.4251 F100.00
G01 X9.3650 Y31.1934 F100.00
G01 X9.4440 Y30.9637 F100.00
G01 X9.5287 Y30.7359 F100.00
G01 X9.6189 Y30.5103 F100.00
G01 X9.7147 Y30.2870 F100.00
G01 X9.8158 Y30.0661 F100.00
G01 X9.9224 Y29.8477 F100.00
G01 X10.0343 Y29.6321 F100.00
G01 X10.1515 Y29.4192 F100.00
G01 X10.2738 Y29.2093 F100.00
G01 X10.4013 Y29.0024 F100.00
G01 X10.5338 Y28.7987 F100.00
G01 X10.6712 Y28.5984 F100.00
G01 X10.8136 Y28.4015 F100.00
G01 X10.9607 Y28.2081 F100.00
G01 X10.9917 Y28.1694 F100.00
G01 X10.9917 Y29.1951 F100.00
G01 X10.9082 Y29.3234 F100.00
G01 X10.7885 Y29.5177 F100.00
G01 X10.6735 Y29.7149 F100.00
G01 X10.5635 Y29.9149 F100.00
G01 X10.4583 Y30.1175 F100.00
G01 X10.3582 Y30.3226 F100.00
G01 X10.2632 Y30.5301 F100.00
G01 X10.1733 Y30.7399 F100.00
G01 X10.0885 Y30.9519 F100.00
G01 X10.0090 Y31.1658 F100.00
G01 X9.9347 Y31.3817 F100.00
G01 X9.8658 Y31.5992 F100.00
G01 X9.8022 Y31.8185 F100.00
G01 X9.7440 Y32.0392 F100.00
G01 X9.6913 Y32.2613 F100.00
G01 X9.6440 Y32.4846 F100.00
G01 X9.6023 Y32.7089 F100.00
G01 X9.5660 Y32.9343 F100.00
G01 X9.5353 Y33.1605 F100.00
G01 X9.5101 Y33.3873 F100.00
G01 X9.4905 Y33.6147 F100.00
G01 X9.4765 Y33.8426 F100.00
G01 X9.4681 Y34.0707 F100.00
G01 X9.4653 Y34.2989 F100.00
G01 X9.4681 Y34.5271 F100.00
G01 X9.4765 Y34.7552 F100.00
G01 X9.4905 Y34.9830 F100.00
G01 X9.5101 Y35.2105 F100.00
G01 X9.5353 Y35.4373 F100.00
G01 X9.5660 Y35.6635 F100.00
G01 X9.6023 Y35.8888 F100.00
G01 X9.6440 Y36.1132 F100.00
G01 X9.6913 Y36.3365 F100.00
G01 X9.7440 Y36.5586 F100.00
G01 X9.8022 Y36.7793 F100.00
G01 X9.8658 Y36.9985 F100.00
G01 X9.9347 Y37.2161 F100.00
G01 X10.0090 Y37.4320 F100.00
G01 X10.0885 Y37.6459 F100.00
G01 X10.1733 Y37.8578 F100.00
G01 X10.2632 Y38.0676 F100.00
G01 X10.3582 Y38.2752 F100.00
G01 X10.4583 Y38.4803 F100.00
G01 X10.5635 Y38.6829 F100.00
G01 X10.6735 Y38.8828 F100.00
G01 X10.7885 Y39.0800 F100.00
G01 X10.9082 Y39.2744 F100.00
G01 X10.9917 Y39.4027 F100.00
G00 Z2.0000
G00 X10.9917 Y40.4284
G01 F60.00
G01 Z-0.3000
G01 F100.00
G01 X10.9607 Y40.3897 F100.00
G01 X10.8136 Y40.1963 F100.00
G01 X10.6712 Y39.9994 F100.00
G01 X10.5338 Y39.7990 F100.00
G01 X10.4013 Y39.5954 F100.00
G01 X10.2738 Y39.3885 F100.00
G01 X10.1515 Y39.1786 F100.00
G01 X10.0343 Y38.9657 F100.00
G01 X9.9224 Y38.7500 F100.00
G01 X9.8158 Y38.5317 F100.00
G01 X9.7147 Y38.3108 F100.00
G01 X9.6189 Y38.0875 F100.00
G01 X9.5287 Y37.8619 F100.00
G01 X9.4440 Y37.6341 F100.00
G01 X9.3650 Y37.4043 F100.00
G01 X9.2916 Y37.1727 F100.00
G01 X9.2239 Y36.9393 F100.00
G01 X9.2000 Y36.8485 F100.00
G01 X9.2000 Y38.6279 F100.00
G01 X9.2734 Y38.7882 F100.00
G01 X9.3865 Y39.0198 F100.00
G01 X9.5052 Y39.2486 F100.00
G01 X9.6294 Y39.4743 F100.00
G01 X9.7592 Y39.6970 F100.00
G01 X9.8944 Y39.9164 F100.00
G01 X10.0349 Y40.1324 F100.00
G01 X10.1807 Y40.3449 F100.00
G01 X10.3317 Y40.5537 F100.00
G01 X10.4877 Y40.7588 F100.00
G01 X10.6487 Y40.9600 F100.00
G01 X10.8146 Y41.1572 F100.00
G01 X10.9917 Y41.3571 F100.00
G00 Z2.0000
G00 X10.9917 Y42.2212
G01 F60.00
G01 Z-0.3000
G01 F100.00
G01 X10.9164 Y42.1478 F100.00
G01 X10.7262 Y41.9528 F100.00
G01 X10.5408 Y41.7532 F100.00
G01 X10.3603 Y41.5491 F100.00
G01 X10.1849 Y41.3407 F100.00
G01 X10.0147 Y41.1280 F100.00
G01 X9.8497 Y40.9112 F100.00
G01 X9.6901 Y40.6904 F100.00
G01 X9.5360 Y40.4657 F100.00
G01 X9.3875 Y40.2374 F100.00
G01 X9.2445 Y40.0054 F100.00
G01 X9.2000 Y39.9290 F100.00
G01 X9.2000 Y41.0364 F100.00
G01 X9.3678 Y41.2686 F100.00
G01 X9.5417 Y41.4971 F100.00
G01 X9.7211 Y41.7213 F100.00
G01 X9.9060 Y41.9410 F100.00
G01 X10.0962 Y42.1561 F100.00
G01 X10.2916 Y42.3665 F100.00
G01 X10.4922 Y42.5720 F100.00
G01 X10.6977 Y42.7726 F100.00
G01 X10.9081 Y42.9680 F100.00
G01 X10.9917 Y43.0419 F100.00
G00 Z2.0000
G00 X10.9917 Y43.8304
G01 F60.00
G01 Z-0.3000
G01 F100.00
G01 X10.9623 Y43.8069 F100.00
G01 X10.7313 Y43.6126 F100.00
G01 X10.5052 Y43.4126 F100.00
G01 X10.2840 Y43.2071 F100.00
G01 X10.0679 Y42.9963 F100.00
G01 X9.8571 Y42.7802 F100.00
G01 X9.6516 Y42.5591 F100.00
G01 X9.4517 Y42.3329 F100.00
G01 X9.2573 Y42.1019 F100.00
G01 X9.2000 Y42.0303 F100.00
G01 X9.2000 Y42.9540 F100.00
G01 X9.2071 Y42.9620 F100.00
G01 X9.4225 Y43.1940 F100.00
G01 X9.6437 Y43.4206 F100.00
G01 X9.8703 Y43.6417 F100.00
G01 X10.1022 Y43.8572 F100.00
G01 X10.3394 Y44.0669 F100.00
G01 X10.5817 Y44.2707 F100.00
G01 X10.8288 Y44.4686 F100.00
G01 X10.9917 Y44.5925 F100.00
G00 Z2.0000
G00 X10.9917 Y45.3361
G01 F60.00
G01 Z-0.3000
G01 F100.00
G01 X10.7234 Y45.1422 F100.00
G01 X10.4597 Y44.9416 F100.00
G01 X10.2010 Y44.7345 F100.00
G01 X9.9475 Y44.5212 F100.00
G01 X9.6993 Y44.3017 F100.00
G01 X9.4565 Y44.0762 F100.00
G01 X9.2194 Y43.8448 F100.00
G01 X9.2000 Y43.8250 F100.00
G01 X9.2000 Y44.6568 F100.00
G01 X9.2964 Y44.7463 F100.00
G01 X9.5556 Y44.9755 F100.00
G01 X9.8204 Y45.1983 F100.00
G01 X10.0906 Y45.4146 F100.00
G01 X10.3660 Y45.6241 F100.00
G01 X10.6464 Y45.8268 F100.00
G01 X10.9318 Y46.0226 F100.00
G01 X10.9917 Y46.0616 F100.00
G00 Z2.0000
G00 X10.9917 Y46.7742
G01 F60.00
G01 Z-0.3000
G01 F100.00
G01 X10.9009 Y46.7182 F100.00
G01 X10.5985 Y46.5215 F100.00
G01 X10.3010 Y46.3174 F100.00
G01 X10.0086 Y46.1060 F100.00
G01 X9.7214 Y45.8876 F100.00
G01 X9.4398 Y45.6621 F100.00
G01 X9.2000 Y45.4604 F100.00
G01 X9.2000 Y46.2387 F100.00
G01 X9.3523 Y46.3606 F100.00
G01 X9.6511 Y46.5880 F100.00
G01 X9.9555 Y46.8079 F100.00
G01 X10.2651 Y47.0204 F100.00
G01 X10.5799 Y47.2252 F100.00
G01 X10.8996 Y47.4221 F100.00
G01 X10.9917 Y47.4758 F100.00
G00 Z2.0000
G00 X10.9917 Y48.1682
G01 F60.00
G01 Z-0.3000
G01 F100.00
G01 X10.9283 Y48.1333 F100.00
G01 X10.5911 Y47.9368 F100.00
G01 X10.2589 Y47.7321 F100.00
G01 X9.9318 Y47.5193 F100.00
G01 X9.6100 Y47.2985 F100.00
G01 X9.2937 Y47.0699 F100.00
G01 X9.2000 Y46.9986 F100.00
G01 X9.2000 Y47.7424 F100.00
G01 X9.2645 Y47.7890 F100.00
G01 X9.5984 Y48.0181 F100.00
G01 X9.9379 Y48.2390 F100.00
G01 X10.2826 Y48.4514 F100.00
G01 X10.6325 Y48.6553 F100.00
G01 X10.9917 Y48.8529 F100.00
G01 X10.9917 Y49.5288 F100.00
G01 X10.7044 Y49.3797 F100.00
G01 X10.3368 Y49.1774 F100.00
G01 X9.9742 Y48.9661 F100.00
G01 X9.6169 Y48.7459 F100.00
G01 X9.2651 Y48.5170 F100.00
G01 X9.2000 Y48.4724 F100.00
G01 X9.2000 Y49.1904 F100.00
G01 X9.2959 Y49.2528 F100.00
G01 X9.6657 Y49.4807 F100.00
G01 X10.0410 Y49.6994 F100.00
G01 X10.4216 Y49.9089 F100.00
G01 X10.8072 Y50.1090 F100.00
G01 X10.9917 Y50.1990 F100.00
G01 X10.9917 Y50.8651 F100.00
G01 X10.9411 Y50.8419 F100.00
G01 X10.5374 Y50.6449 F100.00
G01 X10.1388 Y50.4381 F100.00
G01 X9.7453 Y50.2215 F100.00
G01 X9.3573 Y49.9953 F100.00
G01 X9.2000 Y49.8984 F100.00
G01 X9.2000 Y50.5981 F100.00
G01 X9.4496 Y50.7435 F100.00
G01 X9.8559 Y50.9672 F100.00
G01 X10.2677 Y51.1808 F100.00
G01 X10.6845 Y51.3843 F100.00
G01 X11.1063 Y51.5775 F100.00
G01 X11.3190 Y51.6687 F100.00
G00 Z2.0000
G00 X12.3688 Y52.7185
G01 F60.00
G01 Z-0.3000
G01 F100.00
G01 X12.1960 Y52.6590 F100.00
G01 X11.7474 Y52.4923 F100.00
G01 X11.3030 Y52.3145 F100.00
G01 X10.8631 Y52.1260 F100.00
G01 X10.4280 Y51.9267 F100.00
G01 X9.9979 Y51.7168 F100.00
G01 X9.5731 Y51.4964 F100.00
G01 X9.2000 Y51.2910 F100.00
G01 X9.2000 Y51.9758 F100.00
G01 X9.2903 Y52.0255 F100.00
G01 X9.7281 Y52.2527 F100.00
G01 X10.1715 Y52.4691 F100.00
G01 X10.6200 Y52.6745 F100.00
G01 X11.0734 Y52.8689 F100.00
G01 X11.5314 Y53.0520 F100.00
G01 X11.9938 Y53.2239 F100.00
G01 X12.4603 Y53.3844 F100.00
G01 X12.9306 Y53.5334 F100.00
G01 X13.2872 Y53.6368 F100.00
G00 Z2.0000
G00 X14.1203 Y54.4699
G01 F60.00
G01 Z-0.3000
G01 F100.00
G01 X13.7356 Y54.3785 F100.00
G01 X13.2444 Y54.2491 F100.00
G01 X12.7564 Y54.1076 F100.00
G01 X12.2721 Y53.9541 F100.00
G01 X11.7917 Y53.7889 F100.00
G01 X11.3155 Y53.6118 F100.00
G01 X10.8438 Y53.4232 F100.00
G01 X10.3768 Y53.2230 F100.00
G01 X9.9149 Y53.0115 F100.00
G01 X9.4584 Y52.7886 F100.00
G01 X9.2000 Y52.6546 F100.00
G01 X9.2000 Y53.3301 F100.00
G01 X9.6584 Y53.5539 F100.00
G01 X10.1337 Y53.7716 F100.00
G01 X10.6142 Y53.9775 F100.00
G01 X11.0996 Y54.1716 F100.00
G01 X11.5896 Y54.3538 F100.00
G01 X12.0839 Y54.5238 F100.00
G01 X12.5823 Y54.6817 F100.00
G01 X13.0844 Y54.8273 F100.00
G01 X13.5899 Y54.9606 F100.00
G01 X14.0985 Y55.0813 F100.00
G01 X14.6099 Y55.1896 F100.00
G01 X14.8926 Y55.2423 F100.00
G00 Z2.0000
G00 X15.6217 Y55.9713
G01 F60.00
G01 Z-0.3000
G01 F100.00
G01 X15.5519 Y55.9619 F100.00
G01 X15.0213 Y55.8765 F100.00
G01 X14.4929 Y55.7781 F100.00
G01 X13.9670 Y55.6668 F100.00
G01 X13.4441 Y55.5426 F100.00
G01 X12.9243 Y55.4056 F100.00
G01 X12.4081 Y55.2559 F100.00
G01 X11.8957 Y55.0936 F100.00
G01 X11.3874 Y54.9187 F100.00
G01 X10.8836 Y54.7314 F100.00
G01 X10.3846 Y54.5319 F100.00
G01 X9.8905 Y54.3201 F100.00
G01 X9.4019 Y54.0963 F100.00
G01 X9.2000 Y53.9977 F100.00
G01 X9.2000 Y54.6637 F100.00
G01 X9.6474 Y54.8686 F100.00
G01 X10.1550 Y55.0862 F100.00
G01 X10.6677 Y55.2912 F100.00
G01 X11.1853 Y55.4836 F100.00
G01 X11.7075 Y55.6633 F100.00
G01 X12.2339 Y55.8301 F100.00
G01 X12.7643 Y55.9839 F100.00
G01 X13.2983 Y56.1246 F100.00
G01 X13.8356 Y56.2522 F100.00
G01 X14.3758 Y56.3666 F100.00
G01 X14.9187 Y56.4676 F100.00
G01 X15.4639 Y56.5554 F100.00
G01 X16.0111 Y56.6297 F100.00
G01 X16.3136 Y56.6632 F100.00
G00 Z2.0000
G00 X16.9792 Y57.3288
G01 F60.00
G01 Z-0.3000
G01 F100.00
G01 X16.5011 Y57.2877 F100.00
G01 X15.9376 Y57.2252 F100.00
G01 X15.3759 Y57.1489 F100.00
G01 X14.8161 Y57.0588 F100.00
G01 X14.2587 Y56.9550 F100.00
G01 X13.7041 Y56.8376 F100.00
G01 X13.1525 Y56.7066 F100.00
G01 X12.6043 Y56.5621 F100.00
G01 X12.0598 Y56.4042 F100.00
G01 X11.5193 Y56.2330 F100.00
G01 X10.9832 Y56.0486 F100.00
G01 X10.4518 Y55.8510 F100.00
G01 X9.9253 Y55.6405 F100.00
G01 X9.4043 Y55.4171 F100.00
G01 X9.2000 Y55.3236 F100.00
G01 X9.2000 Y55.9823 F100.00
G01 X9.6957 Y56.1948 F100.00
G01 X10.2358 Y56.4108 F100.00
G01 X10.7810 Y56.6135 F100.00
G01 X11.3311 Y56.8027 F100.00
G01 X11.8856 Y56.9784 F100.00
G01 X12.4442 Y57.1404 F100.00
G01 X13.0067 Y57.2886 F100.00
G01 X13.5726 Y57.4230 F100.00
G01 X14.1417 Y57.5435 F100.00
G01 X14.7135 Y57.6500 F100.00
G01 X15.2878 Y57.7424 F100.00
G01 X15.8642 Y57.8207 F100.00
G01 X16.4423 Y57.8848 F100.00
G01 X17.0219 Y57.9347 F100.00
G01 X17.6024 Y57.9703 F100.00
G01 X17.6214 Y57.9710 F100.00
G00 Z2.0000
G00 X18.3718 Y58.5941
G01 F60.00
G01 Z-0.3000
G01 F100.00
G01 X18.1690 Y58.5916 F100.00
G01 X17.5730 Y58.5696 F100.00
G01 X16.9777 Y58.5331 F100.00
G01 X16.3835 Y58.4819 F100.00
G01 X15.7908 Y58.4161 F100.00
G01 X15.1998 Y58.3359 F100.00
G01 X14.6110 Y58.2411 F100.00
G01 X14.0246 Y58.1320 F100.00
G01 X13.4412 Y58.0085 F100.00
G01 X12.8609 Y57.8707 F100.00
G01 X12.2842 Y57.7187 F100.00
G01 X11.7114 Y57.5525 F100.00
G01 X11.1429 Y57.3724 F100.00
G01 X10.5789 Y57.1784 F100.00
G01 X10.0199 Y56.9706 F100.00
G01 X9.4661 Y56.7492 F100.00
G01 X9.2000 Y56.6351 F100.00
G01 X9.2000 Y57.2878 F100.00
G01 X9.2365 Y57.3035 F100.00
G01 X9.8039 Y57.5304 F100.00
G01 X10.3768 Y57.7433 F100.00
G01 X10.9547 Y57.9421 F100.00
G01 X11.5372 Y58.1267 F100.00
G01 X12.1242 Y58.2969 F100.00
G01 X12.7151 Y58.4527 F100.00
G01 X13.3097 Y58.5939 F100.00
G01 X13.9076 Y58.7204 F100.00
G01 X14.5084 Y58.8323 F100.00
G01 X15.1117 Y58.9294 F100.00
G01 X15.7173 Y59.0116 F100.00
G01 X16.3247 Y59.0790 F100.00
G01 X16.9336 Y59.1314 F100.00
G01 X17.5435 Y59.1689 F100.00
G01 X18.1543 Y59.1914 F100.00
G01 X18.7653 Y59.1989 F100.00
G01 X19.3764 Y59.1914 F100.00
G01 X19.9871 Y59.1689 F100.00
G01 X20.5971 Y59.1314 F100.00
G01 X21.2060 Y59.0790 F100.00
G01 X21.8134 Y59.0116 F100.00
G01 X22.4189 Y58.9294 F100.00
G01 X23.0223 Y58.8323 F100.00
G01 X23.6231 Y58.7204 F100.00
G01 X23.9169 Y58.6583 F100.00
G00 Z2.0000
G00 X25.0380 Y56.5298
G01 F60.00
G01 Z-0.3000
G01 F100.00
G01 X25.0417 Y56.5287 F100.00
G01 X25.0482 Y56.5222 F100.00
G01 X24.9940 Y56.5622 F100.00
G01 X24.9736 Y56.5758 F100.00
G01 X24.8734 Y56.6359 F100.00
G01 X24.8518 Y56.6474 F100.00
G01 X24.8303 Y56.6577 F100.00
G01 X24.9126 Y56.6577 F100.00
G01 X25.0482 Y56.5222 F100.00
G00 Z2.0000
G00 X25.5743 Y55.7421
G01 F60.00
G01 Z-0.3000
G01 F100.00
G01 X25.8232 Y55.6633 F100.00
G01 X25.9511 Y55.6193 F100.00
G01 X25.5986 Y55.1051 F100.00
G01 X25.6350 Y55.0936 F100.00
G01 X26.1432 Y54.9187 F100.00
G01 X26.6470 Y54.7314 F100.00
G01 X26.9668 Y54.6035 F100.00
G01 X25.3652 Y54.5497 F100.00
G01 X25.4468 Y54.5238 F100.00
G01 X25.9411 Y54.3538 F100.00
G01 X26.4311 Y54.1716 F100.00
G01 X26.9165 Y53.9775 F100.00
G01 X27.3970 Y53.7716 F100.00
G01 X27.8723 Y53.5539 F100.00
G01 X28.1540 Y53.4163 F100.00
G01 X29.4551 Y52.0244 F100.00
G01 X29.4073 Y52.0539 F100.00
G01 X28.9683 Y52.3097 F100.00
G01 X28.5232 Y52.5547 F100.00
G01 X28.0723 Y52.7886 F100.00
G01 X27.6157 Y53.0115 F100.00
G01 X27.1538 Y53.2230 F100.00
G01 X26.6869 Y53.4232 F100.00
G01 X26.2152 Y53.6118 F100.00
G01 X25.7390 Y53.7889 F100.00
G01 X25.2585 Y53.9541 F100.00
G01 X25.1842 Y53.9777 F100.00
G00 Z2.0000
G00 X25.1729 Y53.3491
G01 F60.00
G01 Z-0.3000
G01 F100.00
G01 X25.5368 Y53.2239 F100.00
G01 X25.9992 Y53.0520 F100.00
G01 X26.4573 Y52.8689 F100.00
G01 X26.9107 Y52.6745 F100.00
G01 X27.3592 Y52.4691 F100.00
G01 X27.8025 Y52.2527 F100.00
G01 X28.2404 Y52.0255 F100.00
G01 X28.6726 Y51.7876 F100.00
G01 X29.0172 Y51.5868 F100.00
G00 Z2.0000
G00 X28.5785 Y51.1481
G01 F60.00
G01 Z-0.3000
G01 F100.00
G01 X28.3768 Y51.2656 F100.00
G01 X27.9576 Y51.4964 F100.00
G01 X27.5328 Y51.7168 F100.00
G01 X27.1027 Y51.9267 F100.00
G01 X26.6675 Y52.1260 F100.00
G01 X26.2277 Y52.3145 F100.00
G01 X25.7833 Y52.4923 F100.00
G01 X25.3347 Y52.6590 F100.00
G01 X24.9084 Y52.8057 F100.00
G00 Z2.0000
G00 X24.4317 Y52.3281
G01 F60.00
G01 Z-0.3000
G01 F100.00
G01 X24.6939 Y52.2450 F100.00
G01 X25.1326 Y52.0941 F100.00
G01 X25.5673 Y51.9325 F100.00
G01 X25.9980 Y51.7602 F100.00
G01 X26.4244 Y51.5775 F100.00
G01 X26.8461 Y51.3843 F100.00
G01 X27.2630 Y51.1808 F100.00
G01 X27.6747 Y50.9672 F100.00
G01 X28.0811 Y50.7435 F100.00
G01 X28.1397 Y50.7094 F100.00
G01 X27.6993 Y50.2689 F100.00
G01 X27.3919 Y50.4381 F100.00
G01 X26.9932 Y50.6449 F100.00
G01 X26.5896 Y50.8419 F100.00
G01 X26.1812 Y51.0289 F100.00
G01 X25.7684 Y51.2059 F100.00
G01 X25.3514 Y51.3727 F100.00
G01 X24.9304 Y51.5291 F100.00
G01 X24.5057 Y51.6753 F100.00
G01 X24.0775 Y51.8109 F100.00
G01 X23.9512 Y51.8476 F100.00
G01 X24.7968 Y50.9387 F100.00
G01 X25.1355 Y50.8129 F100.00
G01 X25.5388 Y50.6516 F100.00
G01 X25.9381 Y50.4804 F100.00
G01 X26.3331 Y50.2995 F100.00
G01 X26.7235 Y50.1090 F100.00
G01 X27.1091 Y49.9089 F100.00
G01 X27.2575 Y49.8272 F100.00
G01 X26.8156 Y49.3852 F100.00
G01 X26.4537 Y49.5730 F100.00
G01 X26.4070 Y49.5958 F100.00
G00 Z2.0000
G00 X26.4138 Y48.9834
G01 F60.00
G01 Z-0.3000
G01 F100.00
G01 X26.4181 Y49.0029 F100.00
G01 X26.4223 Y49.0271 F100.00
G01 X26.4353 Y49.1144 F100.00
G01 X26.4383 Y49.1388 F100.00
G01 X26.4401 Y49.1633 F100.00
G01 X26.4444 Y49.2515 F100.00
G01 X26.4450 Y49.2760 F100.00
G01 X26.4444 Y49.3005 F100.00
G01 X26.4401 Y49.3887 F100.00
G01 X26.4383 Y49.4132 F100.00
G01 X26.4353 Y49.4376 F100.00
G01 X26.4223 Y49.5249 F100.00
G01 X26.4181 Y49.5491 F100.00
G01 X26.4127 Y49.5731 F100.00
G01 X26.3913 Y49.6587 F100.00
G01 X26.3847 Y49.6824 F100.00
G01 X26.3770 Y49.7057 F100.00
G01 X26.3473 Y49.7889 F100.00
G01 X26.3430 Y49.8004 F100.00
G01 X26.3336 Y49.8230 F100.00
G01 X26.2854 Y49.9251 F100.00
G01 X26.2797 Y49.9360 F100.00
G01 X26.2676 Y49.9573 F100.00
G01 X26.2222 Y50.0331 F100.00
G01 X26.2091 Y50.0538 F100.00
G01 X26.1949 Y50.0739 F100.00
G01 X26.1423 Y50.1448 F100.00
G01 X26.1349 Y50.1546 F100.00
G01 X26.1193 Y50.1735 F100.00
G01 X26.0519 Y50.2482 F100.00
G01 X26.0350 Y50.2659 F100.00
G01 X26.0172 Y50.2829 F100.00
G01 X25.9517 Y50.3422 F100.00
G01 X25.9426 Y50.3503 F100.00
G01 X25.9236 Y50.3659 F100.00
G01 X25.8429 Y50.4259 F100.00
G01 X25.8228 Y50.4401 F100.00
G01 X25.8125 Y50.4467 F100.00
G01 X25.7157 Y50.5048 F100.00
G01 X25.7050 Y50.5107 F100.00
G01 X25.6830 Y50.5217 F100.00
G01 X25.5920 Y50.5646 F100.00
G01 X25.5808 Y50.5694 F100.00
G01 X25.5579 Y50.5783 F100.00
G01 X25.4747 Y50.6080 F100.00
G01 X25.4514 Y50.6157 F100.00
G01 X25.4278 Y50.6223 F100.00
G01 X25.3421 Y50.6437 F100.00
G01 X25.3181 Y50.6491 F100.00
G01 X25.3061 Y50.6513 F100.00
G01 X25.1944 Y50.6679 F100.00
G01 X25.1822 Y50.6693 F100.00
G01 X25.1578 Y50.6711 F100.00
G01 X25.0598 Y50.6758 F100.00
G01 X23.9196 Y51.8160 F100.00
G01 X24.8912 Y52.7876 F100.00
G01 X24.9081 Y52.8054 F100.00
G01 X24.9411 Y52.8418 F100.00
G01 X24.9492 Y52.8510 F100.00
G01 X24.9648 Y52.8699 F100.00
G01 X25.0087 Y52.9291 F100.00
G01 X25.0156 Y52.9392 F100.00
G01 X25.0287 Y52.9599 F100.00
G01 X25.0602 Y53.0126 F100.00
G01 X25.0661 Y53.0234 F100.00
G01 X25.0771 Y53.0453 F100.00
G01 X25.0981 Y53.0897 F100.00
G01 X25.1081 Y53.1121 F100.00
G01 X25.1169 Y53.1350 F100.00
G01 X25.1374 Y53.1929 F100.00
G01 X25.1445 Y53.2163 F100.00
G01 X25.1596 Y53.2758 F100.00
G01 X25.1624 Y53.2878 F100.00
G01 X25.1672 Y53.3118 F100.00
G01 X25.1764 Y53.3725 F100.00
G01 X25.1794 Y53.3969 F100.00
G01 X25.1812 Y53.4213 F100.00
G01 X25.1836 Y53.4704 F100.00
G01 X25.1842 Y53.4949 F100.00
G01 X25.1842 Y54.3369 F100.00
G01 X25.2020 Y54.3539 F100.00
G01 X25.2190 Y54.3717 F100.00
G01 X25.2890 Y54.4492 F100.00
G01 X25.3046 Y54.4682 F100.00
G01 X25.3120 Y54.4779 F100.00
G01 X25.3670 Y54.5520 F100.00
G01 X25.3811 Y54.5721 F100.00
G01 X25.3878 Y54.5824 F100.00
G01 X25.4478 Y54.6825 F100.00
G01 X25.4594 Y54.7042 F100.00
G01 X25.4648 Y54.7152 F100.00
G01 X25.5042 Y54.7986 F100.00
G01 X25.5141 Y54.8210 F100.00
G01 X25.5230 Y54.8439 F100.00
G01 X25.5540 Y54.9307 F100.00
G01 X25.5617 Y54.9540 F100.00
G01 X25.5683 Y54.9777 F100.00
G01 X25.5907 Y55.0672 F100.00
G01 X25.5961 Y55.0911 F100.00
G01 X25.6003 Y55.1153 F100.00
G01 X25.6138 Y55.2065 F100.00
G01 X25.6155 Y55.2187 F100.00
G01 X25.6179 Y55.2431 F100.00
G01 X25.6231 Y55.3475 F100.00
G01 X25.6237 Y55.3720 F100.00
G01 X25.6231 Y55.3965 F100.00
G01 X25.6186 Y55.4887 F100.00
G01 X25.6168 Y55.5131 F100.00
G01 X25.6138 Y55.5375 F100.00
G01 X25.6003 Y55.6287 F100.00
G01 X25.5961 Y55.6529 F100.00
G01 X25.5907 Y55.6768 F100.00
G01 X25.5652 Y55.7782 F100.00
G01 X25.5617 Y55.7900 F100.00
G01 X25.5540 Y55.8133 F100.00
G01 X25.5230 Y55.9001 F100.00
G01 X25.5141 Y55.9230 F100.00
G01 X25.5042 Y55.9454 F100.00
G01 X25.4594 Y56.0398 F100.00
G01 X25.4537 Y56.0507 F100.00
G01 X25.4416 Y56.0721 F100.00
G01 X25.3878 Y56.1616 F100.00
G01 X25.3741 Y56.1820 F100.00
G01 X25.3341 Y56.2363 F100.00
G01 X29.2004 Y52.3701 F100.00
G01 X29.2458 Y52.3288 F100.00
G01 X29.2644 Y52.3128 F100.00
G01 X29.2740 Y52.3051 F100.00
G01 X29.3331 Y52.2613 F100.00
G01 X29.3535 Y52.2476 F100.00
G01 X29.3640 Y52.2412 F100.00
G01 X29.4061 Y52.2160 F100.00
G01 X29.4274 Y52.2039 F100.00
G01 X29.4493 Y52.1928 F100.00
G01 X29.4937 Y52.1718 F100.00
G01 X29.5049 Y52.1667 F100.00
G01 X29.5276 Y52.1573 F100.00
G01 X29.5902 Y52.1348 F100.00
G01 X29.5377 Y52.0963 F100.00
G01 X29.5184 Y52.0812 F100.00
G01 X29.4998 Y52.0652 F100.00
G01 X29.4634 Y52.0322 F100.00
G01 X29.4457 Y52.0153 F100.00
G01 X26.4138 Y48.9834 F100.00
G00 Z2.0000
G00 X25.0281 Y47.5977
G01 F60.00
G01 Z-0.3000
G01 F100.00
G01 X24.7224 Y47.7378 F100.00
G01 X24.3908 Y47.8799 F100.00
G01 X24.0558 Y48.0139 F100.00
G01 X23.7176 Y48.1396 F100.00
G01 X23.3765 Y48.2570 F100.00
G01 X23.0325 Y48.3659 F100.00
G01 X22.6860 Y48.4664 F100.00
G01 X22.3371 Y48.5584 F100.00
G01 X21.9861 Y48.6417 F100.00
G01 X21.6332 Y48.7164 F100.00
G01 X21.2785 Y48.7825 F100.00
G01 X20.9223 Y48.8398 F100.00
G01 X20.5648 Y48.8883 F100.00
G01 X20.2062 Y48.9281 F100.00
G01 X19.8467 Y48.9591 F100.00
G01 X19.4866 Y48.9812 F100.00
G01 X19.3514 Y48.9862 F100.00
G00 Z2.0000
G00 X19.6447 Y48.3704
G01 F60.00
G01 Z-0.3000
G01 F100.00
G01 X19.8026 Y48.3607 F100.00
G01 X20.1474 Y48.3310 F100.00
G01 X20.4913 Y48.2929 F100.00
G01 X20.8342 Y48.2463 F100.00
G01 X21.1759 Y48.1913 F100.00
G01 X21.5161 Y48.1280 F100.00
G01 X21.8547 Y48.0563 F100.00
G01 X22.1914 Y47.9763 F100.00
G01 X22.5260 Y47.8881 F100.00
G01 X22.8583 Y47.7918 F100.00
G01 X23.1882 Y47.6872 F100.00
G01 X23.5155 Y47.5747 F100.00
G01 X23.8399 Y47.4541 F100.00
G01 X24.0870 Y47.3553 F100.00
G01 X23.7418 Y48.7657 F100.00
G01 X23.5647 Y48.8267 F100.00
G01 X23.2067 Y48.9401 F100.00
G01 X22.8460 Y49.0447 F100.00
G01 X22.4829 Y49.1404 F100.00
G01 X22.1176 Y49.2271 F100.00
G01 X21.7502 Y49.3049 F100.00
G01 X21.3810 Y49.3736 F100.00
G01 X21.0103 Y49.4333 F100.00
G01 X20.6382 Y49.4838 F100.00
G01 X20.2650 Y49.5252 F100.00
G01 X19.8909 Y49.5574 F100.00
G01 X19.5161 Y49.5805 F100.00
G01 X19.1408 Y49.5943 F100.00
G01 X18.7653 Y49.5989 F100.00
G01 X18.3899 Y49.5943 F100.00
G01 X18.2986 Y49.5909 F100.00
G00 Z2.0000
G00 X17.7224 Y49.5625
G01 F60.00
G01 Z-0.3000
G01 F100.00
G01 X17.6398 Y49.5574 F100.00
G01 X17.2657 Y49.5252 F100.00
G01 X16.8924 Y49.4838 F100.00
G01 X16.5204 Y49.4333 F100.00
G01 X16.1496 Y49.3736 F100.00
G01 X15.7805 Y49.3049 F100.00
G01 X15.4131 Y49.2271 F100.00
G01 X15.0477 Y49.1404 F100.00
G01 X14.6846 Y49.0447 F100.00
G01 X14.3240 Y48.9401 F100.00
G01 X13.9660 Y48.8267 F100.00
G01 X13.6109 Y48.7045 F100.00
G01 X13.2589 Y48.5737 F100.00
G01 X12.9922 Y48.4670 F100.00
G01 X12.9922 Y49.1132 F100.00
G01 X13.0430 Y49.1335 F100.00
G01 X13.4088 Y49.2694 F100.00
G01 X13.7778 Y49.3964 F100.00
G01 X14.1498 Y49.5142 F100.00
G01 X14.5246 Y49.6229 F100.00
G01 X14.9019 Y49.7224 F100.00
G01 X15.2816 Y49.8126 F100.00
G01 X15.6634 Y49.8934 F100.00
G01 X16.0470 Y49.9648 F100.00
G01 X16.4323 Y50.0268 F100.00
G01 X16.8190 Y50.0793 F100.00
G01 X17.2069 Y50.1223 F100.00
G01 X17.5957 Y50.1558 F100.00
G01 X17.9852 Y50.1797 F100.00
G01 X18.3751 Y50.1941 F100.00
G01 X18.7653 Y50.1989 F100.00
G01 X19.1555 Y50.1941 F100.00
G01 X19.5455 Y50.1797 F100.00
G01 X19.9350 Y50.1558 F100.00
G01 X20.3238 Y50.1223 F100.00
G01 X20.7117 Y50.0793 F100.00
G01 X21.0983 Y50.0268 F100.00
G01 X21.4836 Y49.9648 F100.00
G01 X21.8673 Y49.8934 F100.00
G01 X22.2490 Y49.8126 F100.00
G01 X22.6287 Y49.7224 F100.00
G01 X23.0061 Y49.6229 F100.00
G01 X23.3809 Y49.5142 F100.00
G01 X23.3975 Y49.5090 F100.00
G01 X22.5483 Y50.3581 F100.00
G01 X22.3805 Y50.3980 F100.00
G01 X21.9843 Y50.4818 F100.00
G01 X21.5862 Y50.5560 F100.00
G01 X21.1864 Y50.6203 F100.00
G01 X20.7851 Y50.6748 F100.00
G01 X20.3826 Y50.7194 F100.00
G01 X19.9791 Y50.7542 F100.00
G01 X19.5749 Y50.7790 F100.00
G01 X19.3142 Y50.7886 F100.00
G00 Z2.0000
G00 X16.9448 Y50.6969
G01 F60.00
G01 Z-0.3000
G01 F100.00
G01 X16.7456 Y50.6748 F100.00
G01 X16.3443 Y50.6203 F100.00
G01 X15.9445 Y50.5560 F100.00
G01 X15.5463 Y50.4818 F100.00
G01 X15.1502 Y50.3980 F100.00
G01 X14.7562 Y50.3044 F100.00
G01 X14.3646 Y50.2012 F100.00
G01 X13.9756 Y50.0884 F100.00
G01 X13.5896 Y49.9661 F100.00
G01 X13.2067 Y49.8344 F100.00
G01 X12.9922 Y49.7547 F100.00
G01 X12.9922 Y50.3947 F100.00
G01 X13.0045 Y50.3993 F100.00
G01 X13.4014 Y50.5358 F100.00
G01 X13.8015 Y50.6626 F100.00
G01 X14.2045 Y50.7795 F100.00
G01 X14.6104 Y50.8864 F100.00
G01 X15.0187 Y50.9834 F100.00
G01 X15.4293 Y51.0703 F100.00
G01 X15.8419 Y51.1471 F100.00
G01 X16.2562 Y51.2138 F100.00
G01 X16.5893 Y51.2590 F100.00
G00 Z2.0000
G00 X16.4891 Y51.8509
G01 F60.00
G01 Z-0.3000
G01 F100.00
G01 X16.1682 Y51.8073 F100.00
G01 X15.7393 Y51.7383 F100.00
G01 X15.3122 Y51.6588 F100.00
G01 X14.8872 Y51.5688 F100.00
G01 X14.4646 Y51.4684 F100.00
G01 X14.0445 Y51.3577 F100.00
G01 X13.7526 Y51.2731 F100.00
G01 X14.5957 Y52.1162 F100.00
G01 X14.7558 Y52.1542 F100.00
G01 X15.1952 Y52.2473 F100.00
G01 X15.6367 Y52.3295 F100.00
G01 X16.0802 Y52.4008 F100.00
G01 X16.5252 Y52.4613 F100.00
G01 X16.6302 Y52.4729 F100.00
G00 Z2.0000
G00 X17.1768 Y53.1306
G01 F60.00
G01 Z-0.3000
G01 F100.00
G01 X16.9128 Y53.1079 F100.00
G01 X16.4518 Y53.0568 F100.00
G01 X15.9921 Y52.9943 F100.00
G01 X15.5342 Y52.9206 F100.00
G01 X15.3695 Y52.8900 F100.00
G01 X16.0930 Y53.6135 F100.00
G01 X16.3783 Y53.6522 F100.00
G01 X16.8540 Y53.7050 F100.00
G01 X17.3308 Y53.7461 F100.00
G01 X17.8085 Y53.7754 F100.00
G01 X18.2868 Y53.7930 F100.00
G01 X18.7653 Y53.7989 F100.00
G01 X19.2439 Y53.7930 F100.00
G01 X19.7222 Y53.7754 F100.00
G01 X20.1998 Y53.7461 F100.00
G01 X20.6767 Y53.7050 F100.00
G01 X21.1523 Y53.6522 F100.00
G01 X21.6266 Y53.5878 F100.00
G01 X22.0991 Y53.5118 F100.00
G01 X22.5696 Y53.4242 F100.00
G01 X22.6761 Y53.4017 F100.00
G01 X23.1820 Y53.9075 F100.00
G01 X23.1693 Y53.9105 F100.00
G01 X22.6866 Y54.0127 F100.00
G01 X22.2017 Y54.1030 F100.00
G01 X21.7146 Y54.1813 F100.00
G01 X21.2258 Y54.2477 F100.00
G01 X20.7355 Y54.3021 F100.00
G01 X20.2440 Y54.3444 F100.00
G01 X19.7516 Y54.3747 F100.00
G01 X19.2586 Y54.3928 F100.00
G01 X18.7653 Y54.3989 F100.00
G01 X18.2721 Y54.3928 F100.00
G01 X17.7791 Y54.3747 F100.00
G01 X17.2867 Y54.3444 F100.00
G01 X16.7952 Y54.3021 F100.00
G01 X16.7799 Y54.3004 F100.00
G01 X17.4341 Y54.9546 F100.00
G01 X17.7496 Y54.9740 F100.00
G01 X18.2573 Y54.9927 F100.00
G01 X18.7653 Y54.9989 F100.00
G01 X19.2733 Y54.9927 F100.00
G01 X19.7810 Y54.9740 F100.00
G01 X20.2881 Y54.9428 F100.00
G01 X20.7943 Y54.8992 F100.00
G01 X21.2992 Y54.8432 F100.00
G01 X21.8027 Y54.7748 F100.00
G01 X22.3042 Y54.6941 F100.00
G01 X22.8037 Y54.6011 F100.00
G01 X22.9946 Y54.5607 F100.00
G00 Z2.0000
G00 X22.7522 Y55.2210
G01 F60.00
G01 Z-0.3000
G01 F100.00
G01 X22.4068 Y55.2853 F100.00
G01 X21.8907 Y55.3684 F100.00
G01 X21.3727 Y55.4387 F100.00
G01 X20.8531 Y55.4963 F100.00
G01 X20.3323 Y55.5412 F100.00
G01 X19.8105 Y55.5732 F100.00
G01 X19.2881 Y55.5925 F100.00
G01 X18.7653 Y55.5989 F100.00
G01 X18.2426 Y55.5925 F100.00
G01 X18.0655 Y55.5860 F100.00
G01 X18.6773 Y56.1978 F100.00
G01 X18.7653 Y56.1989 F100.00
G01 X19.3028 Y56.1923 F100.00
G01 X19.8399 Y56.1725 F100.00
G01 X20.3764 Y56.1396 F100.00
G01 X20.9119 Y56.0934 F100.00
G01 X21.4461 Y56.0342 F100.00
G01 X21.9787 Y55.9619 F100.00
G01 X22.5094 Y55.8765 F100.00
G01 X22.8160 Y55.8194 F100.00
G00 Z2.0000
G00 X23.1453 Y56.3683
G01 F60.00
G01 Z-0.3000
G01 F100.00
G01 X22.6120 Y56.4676 F100.00
G01 X22.0668 Y56.5554 F100.00
G01 X21.5196 Y56.6297 F100.00
G01 X21.2665 Y56.6577 F100.00
G01 X22.1639 Y52.8895 F100.00
G01 X21.9965 Y52.9206 F100.00
G01 X21.5385 Y52.9943 F100.00
G01 X21.0789 Y53.0568 F100.00
G01 X20.6179 Y53.1079 F100.00
G01 X20.1557 Y53.1477 F100.00
G01 X19.6927 Y53.1761 F100.00
G01 X19.2292 Y53.1932 F100.00
G01 X18.8930 Y53.1973 F100.00
G00 Z2.0000
G00 X16.7341 Y48.8569
G01 F60.00
G01 Z-0.3000
G01 F100.00
G01 X16.6084 Y48.8398 F100.00
G01 X16.2522 Y48.7825 F100.00
G01 X15.8975 Y48.7164 F100.00
G01 X15.5445 Y48.6417 F100.00
G01 X15.1935 Y48.5584 F100.00
G01 X14.8447 Y48.4664 F100.00
G01 X14.4981 Y48.3659 F100.00
G01 X14.1542 Y48.2570 F100.00
G01 X13.8131 Y48.1396 F100.00
G01 X13.4749 Y48.0139 F100.00
G01 X13.1399 Y47.8799 F100.00
G01 X12.9922 Y47.8166 F100.00
G01 X12.9922 Y47.1621 F100.00
G01 X13.0514 Y47.1893 F100.00
G01 X13.3695 Y47.3256 F100.00
G01 X13.6908 Y47.4541 F100.00
G01 X14.0152 Y47.5747 F100.00
G01 X14.3424 Y47.6872 F100.00
G01 X14.6723 Y47.7918 F100.00
G01 X15.0047 Y47.8881 F100.00
G01 X15.3393 Y47.9763 F100.00
G01 X15.6760 Y48.0563 F100.00
G01 X16.0146 Y48.1280 F100.00
G01 X16.3548 Y48.1913 F100.00
G01 X16.5028 Y48.2151 F100.00
G01 X16.2241 Y47.5567 F100.00
G01 X16.1316 Y47.5395 F100.00
G01 X15.8075 Y47.4709 F100.00
G01 X15.4851 Y47.3943 F100.00
G01 X15.1647 Y47.3099 F100.00
G01 X14.8465 Y47.2176 F100.00
G01 X14.5306 Y47.1175 F100.00
G01 X14.2173 Y47.0097 F100.00
G01 X13.9067 Y46.8943 F100.00
G01 X13.5991 Y46.7713 F100.00
G01 X13.2946 Y46.6407 F100.00
G01 X12.9922 Y46.5022 F100.00
G01 X12.9922 Y45.8346 F100.00
G01 X13.2499 Y45.9604 F100.00
G01 X13.5377 Y46.0922 F100.00
G01 X13.8287 Y46.2169 F100.00
G01 X14.1227 Y46.3345 F100.00
G01 X14.4195 Y46.4448 F100.00
G01 X14.7188 Y46.5478 F100.00
G01 X15.0207 Y46.6434 F100.00
G01 X15.3247 Y46.7316 F100.00
G01 X15.4255 Y46.7582 F100.00
G01 X14.5033 Y45.8359 F100.00
G01 X14.3386 Y45.7747 F100.00
G01 X14.0583 Y45.6626 F100.00
G01 X13.7809 Y45.5437 F100.00
G01 X13.5064 Y45.4180 F100.00
G01 X13.2351 Y45.2856 F100.00
G01 X12.9922 Y45.1595 F100.00
G01 X13.3222 Y44.6548 F100.00
G01 X13.2500 Y44.6174 F100.00
G01 X12.9922 Y44.4753 F100.00
G01 X13.0237 Y43.7981 F100.00
G01 X12.9922 Y43.7786 F100.00
G01 X13.0237 Y43.0891 F100.00
G01 X12.9922 Y43.0686 F100.00
G01 X13.0237 Y42.3632 F100.00
G01 X12.9922 Y42.3405 F100.00
G01 X13.0237 Y41.6145 F100.00
G01 X12.9922 Y41.5893 F100.00
G01 X13.0237 Y40.8344 F100.00
G01 X12.9922 Y40.8066 F100.00
G01 X13.0237 Y40.0120 F100.00
G01 X12.9922 Y39.9797 F100.00
G01 X13.0237 Y39.1233 F100.00
G01 X12.9922 Y39.0859 F100.00
G01 X13.0237 Y38.1254 F100.00
G01 X12.9922 Y38.0770 F100.00
G01 X13.0237 Y36.8909 F100.00
G01 X13.0058 Y36.8519 F100.00
G01 X12.9922 Y36.8201 F100.00
G00 Z2.0000
G00 X10.9917 Y36.5729
G01 F60.00
G01 Z-0.3000
G01 F100.00
G01 X10.9587 Y36.4593 F100.00
G01 X10.9081 Y36.2670 F100.00
G01 X10.8621 Y36.0736 F100.00
G01 X10.8210 Y35.8791 F100.00
G01 X10.7846 Y35.6837 F100.00
G01 X10.7530 Y35.4874 F100.00
G01 X10.7262 Y35.2904 F100.00
G01 X10.7043 Y35.0928 F100.00
G01 X10.6873 Y34.8948 F100.00
G01 X10.6751 Y34.6963 F100.00
G01 X10.6678 Y34.4977 F100.00
G01 X10.6653 Y34.2989 F100.00
G01 X10.6678 Y34.1001 F100.00
G01 X10.6751 Y33.9014 F100.00
G01 X10.6873 Y33.7030 F100.00
G01 X10.7043 Y33.5050 F100.00
G01 X10.7262 Y33.3074 F100.00
G01 X10.7530 Y33.1104 F100.00
G01 X10.7846 Y32.9141 F100.00
G01 X10.8210 Y32.7187 F100.00
G01 X10.8621 Y32.5242 F100.00
G01 X10.9081 Y32.3308 F100.00
G01 X10.9587 Y32.1385 F100.00
G01 X10.9917 Y32.0249 F100.00
G00 Z2.0000
G00 X10.9917 Y30.3926
G01 F60.00
G01 Z-0.3000
G01 F100.00
G01 X10.9006 Y30.5792 F100.00
G01 X10.8117 Y30.7733 F100.00
G01 X10.7276 Y30.9695 F100.00
G01 X10.6483 Y31.1678 F100.00
G01 X10.5739 Y31.3680 F100.00
G01 X10.5044 Y31.5699 F100.00
G01 X10.4400 Y31.7734 F100.00
G01 X10.3805 Y31.9785 F100.00
G01 X10.3261 Y32.1850 F100.00
G01 X10.2767 Y32.3927 F100.00
G01 X10.2325 Y32.6016 F100.00
G01 X10.1934 Y32.8115 F100.00
G01 X10.1595 Y33.0223 F100.00
G01 X10.1308 Y33.2339 F100.00
G01 X10.1072 Y33.4461 F100.00
G01 X10.0889 Y33.6589 F100.00
G01 X10.0758 Y33.8720 F100.00
G01 X10.0680 Y34.0854 F100.00
G01 X10.0653 Y34.2989 F100.00
G01 X10.0680 Y34.5124 F100.00
G01 X10.0758 Y34.7258 F100.00
G01 X10.0889 Y34.9389 F100.00
G01 X10.1072 Y35.1516 F100.00
G01 X10.1308 Y35.3639 F100.00
G01 X10.1595 Y35.5754 F100.00
G01 X10.1934 Y35.7863 F100.00
G01 X10.2325 Y35.9962 F100.00
G01 X10.2767 Y36.2051 F100.00
G01 X10.3261 Y36.4128 F100.00
G01 X10.3805 Y36.6193 F100.00
G01 X10.4400 Y36.8244 F100.00
G01 X10.5044 Y37.0279 F100.00
G01 X10.5739 Y37.2298 F100.00
G01 X10.6483 Y37.4300 F100.00
G01 X10.7276 Y37.6282 F100.00
G01 X10.8117 Y37.8245 F100.00
G01 X10.9006 Y38.0186 F100.00
G01 X10.9917 Y38.2052 F100.00
G00 Z2.0000
G00 X15.0242 Y38.5990
G01 F60.00
G01 Z-0.3000
G01 F100.00
G01 X15.0422 Y38.6150 F100.00
G01 X15.1493 Y38.7051 F100.00
G01 X15.2585 Y38.7925 F100.00
G01 X15.3698 Y38.8772 F100.00
G01 X15.4832 Y38.9591 F100.00
G01 X15.5986 Y39.0383 F100.00
G01 X15.7158 Y39.1146 F100.00
G01 X15.8349 Y39.1879 F100.00
G01 X15.9558 Y39.2584 F100.00
G01 X16.0784 Y39.3258 F100.00
G01 X16.2025 Y39.3903 F100.00
G01 X16.3283 Y39.4516 F100.00
G01 X16.4555 Y39.5099 F100.00
G01 X16.5840 Y39.5650 F100.00
G01 X16.7139 Y39.6170 F100.00
G01 X16.7448 Y39.6284 F100.00
G00 Z2.0000
G00 X16.6162 Y40.2207
G01 F60.00
G01 Z-0.3000
G01 F100.00
G01 X16.4980 Y40.1767 F100.00
G01 X16.3544 Y40.1193 F100.00
G01 X16.2123 Y40.0584 F100.00
G01 X16.0717 Y39.9940 F100.00
G01 X15.9328 Y39.9262 F100.00
G01 X15.7955 Y39.8550 F100.00
G01 X15.6601 Y39.7804 F100.00
G01 X15.5265 Y39.7026 F100.00
G01 X15.3948 Y39.6215 F100.00
G01 X15.2652 Y39.5372 F100.00
G01 X15.1377 Y39.4497 F100.00
G01 X15.0242 Y39.3676 F100.00
G01 X15.0242 Y40.0961 F100.00
G01 X15.0738 Y40.1284 F100.00
G01 X15.2180 Y40.2172 F100.00
G01 X15.3643 Y40.3025 F100.00
G01 X15.5127 Y40.3841 F100.00
G01 X15.6630 Y40.4621 F100.00
G01 X15.8152 Y40.5364 F100.00
G01 X15.9692 Y40.6069 F100.00
G01 X16.1248 Y40.6737 F100.00
G01 X16.2821 Y40.7365 F100.00
G01 X16.4408 Y40.7955 F100.00
G01 X16.6009 Y40.8506 F100.00
G01 X16.7484 Y40.8974 F100.00
G00 Z2.0000
G00 X17.5060 Y41.6922
G01 F60.00
G01 Z-0.3000
G01 F100.00
G01 X17.4831 Y41.6885 F100.00
G01 X17.3022 Y41.6548 F100.00
G01 X17.1221 Y41.6167 F100.00
G01 X16.9430 Y41.5741 F100.00
G01 X16.7650 Y41.5272 F100.00
G01 X16.5882 Y41.4759 F100.00
G01 X16.4127 Y41.4204 F100.00
G01 X16.2387 Y41.3605 F100.00
G01 X16.0661 Y41.2963 F100.00
G01 X15.8952 Y41.2280 F100.00
G01 X15.7260 Y41.1555 F100.00
G01 X15.5587 Y41.0788 F100.00
G01 X15.3932 Y40.9981 F100.00
G01 X15.2299 Y40.9133 F100.00
G01 X15.0686 Y40.8245 F100.00
G01 X15.0242 Y40.7987 F100.00
G01 X15.0242 Y41.4825 F100.00
G01 X15.1235 Y41.5340 F100.00
G01 X15.3021 Y41.6212 F100.00
G01 X15.4829 Y41.7040 F100.00
G01 X15.6656 Y41.7823 F100.00
G01 X15.8502 Y41.8561 F100.00
G01 X16.0365 Y41.9254 F100.00
G01 X16.2245 Y41.9901 F100.00
G01 X16.4140 Y42.0501 F100.00
G01 X16.6050 Y42.1055 F100.00
G01 X16.7972 Y42.1561 F100.00
G01 X16.9906 Y42.2021 F100.00
G01 X17.1851 Y42.2433 F100.00
G01 X17.3805 Y42.2796 F100.00
G01 X17.5768 Y42.3112 F100.00
G01 X17.7738 Y42.3380 F100.00
G01 X17.9714 Y42.3599 F100.00
G01 X18.1695 Y42.3769 F100.00
G01 X18.3679 Y42.3891 F100.00
G01 X18.5665 Y42.3965 F100.00
G01 X18.7653 Y42.3989 F100.00
G01 X18.9641 Y42.3965 F100.00
G01 X19.1628 Y42.3891 F100.00
G01 X19.3612 Y42.3769 F100.00
G01 X19.5593 Y42.3599 F100.00
G01 X19.7569 Y42.3380 F100.00
G01 X19.9538 Y42.3112 F100.00
G01 X20.1501 Y42.2796 F100.00
G01 X20.3456 Y42.2433 F100.00
G01 X20.5401 Y42.2021 F100.00
G01 X20.7335 Y42.1561 F100.00
G01 X20.9257 Y42.1055 F100.00
G01 X21.1166 Y42.0501 F100.00
G01 X21.3062 Y41.9901 F100.00
G01 X21.4941 Y41.9254 F100.00
G01 X21.6805 Y41.8561 F100.00
G01 X21.8651 Y41.7823 F100.00
G01 X22.0530 Y41.7016 F100.00
G01 X22.5052 Y42.1538 F100.00
G01 X22.4851 Y42.1636 F100.00
G01 X22.2909 Y42.2525 F100.00
G01 X22.0947 Y42.3366 F100.00
G01 X21.8964 Y42.4159 F100.00
G01 X21.6963 Y42.4903 F100.00
G01 X21.4944 Y42.5598 F100.00
G01 X21.2908 Y42.6243 F100.00
G01 X21.0857 Y42.6837 F100.00
G01 X20.8793 Y42.7382 F100.00
G01 X20.6715 Y42.7875 F100.00
G01 X20.4626 Y42.8317 F100.00
G01 X20.2527 Y42.8708 F100.00
G01 X20.0419 Y42.9047 F100.00
G01 X19.8303 Y42.9335 F100.00
G01 X19.6181 Y42.9570 F100.00
G01 X19.4053 Y42.9753 F100.00
G01 X19.1922 Y42.9884 F100.00
G01 X18.9788 Y42.9963 F100.00
G01 X18.7653 Y42.9989 F100.00
G01 X18.5518 Y42.9963 F100.00
G01 X18.3384 Y42.9884 F100.00
G01 X18.1253 Y42.9753 F100.00
G01 X17.9126 Y42.9570 F100.00
G01 X17.7004 Y42.9335 F100.00
G01 X17.4888 Y42.9047 F100.00
G01 X17.2780 Y42.8708 F100.00
G01 X17.0680 Y42.8317 F100.00
G01 X16.8592 Y42.7875 F100.00
G01 X16.6514 Y42.7382 F100.00
G01 X16.4449 Y42.6837 F100.00
G01 X16.2399 Y42.6243 F100.00
G01 X16.0363 Y42.5598 F100.00
G01 X15.8344 Y42.4903 F100.00
G01 X15.6342 Y42.4159 F100.00
G01 X15.4360 Y42.3366 F100.00
G01 X15.2397 Y42.2525 F100.00
G01 X15.0456 Y42.1636 F100.00
G01 X15.0242 Y42.1531 F100.00
G01 X15.0242 Y42.8129 F100.00
G01 X15.2064 Y42.8910 F100.00
G01 X15.4183 Y42.9757 F100.00
G01 X15.6323 Y43.0553 F100.00
G01 X15.8481 Y43.1295 F100.00
G01 X16.0657 Y43.1984 F100.00
G01 X16.2849 Y43.2620 F100.00
G01 X16.5056 Y43.3202 F100.00
G01 X16.7277 Y43.3729 F100.00
G01 X16.9510 Y43.4202 F100.00
G01 X17.1754 Y43.4620 F100.00
G01 X17.4007 Y43.4982 F100.00
G01 X17.6269 Y43.5290 F100.00
G01 X17.8538 Y43.5541 F100.00
G01 X18.0812 Y43.5737 F100.00
G01 X18.3090 Y43.5877 F100.00
G01 X18.5371 Y43.5961 F100.00
G01 X18.7653 Y43.5989 F100.00
G01 X18.9936 Y43.5961 F100.00
G01 X19.2217 Y43.5877 F100.00
G01 X19.4495 Y43.5737 F100.00
G01 X19.6769 Y43.5541 F100.00
G01 X19.9038 Y43.5290 F100.00
G01 X20.1299 Y43.4982 F100.00
G01 X20.3553 Y43.4620 F100.00
G01 X20.5797 Y43.4202 F100.00
G01 X20.8030 Y43.3729 F100.00
G01 X21.0250 Y43.3202 F100.00
G01 X21.2458 Y43.2620 F100.00
G01 X21.4650 Y43.1984 F100.00
G01 X21.6826 Y43.1295 F100.00
G01 X21.8984 Y43.0553 F100.00
G01 X22.1124 Y42.9757 F100.00
G01 X22.3243 Y42.8910 F100.00
G01 X22.5341 Y42.8010 F100.00
G01 X22.7416 Y42.7060 F100.00
G01 X22.9537 Y42.6023 F100.00
G01 X23.3987 Y43.0473 F100.00
G01 X23.2165 Y43.1418 F100.00
G01 X22.9981 Y43.2484 F100.00
G01 X22.7772 Y43.3496 F100.00
G01 X22.5539 Y43.4453 F100.00
G01 X22.3283 Y43.5355 F100.00
G01 X22.1005 Y43.6202 F100.00
G01 X21.8708 Y43.6992 F100.00
G01 X21.6392 Y43.7726 F100.00
G01 X21.4058 Y43.8403 F100.00
G01 X21.1708 Y43.9022 F100.00
G01 X20.9344 Y43.9583 F100.00
G01 X20.6967 Y44.0087 F100.00
G01 X20.4579 Y44.0531 F100.00
G01 X20.2180 Y44.0917 F100.00
G01 X19.9772 Y44.1244 F100.00
G01 X19.7357 Y44.1512 F100.00
G01 X19.4936 Y44.1721 F100.00
G01 X19.2511 Y44.1870 F100.00
G01 X19.0083 Y44.1959 F100.00
G01 X18.7653 Y44.1989 F100.00
G01 X18.5224 Y44.1959 F100.00
G01 X18.2796 Y44.1870 F100.00
G01 X18.0370 Y44.1721 F100.00
G01 X17.7950 Y44.1512 F100.00
G01 X17.5535 Y44.1244 F100.00
G01 X17.3127 Y44.0917 F100.00
G01 X17.0728 Y44.0531 F100.00
G01 X16.8339 Y44.0087 F100.00
G01 X16.5962 Y43.9583 F100.00
G01 X16.3598 Y43.9022 F100.00
G01 X16.1249 Y43.8403 F100.00
G01 X15.8915 Y43.7726 F100.00
G01 X15.6599 Y43.6992 F100.00
G01 X15.4301 Y43.6202 F100.00
G01 X15.2024 Y43.5355 F100.00
G01 X15.0242 Y43.4643 F100.00
G01 X15.8947 Y44.3982 F100.00
G01 X15.9648 Y44.4185 F100.00
G01 X16.2140 Y44.4842 F100.00
G01 X16.4648 Y44.5438 F100.00
G01 X16.7169 Y44.5971 F100.00
G01 X16.9702 Y44.6443 F100.00
G01 X17.2247 Y44.6852 F100.00
G01 X17.4800 Y44.7199 F100.00
G01 X17.7362 Y44.7483 F100.00
G01 X17.9929 Y44.7704 F100.00
G01 X18.2501 Y44.7862 F100.00
G01 X18.5076 Y44.7957 F100.00
G01 X18.7653 Y44.7989 F100.00
G01 X19.0230 Y44.7957 F100.00
G01 X19.2805 Y44.7862 F100.00
G01 X19.5378 Y44.7704 F100.00
G01 X19.7945 Y44.7483 F100.00
G01 X20.0506 Y44.7199 F100.00
G01 X20.3060 Y44.6852 F100.00
G01 X20.5604 Y44.6443 F100.00
G01 X20.8138 Y44.5971 F100.00
G01 X21.0659 Y44.5438 F100.00
G01 X21.3166 Y44.4842 F100.00
G01 X21.5658 Y44.4185 F100.00
G01 X21.8133 Y44.3468 F100.00
G01 X22.0590 Y44.2689 F100.00
G01 X22.3027 Y44.1851 F100.00
G01 X22.5442 Y44.0953 F100.00
G01 X22.7835 Y43.9996 F100.00
G01 X23.0204 Y43.8981 F100.00
G01 X23.2547 Y43.7908 F100.00
G01 X23.4863 Y43.6777 F100.00
G01 X23.6479 Y43.5939 F100.00
G00 Z2.0000
G00 X24.1044 Y44.0296
G01 F60.00
G01 Z-0.3000
G01 F100.00
G01 X23.9978 Y44.0882 F100.00
G01 X23.7560 Y44.2137 F100.00
G01 X23.5112 Y44.3332 F100.00
G01 X23.2635 Y44.4466 F100.00
G01 X23.0131 Y44.5540 F100.00
G01 X22.7602 Y44.6551 F100.00
G01 X22.5048 Y44.7500 F100.00
G01 X22.2472 Y44.8387 F100.00
G01 X21.9875 Y44.9209 F100.00
G01 X21.7258 Y44.9968 F100.00
G01 X21.4624 Y45.0662 F100.00
G01 X21.1974 Y45.1292 F100.00
G01 X20.9308 Y45.1856 F100.00
G01 X20.6630 Y45.2355 F100.00
G01 X20.3940 Y45.2788 F100.00
G01 X20.1241 Y45.3154 F100.00
G01 X19.8533 Y45.3454 F100.00
G01 X19.7452 Y45.3547 F100.00
G00 Z2.0000
G00 X19.5692 Y45.3696
G01 F60.00
G01 Z-0.3000
G01 F100.00
G01 X19.3100 Y45.3855 F100.00
G01 X19.0377 Y45.3955 F100.00
G01 X18.7653 Y45.3989 F100.00
G01 X18.4929 Y45.3955 F100.00
G01 X18.2207 Y45.3855 F100.00
G01 X17.9488 Y45.3688 F100.00
G01 X17.6773 Y45.3454 F100.00
G01 X17.4066 Y45.3154 F100.00
G01 X17.1366 Y45.2788 F100.00
G01 X16.8677 Y45.2355 F100.00
G01 X16.7009 Y45.2044 F100.00
G01 X17.4167 Y45.9202 F100.00
G01 X17.6185 Y45.9426 F100.00
G01 X17.9046 Y45.9672 F100.00
G01 X18.1912 Y45.9848 F100.00
G01 X18.4782 Y45.9954 F100.00
G01 X18.6815 Y45.9979 F100.00
G00 Z2.0000
G00 X19.7454 Y47.7631
G01 F60.00
G01 Z-0.3000
G01 F100.00
G01 X19.7585 Y47.7623 F100.00
G01 X20.0886 Y47.7339 F100.00
G01 X20.4179 Y47.6974 F100.00
G01 X20.7462 Y47.6528 F100.00
G01 X21.0733 Y47.6001 F100.00
G01 X21.3991 Y47.5395 F100.00
G01 X21.7232 Y47.4709 F100.00
G01 X22.0456 Y47.3943 F100.00
G01 X22.1938 Y47.3553 F100.00
G00 Z2.0000
G00 X22.5913 Y45.3547
G01 F60.00
G01 Z-0.3000
G01 F100.00
G01 X22.7069 Y45.3150 F100.00
G01 X22.9761 Y45.2149 F100.00
G01 X23.2427 Y45.1083 F100.00
G01 X23.5067 Y44.9951 F100.00
G01 X23.7677 Y44.8756 F100.00
G01 X24.0258 Y44.7496 F100.00
G01 X24.2807 Y44.6174 F100.00
G01 X24.5322 Y44.4789 F100.00
G01 X24.7803 Y44.3343 F100.00
G01 X24.8616 Y44.2842 F100.00
G00 Z2.0000
G00 X25.2977 Y44.7202
G01 F60.00
G01 Z-0.3000
G01 F100.00
G01 X25.0888 Y44.8490 F100.00
G01 X24.8280 Y45.0010 F100.00
G01 X24.5635 Y45.1465 F100.00
G01 X24.2956 Y45.2856 F100.00
G01 X24.1538 Y45.3547 F100.00
G00 Z2.0000
G00 X25.3832 Y45.3718
G01 F60.00
G01 Z-0.3000
G01 F100.00
G01 X25.3973 Y45.3636 F100.00
G01 X25.6668 Y45.1975 F100.00
G01 X25.7323 Y45.1549 F100.00
G01 X25.9730 Y45.7135 F100.00
G01 X25.9878 Y45.7044 F100.00
G01 X26.1660 Y45.5885 F100.00
G01 X26.4070 Y46.1475 F100.00
G01 X26.5996 Y46.0221 F100.00
G01 X26.8406 Y46.5811 F100.00
G01 X26.9322 Y46.5215 F100.00
G01 X27.0311 Y46.4537 F100.00
G00 Z2.0000
G00 X27.4626 Y46.8852
G01 F60.00
G01 Z-0.3000
G01 F100.00
G01 X27.2741 Y47.0145 F100.00
G00 Z2.0000
G00 X27.7056 Y47.4461
G01 F60.00
G01 Z-0.3000
G01 F100.00
G01 X27.8941 Y47.3167 F100.00
G00 Z2.0000
G00 X28.3244 Y47.7470
G01 F60.00
G01 Z-0.3000
G01 F100.00
G01 X28.2662 Y47.7890 F100.00
G01 X28.1371 Y47.8776 F100.00
G01 X28.5686 Y48.3091 F100.00
G01 X28.6117 Y48.2796 F100.00
G01 X28.7541 Y48.1766 F100.00
G00 Z2.0000
G00 X29.1838 Y48.6063
G01 F60.00
G01 Z-0.3000
G01 F100.00
G01 X28.9992 Y48.7397 F100.00
G00 Z2.0000
G00 X29.4289 Y49.1694
G01 F60.00
G01 Z-0.3000
G01 F100.00
G01 X29.6135 Y49.0360 F100.00
G00 Z2.0000
G00 X30.0427 Y49.4653
G01 F60.00
G01 Z-0.3000
G01 F100.00
G01 X30.0240 Y49.4795 F100.00
G01 X29.8586 Y49.5991 F100.00
G01 X30.2883 Y50.0288 F100.00
G01 X30.3815 Y49.9614 F100.00
G01 X30.4709 Y49.8934 F100.00
G00 Z2.0000
G00 X30.9171 Y50.3077
G01 F60.00
G01 Z-0.3000
G01 F100.00
G01 X31.0052 Y50.2407 F100.00
G00 Z2.0000
G00 X31.8879 Y50.3077
G01 F60.00
G01 Z-0.3000
G01 F100.00
G01 X31.9257 Y50.2763 F100.00
G01 X32.8133 Y50.3077 F100.00
G01 X32.8489 Y50.2763 F100.00
G00 Z2.0000
G00 X33.2084 Y48.2757
G01 F60.00
G01 Z-0.3000
G01 F100.00
G01 X33.3227 Y48.1587 F100.00
G01 X33.6585 Y47.7972 F100.00
G01 X33.9852 Y47.4277 F100.00
G01 X34.3028 Y47.0502 F100.00
G01 X34.6111 Y46.6650 F100.00
G01 X34.9098 Y46.2724 F100.00
G01 X35.1988 Y45.8726 F100.00
G01 X35.4779 Y45.4659 F100.00
G01 X35.7469 Y45.0523 F100.00
G01 X36.0057 Y44.6324 F100.00
G01 X36.2541 Y44.2061 F100.00
G01 X36.4920 Y43.7740 F100.00
G01 X36.7191 Y43.3361 F100.00
G01 X36.9355 Y42.8927 F100.00
G01 X37.1409 Y42.4442 F100.00
G01 X37.1740 Y42.3671 F100.00
G00 Z2.0000
G00 X37.6527 Y42.7677
G01 F60.00
G01 Z-0.3000
G01 F100.00
G01 X37.6152 Y42.8495 F100.00
G00 Z2.0000
G00 X36.8933 Y41.4804
G01 F60.00
G01 Z-0.3000
G01 F100.00
G01 X36.7810 Y41.7612 F100.00
G01 X36.5924 Y42.2011 F100.00
G01 X36.3931 Y42.6362 F100.00
G01 X36.1832 Y43.0663 F100.00
G01 X35.9628 Y43.4911 F100.00
G01 X35.7320 Y43.9104 F100.00
G01 X35.4910 Y44.3239 F100.00
G01 X35.2400 Y44.7313 F100.00
G01 X34.9790 Y45.1325 F100.00
G01 X34.7082 Y45.5272 F100.00
G01 X34.4279 Y45.9150 F100.00
G01 X34.1381 Y46.2959 F100.00
G01 X33.8390 Y46.6696 F100.00
G01 X33.5309 Y47.0358 F100.00
G01 X33.2139 Y47.3943 F100.00
G01 X32.8882 Y47.7449 F100.00
G01 X32.5539 Y48.0875 F100.00
G01 X32.3610 Y48.2757 F100.00
G01 X31.5883 Y48.1817 F100.00
G01 X31.7976 Y47.9872 F100.00
G01 X32.1297 Y47.6632 F100.00
G01 X32.4536 Y47.3312 F100.00
G01 X32.7693 Y46.9914 F100.00
G01 X33.0766 Y46.6439 F100.00
G01 X33.3752 Y46.2889 F100.00
G01 X33.6651 Y45.9268 F100.00
G01 X33.9460 Y45.5576 F100.00
G01 X34.2177 Y45.1817 F100.00
G01 X34.4801 Y44.7992 F100.00
G01 X34.7331 Y44.4103 F100.00
G01 X34.9764 Y44.0154 F100.00
G01 X35.2100 Y43.6147 F100.00
G01 X35.4336 Y43.2083 F100.00
G01 X35.6473 Y42.7965 F100.00
G01 X35.8507 Y42.3797 F100.00
G01 X36.0439 Y41.9580 F100.00
G01 X36.2267 Y41.5316 F100.00
G01 X36.3989 Y41.1009 F100.00
G01 X36.5605 Y40.6661 F100.00
G01 X36.7114 Y40.2275 F100.00
G01 X36.8515 Y39.7853 F100.00
G01 X36.9588 Y39.4151 F100.00
G00 Z2.0000
G00 X37.3942 Y40.0586
G01 F60.00
G01 Z-0.3000
G01 F100.00
G01 X37.2811 Y40.4157 F100.00
G01 X37.1971 Y40.6599 F100.00
G00 Z2.0000
G00 X39.7579 Y40.5335
G01 F60.00
G01 Z-0.3000
G01 F100.00
G01 X39.8720 Y40.1399 F100.00
G01 X39.9931 Y39.6806 F100.00
G00 Z2.0000
G00 X40.1747 Y38.9013
G01 F60.00
G01 Z-0.3000
G01 F100.00
G01 X40.2445 Y38.5714 F100.00
G01 X40.3429 Y38.0430 F100.00
G01 X40.4283 Y37.5123 F100.00
G01 X40.5006 Y36.9797 F100.00
G01 X40.5599 Y36.4455 F100.00
G01 X40.6060 Y35.9100 F100.00
G01 X40.6390 Y35.3735 F100.00
G01 X40.6587 Y34.8363 F100.00
G01 X40.6653 Y34.2989 F100.00
G01 X40.6587 Y33.7614 F100.00
G01 X40.6390 Y33.2243 F100.00
G01 X40.6060 Y32.6878 F100.00
G01 X40.5599 Y32.1523 F100.00
G01 X40.5006 Y31.6181 F100.00
G01 X40.4283 Y31.0855 F100.00
G01 X40.3429 Y30.5548 F100.00
G01 X40.2445 Y30.0264 F100.00
G01 X40.1332 Y29.5006 F100.00
G01 X40.0893 Y29.3158 F100.00
G00 Z2.0000
G00 X39.6142 Y29.9455
G01 F60.00
G01 Z-0.3000
G01 F100.00
G01 X39.6561 Y30.1435 F100.00
G01 X39.6869 Y30.3091 F100.00
G00 Z2.0000
G00 X39.9534 Y32.1266
G01 F60.00
G01 Z-0.3000
G01 F100.00
G01 X39.9628 Y32.2111 F100.00
G01 X40.0076 Y32.7320 F100.00
G01 X40.0397 Y33.2538 F100.00
G01 X40.0418 Y33.3107 F100.00
G00 Z2.0000
G00 X39.3994 Y32.6619
G01 F60.00
G01 Z-0.3000
G01 F100.00
G01 X39.3956 Y32.6179 F100.00
G00 Z2.0000
G00 X37.5962 Y32.7007
G01 F60.00
G01 Z-0.3000
G01 F100.00
G01 X37.5850 Y32.5705 F100.00
G00 Z2.0000
G00 X37.0366 Y33.2926
G01 F60.00
G01 Z-0.3000
G01 F100.00
G01 X37.0157 Y32.9527 F100.00
G01 X36.9772 Y32.5052 F100.00
G01 X36.9277 Y32.0588 F100.00
G01 X36.8673 Y31.6137 F100.00
G01 X36.7959 Y31.1703 F100.00
G01 X36.7137 Y30.7287 F100.00
G01 X36.6207 Y30.2893 F100.00
G01 X36.5893 Y30.1572 F100.00
G01 X37.1281 Y29.8293 F100.00
G01 X37.2061 Y30.1579 F100.00
G01 X37.2627 Y30.4251 F100.00
G01 X36.0860 Y30.6605 F100.00
G01 X36.1252 Y30.8458 F100.00
G01 X36.2047 Y31.2729 F100.00
G01 X36.2738 Y31.7018 F100.00
G01 X36.3322 Y32.1322 F100.00
G01 X36.3801 Y32.5640 F100.00
G01 X36.4174 Y32.9968 F100.00
G01 X36.4440 Y33.4304 F100.00
G01 X36.4600 Y33.8645 F100.00
G01 X36.4653 Y34.2989 F100.00
G01 X36.4600 Y34.7333 F100.00
G01 X36.4440 Y35.1674 F100.00
G01 X36.4174 Y35.6010 F100.00
G01 X36.3801 Y36.0338 F100.00
G01 X36.3322 Y36.4656 F100.00
G01 X36.2738 Y36.8960 F100.00
G01 X36.2047 Y37.3249 F100.00
G01 X36.1252 Y37.7520 F100.00
G01 X36.0353 Y38.1770 F100.00
G01 X35.9349 Y38.5996 F100.00
G01 X35.8242 Y39.0197 F100.00
G01 X35.7032 Y39.4369 F100.00
G01 X35.5720 Y39.8511 F100.00
G01 X35.4307 Y40.2618 F100.00
G01 X35.2793 Y40.6690 F100.00
G01 X35.1180 Y41.0724 F100.00
G01 X34.9468 Y41.4717 F100.00
G01 X34.7659 Y41.8666 F100.00
G01 X34.5754 Y42.2570 F100.00
G01 X34.3753 Y42.6426 F100.00
G01 X34.1659 Y43.0232 F100.00
G01 X33.9471 Y43.3985 F100.00
G01 X33.7192 Y43.7684 F100.00
G01 X33.4823 Y44.1325 F100.00
G01 X33.2366 Y44.4907 F100.00
G01 X32.9821 Y44.8428 F100.00
G01 X32.7191 Y45.1885 F100.00
G01 X32.4476 Y45.5277 F100.00
G01 X32.1679 Y45.8601 F100.00
G01 X31.8802 Y46.1855 F100.00
G01 X31.5845 Y46.5038 F100.00
G01 X31.2811 Y46.8147 F100.00
G01 X30.9702 Y47.1181 F100.00
G01 X30.7392 Y47.3326 F100.00
G01 X30.3147 Y46.9081 F100.00
G01 X30.5565 Y46.6835 F100.00
G01 X30.8569 Y46.3904 F100.00
G01 X31.1500 Y46.0900 F100.00
G01 X31.4356 Y45.7826 F100.00
G01 X31.7136 Y45.4681 F100.00
G01 X31.9838 Y45.1470 F100.00
G01 X32.2461 Y44.8194 F100.00
G01 X32.5002 Y44.4854 F100.00
G01 X32.7460 Y44.1452 F100.00
G01 X32.9835 Y43.7991 F100.00
G01 X33.2123 Y43.4474 F100.00
G01 X33.4325 Y43.0900 F100.00
G01 X33.6438 Y42.7275 F100.00
G01 X33.8462 Y42.3598 F100.00
G01 X34.0395 Y41.9872 F100.00
G01 X34.2235 Y41.6101 F100.00
G01 X34.3983 Y41.2285 F100.00
G01 X34.5637 Y40.8428 F100.00
G01 X34.7195 Y40.4531 F100.00
G01 X34.8657 Y40.0597 F100.00
G01 X35.0023 Y39.6629 F100.00
G01 X35.1290 Y39.2628 F100.00
G01 X35.2459 Y38.8597 F100.00
G01 X35.3529 Y38.4539 F100.00
G01 X35.4498 Y38.0455 F100.00
G01 X35.5368 Y37.6349 F100.00
G01 X35.6136 Y37.2223 F100.00
G01 X35.6803 Y36.8080 F100.00
G01 X35.7367 Y36.3921 F100.00
G01 X35.7830 Y35.9750 F100.00
G01 X35.8190 Y35.5568 F100.00
G01 X35.8447 Y35.1379 F100.00
G01 X35.8602 Y34.7185 F100.00
G01 X35.8653 Y34.2989 F100.00
G01 X35.8602 Y33.8792 F100.00
G01 X35.8447 Y33.4598 F100.00
G01 X35.8190 Y33.0409 F100.00
G01 X35.7830 Y32.6228 F100.00
G01 X35.7367 Y32.2057 F100.00
G01 X35.6803 Y31.7898 F100.00
G01 X35.6136 Y31.3754 F100.00
G01 X35.5755 Y31.1710 F100.00
G01 X35.0565 Y31.6900 F100.00
G01 X35.0867 Y31.8778 F100.00
G01 X35.1412 Y32.2791 F100.00
G01 X35.1859 Y32.6816 F100.00
G01 X35.2206 Y33.0851 F100.00
G01 X35.2455 Y33.4893 F100.00
G01 X35.2604 Y33.8940 F100.00
G01 X35.2653 Y34.2989 F100.00
G01 X35.2604 Y34.7038 F100.00
G01 X35.2455 Y35.1085 F100.00
G01 X35.2206 Y35.5127 F100.00
G01 X35.1859 Y35.9162 F100.00
G01 X35.1412 Y36.3187 F100.00
G01 X35.0867 Y36.7199 F100.00
G01 X35.0224 Y37.1198 F100.00
G01 X34.9483 Y37.5179 F100.00
G01 X34.8644 Y37.9141 F100.00
G01 X34.7708 Y38.3081 F100.00
G01 X34.6676 Y38.6997 F100.00
G01 X34.5548 Y39.0886 F100.00
G01 X34.4325 Y39.4746 F100.00
G01 X34.3008 Y39.8576 F100.00
G01 X34.1597 Y40.2372 F100.00
G01 X34.0093 Y40.6132 F100.00
G01 X33.8498 Y40.9854 F100.00
G01 X33.6812 Y41.3536 F100.00
G01 X33.5035 Y41.7175 F100.00
G01 X33.3170 Y42.0769 F100.00
G01 X33.1218 Y42.4317 F100.00
G01 X32.9179 Y42.7816 F100.00
G01 X32.7054 Y43.1264 F100.00
G01 X32.4846 Y43.4658 F100.00
G01 X32.2555 Y43.7997 F100.00
G01 X32.0183 Y44.1279 F100.00
G01 X31.7730 Y44.4502 F100.00
G01 X31.5200 Y44.7664 F100.00
G01 X31.2593 Y45.0762 F100.00
G01 X30.9910 Y45.3796 F100.00
G01 X30.7154 Y45.6763 F100.00
G01 X30.4326 Y45.9662 F100.00
G01 X30.1428 Y46.2490 F100.00
G01 X29.8902 Y46.4836 F100.00
G01 X29.4657 Y46.0591 F100.00
G01 X29.7290 Y45.8144 F100.00
G01 X30.0083 Y45.5419 F100.00
G01 X30.2809 Y45.2626 F100.00
G01 X30.5465 Y44.9767 F100.00
G01 X30.8050 Y44.6843 F100.00
G01 X31.0562 Y44.3857 F100.00
G01 X31.3000 Y44.0811 F100.00
G01 X31.5363 Y43.7705 F100.00
G01 X31.7649 Y43.4542 F100.00
G01 X31.9857 Y43.1325 F100.00
G01 X32.1985 Y42.8054 F100.00
G01 X32.4032 Y42.4731 F100.00
G01 X32.5997 Y42.1360 F100.00
G01 X32.7879 Y41.7941 F100.00
G01 X32.9676 Y41.4477 F100.00
G01 X33.1388 Y41.0970 F100.00
G01 X33.3013 Y40.7422 F100.00
G01 X33.4550 Y40.3836 F100.00
G01 X33.5999 Y40.0212 F100.00
G01 X33.7359 Y39.6554 F100.00
G01 X33.8628 Y39.2864 F100.00
G01 X33.9807 Y38.9144 F100.00
G01 X34.0894 Y38.5396 F100.00
G01 X34.1888 Y38.1623 F100.00
G01 X34.2790 Y37.7826 F100.00
G01 X34.3598 Y37.4008 F100.00
G01 X34.4312 Y37.0172 F100.00
G01 X34.4932 Y36.6319 F100.00
G01 X34.5458 Y36.2452 F100.00
G01 X34.5888 Y35.8574 F100.00
G01 X34.6223 Y35.4686 F100.00
G01 X34.6462 Y35.0791 F100.00
G01 X34.6605 Y34.6891 F100.00
G01 X34.6653 Y34.2989 F100.00
G01 X34.6605 Y33.9087 F100.00
G01 X34.6462 Y33.5187 F100.00
G01 X34.6223 Y33.1292 F100.00
G01 X34.5888 Y32.7404 F100.00
G01 X34.5458 Y32.3526 F100.00
G01 X34.5276 Y32.2189 F100.00
G01 X33.9872 Y32.7593 F100.00
G01 X33.9917 Y32.7992 F100.00
G01 X34.0239 Y33.1734 F100.00
G01 X34.0469 Y33.5482 F100.00
G01 X34.0607 Y33.9234 F100.00
G01 X34.0653 Y34.2989 F100.00
G01 X34.0607 Y34.6744 F100.00
G01 X34.0469 Y35.0496 F100.00
G01 X34.0239 Y35.4244 F100.00
G01 X33.9917 Y35.7986 F100.00
G01 X33.9503 Y36.1718 F100.00
G01 X33.8997 Y36.5439 F100.00
G01 X33.8401 Y36.9146 F100.00
G01 X33.7713 Y37.2838 F100.00
G01 X33.6936 Y37.6511 F100.00
G01 X33.6068 Y38.0165 F100.00
G01 X33.5111 Y38.3796 F100.00
G01 X33.4065 Y38.7402 F100.00
G01 X33.2931 Y39.0982 F100.00
G01 X33.1710 Y39.4533 F100.00
G01 X33.0401 Y39.8053 F100.00
G01 X32.9007 Y40.1539 F100.00
G01 X32.7527 Y40.4991 F100.00
G01 X32.5964 Y40.8405 F100.00
G01 X32.4317 Y41.1779 F100.00
G01 X32.2587 Y41.5113 F100.00
G01 X32.0777 Y41.8402 F100.00
G01 X31.8886 Y42.1647 F100.00
G01 X31.6916 Y42.4844 F100.00
G01 X31.4868 Y42.7991 F100.00
G01 X31.2744 Y43.1088 F100.00
G01 X31.0544 Y43.4131 F100.00
G01 X30.8270 Y43.7119 F100.00
G01 X30.5924 Y44.0051 F100.00
G01 X30.3506 Y44.2924 F100.00
G01 X30.1019 Y44.5737 F100.00
G01 X29.8463 Y44.8489 F100.00
G01 X29.5841 Y45.1176 F100.00
G01 X29.3153 Y45.3799 F100.00
G01 X29.0411 Y45.6346 F100.00
G01 X28.6161 Y45.2096 F100.00
G01 X28.6372 Y45.1909 F100.00
G01 X28.9016 Y44.9453 F100.00
G01 X29.1598 Y44.6934 F100.00
G01 X29.4118 Y44.4351 F100.00
G01 X29.6573 Y44.1708 F100.00
G01 X29.8963 Y43.9005 F100.00
G01 X30.1286 Y43.6245 F100.00
G01 X30.3540 Y43.3428 F100.00
G01 X30.5725 Y43.0557 F100.00
G01 X30.7838 Y42.7633 F100.00
G01 X30.9879 Y42.4658 F100.00
G01 X31.1847 Y42.1634 F100.00
G01 X31.3739 Y41.8562 F100.00
G01 X31.5556 Y41.5445 F100.00
G01 X31.7296 Y41.2284 F100.00
G01 X31.8957 Y40.9082 F100.00
G01 X32.0540 Y40.5840 F100.00
G01 X32.2042 Y40.2559 F100.00
G01 X32.2985 Y40.0360 F100.00
G00 Z2.0000
G00 X30.9606 Y41.3739
G01 F60.00
G01 Z-0.3000
G01 F100.00
G01 X30.8593 Y41.5477 F100.00
G01 X30.6778 Y41.8424 F100.00
G01 X30.4891 Y42.1324 F100.00
G01 X30.2933 Y42.4178 F100.00
G01 X30.0949 Y42.6922 F100.00
G00 Z2.0000
G00 X29.5814 Y43.3430
G01 F60.00
G01 Z-0.3000
G01 F100.00
G01 X29.4420 Y43.5086 F100.00
G01 X29.2127 Y43.7679 F100.00
G01 X28.9772 Y44.0214 F100.00
G01 X28.7355 Y44.2691 F100.00
G01 X28.4879 Y44.5108 F100.00
G01 X28.2343 Y44.7463 F100.00
G01 X28.1911 Y44.7845 F100.00
G01 X27.7661 Y44.3595 F100.00
G01 X27.8314 Y44.3017 F100.00
G01 X28.0741 Y44.0762 F100.00
G01 X28.3113 Y43.8448 F100.00
G01 X28.5427 Y43.6077 F100.00
G01 X28.5597 Y43.5893 F100.00
G00 Z2.0000
G00 X27.9494 Y43.3566
G01 F60.00
G01 Z-0.3000
G01 F100.00
G01 X27.8870 Y43.4206 F100.00
G01 X27.6604 Y43.6417 F100.00
G01 X27.4284 Y43.8572 F100.00
G01 X27.3410 Y43.9345 F100.00
G01 X26.9160 Y43.5094 F100.00
G01 X27.0255 Y43.4126 F100.00
G01 X27.2467 Y43.2071 F100.00
G01 X27.4627 Y42.9963 F100.00
G01 X27.5338 Y42.9234 F100.00
G00 Z2.0000
G00 X27.3211 Y42.2781
G01 F60.00
G01 Z-0.3000
G01 F100.00
G01 X27.2390 Y42.3665 F100.00
G01 X27.0385 Y42.5720 F100.00
G01 X26.8330 Y42.7726 F100.00
G01 X26.6226 Y42.9680 F100.00
G01 X26.4910 Y43.0844 F100.00
G00 Z2.0000
G00 X26.1910 Y42.5488
G01 F60.00
G01 Z-0.3000
G01 F100.00
G01 X26.2196 Y42.5235 F100.00
G01 X26.4192 Y42.3380 F100.00
G01 X26.6142 Y42.1478 F100.00
G01 X26.8045 Y41.9528 F100.00
G01 X26.9899 Y41.7532 F100.00
G01 X27.1704 Y41.5491 F100.00
G01 X27.3457 Y41.3407 F100.00
G01 X27.5160 Y41.1280 F100.00
G01 X27.6809 Y40.9112 F100.00
G01 X27.8405 Y40.6904 F100.00
G01 X27.9946 Y40.4657 F100.00
G01 X28.1432 Y40.2374 F100.00
G01 X28.2861 Y40.0054 F100.00
G01 X28.4233 Y39.7701 F100.00
G01 X28.5547 Y39.5314 F100.00
G01 X28.6801 Y39.2896 F100.00
G01 X28.7996 Y39.0448 F100.00
G01 X28.9131 Y38.7971 F100.00
G01 X29.0204 Y38.5467 F100.00
G01 X29.1216 Y38.2937 F100.00
G01 X29.2165 Y38.0384 F100.00
G01 X29.3051 Y37.7808 F100.00
G01 X29.3874 Y37.5211 F100.00
G01 X29.4632 Y37.2594 F100.00
G01 X29.5327 Y36.9960 F100.00
G01 X29.5956 Y36.7309 F100.00
G01 X29.6520 Y36.4644 F100.00
G01 X29.7019 Y36.1966 F100.00
G01 X29.7452 Y35.9276 F100.00
G01 X29.7819 Y35.6577 F100.00
G01 X29.7949 Y35.5400 F100.00
G00 Z2.0000
G00 X29.1369 Y35.9317
G01 F60.00
G01 Z-0.3000
G01 F100.00
G01 X29.1107 Y36.0940 F100.00
G01 X29.0636 Y36.3473 F100.00
G01 X29.0102 Y36.5995 F100.00
G01 X28.9507 Y36.8502 F100.00
G01 X28.8850 Y37.0994 F100.00
G01 X28.8132 Y37.3469 F100.00
G01 X28.7354 Y37.5926 F100.00
G01 X28.6515 Y37.8362 F100.00
G01 X28.5618 Y38.0778 F100.00
G01 X28.4661 Y38.3171 F100.00
G01 X28.3645 Y38.5539 F100.00
G01 X28.2572 Y38.7882 F100.00
G01 X28.1442 Y39.0198 F100.00
G01 X28.0255 Y39.2486 F100.00
G01 X27.9012 Y39.4743 F100.00
G01 X27.7715 Y39.6970 F100.00
G01 X27.6363 Y39.9164 F100.00
G01 X27.4958 Y40.1324 F100.00
G01 X27.3500 Y40.3449 F100.00
G01 X27.1990 Y40.5537 F100.00
G01 X27.0430 Y40.7588 F100.00
G01 X26.8819 Y40.9600 F100.00
G01 X26.7160 Y41.1572 F100.00
G01 X26.5453 Y41.3503 F100.00
G01 X26.3699 Y41.5391 F100.00
G01 X26.1900 Y41.7235 F100.00
G01 X26.0055 Y41.9035 F100.00
G01 X25.9287 Y41.9749 F100.00
G00 Z2.0000
G00 X25.4661 Y41.5857
G01 F60.00
G01 Z-0.3000
G01 F100.00
G01 X25.5918 Y41.4689 F100.00
G01 X25.7657 Y41.2992 F100.00
G01 X25.9354 Y41.1253 F100.00
G01 X26.1007 Y40.9473 F100.00
G01 X26.2617 Y40.7653 F100.00
G01 X26.4181 Y40.5794 F100.00
G01 X26.5700 Y40.3897 F100.00
G01 X26.7171 Y40.1963 F100.00
G01 X26.8594 Y39.9994 F100.00
G01 X26.9969 Y39.7990 F100.00
G01 X27.1294 Y39.5954 F100.00
G01 X27.2568 Y39.3885 F100.00
G01 X27.3792 Y39.1786 F100.00
G01 X27.4964 Y38.9657 F100.00
G01 X27.6083 Y38.7500 F100.00
G01 X27.7148 Y38.5317 F100.00
G01 X27.8160 Y38.3108 F100.00
G01 X27.9117 Y38.0875 F100.00
G01 X28.0020 Y37.8619 F100.00
G01 X28.0866 Y37.6341 F100.00
G01 X28.1657 Y37.4043 F100.00
G01 X28.2390 Y37.1727 F100.00
G01 X28.3067 Y36.9393 F100.00
G01 X28.3686 Y36.7044 F100.00
G01 X28.4248 Y36.4680 F100.00
G01 X28.4751 Y36.2303 F100.00
G01 X28.5196 Y35.9914 F100.00
G01 X28.5240 Y35.9640 F100.00
G00 Z2.0000
G00 X27.9526 Y35.7388
G01 F60.00
G01 Z-0.3000
G01 F100.00
G01 X27.9284 Y35.8888 F100.00
G01 X27.8866 Y36.1132 F100.00
G01 X27.8394 Y36.3365 F100.00
G01 X27.7866 Y36.5586 F100.00
G01 X27.7285 Y36.7793 F100.00
G01 X27.6649 Y36.9985 F100.00
G01 X27.5959 Y37.2161 F100.00
G01 X27.5217 Y37.4320 F100.00
G01 X27.4422 Y37.6459 F100.00
G01 X27.3574 Y37.8578 F100.00
G01 X27.2675 Y38.0676 F100.00
G01 X27.1724 Y38.2752 F100.00
G01 X27.0723 Y38.4803 F100.00
G01 X26.9672 Y38.6829 F100.00
G01 X26.8571 Y38.8828 F100.00
G01 X26.7422 Y39.0800 F100.00
G01 X26.6225 Y39.2744 F100.00
G01 X26.4980 Y39.4657 F100.00
G01 X26.3689 Y39.6539 F100.00
G01 X26.2352 Y39.8389 F100.00
G01 X26.0970 Y40.0205 F100.00
G01 X25.9543 Y40.1988 F100.00
G01 X25.8074 Y40.3734 F100.00
G01 X25.6562 Y40.5444 F100.00
G01 X25.5008 Y40.7116 F100.00
G01 X25.3414 Y40.8750 F100.00
G01 X25.1781 Y41.0344 F100.00
G01 X25.0108 Y41.1897 F100.00
G01 X24.8398 Y41.3409 F100.00
G01 X24.7333 Y41.4305 F100.00
G01 X24.2401 Y41.0596 F100.00
G01 X24.2846 Y41.0241 F100.00
G01 X24.4479 Y40.8866 F100.00
G01 X24.6079 Y40.7452 F100.00
G01 X24.7643 Y40.5998 F100.00
G01 X24.9172 Y40.4507 F100.00
G01 X25.0663 Y40.2979 F100.00
G01 X25.2116 Y40.1415 F100.00
G01 X25.3530 Y39.9815 F100.00
G01 X25.4905 Y39.8181 F100.00
G01 X25.6239 Y39.6514 F100.00
G01 X25.7532 Y39.4815 F100.00
G01 X25.8783 Y39.3084 F100.00
G01 X25.9991 Y39.1324 F100.00
G01 X26.1156 Y38.9534 F100.00
G01 X26.2276 Y38.7716 F100.00
G01 X26.3351 Y38.5871 F100.00
G01 X26.4380 Y38.4000 F100.00
G01 X26.5364 Y38.2105 F100.00
G01 X26.6300 Y38.0186 F100.00
G01 X26.7190 Y37.8245 F100.00
G01 X26.8031 Y37.6282 F100.00
G01 X26.8824 Y37.4300 F100.00
G01 X26.9568 Y37.2298 F100.00
G01 X27.0262 Y37.0279 F100.00
G01 X27.0907 Y36.8244 F100.00
G01 X27.1502 Y36.6193 F100.00
G01 X27.2046 Y36.4128 F100.00
G01 X27.2539 Y36.2051 F100.00
G01 X27.2982 Y35.9962 F100.00
G01 X27.3372 Y35.7863 F100.00
G01 X27.3712 Y35.5754 F100.00
G01 X27.3999 Y35.3639 F100.00
G01 X27.4234 Y35.1516 F100.00
G01 X27.4279 Y35.1000 F100.00
G01 X26.8653 Y34.2989 F100.00
G01 X26.8629 Y34.1001 F100.00
G01 X26.8556 Y33.9014 F100.00
G01 X26.8434 Y33.7030 F100.00
G01 X26.8263 Y33.5050 F100.00
G01 X26.8044 Y33.3074 F100.00
G01 X26.7777 Y33.1104 F100.00
G01 X26.7461 Y32.9141 F100.00
G01 X26.7097 Y32.7187 F100.00
G01 X26.6685 Y32.5242 F100.00
G01 X26.6226 Y32.3308 F100.00
G01 X26.6120 Y32.2906 F100.00
G01 X27.3755 Y33.0541 F100.00
G01 X27.3999 Y33.2339 F100.00
G01 X27.4234 Y33.4461 F100.00
G01 X27.4418 Y33.6589 F100.00
G01 X27.4549 Y33.8720 F100.00
G01 X27.4568 Y33.9259 F100.00
G01 X26.8653 Y34.2989 F100.00
G01 X26.8629 Y34.4977 F100.00
G01 X26.8556 Y34.6963 F100.00
G01 X26.8434 Y34.8948 F100.00
G01 X26.8263 Y35.0928 F100.00
G01 X26.8044 Y35.2904 F100.00
G01 X26.7777 Y35.4874 F100.00
G01 X26.7461 Y35.6837 F100.00
G01 X26.7097 Y35.8791 F100.00
G01 X26.6685 Y36.0736 F100.00
G01 X26.6226 Y36.2670 F100.00
G01 X26.5719 Y36.4593 F100.00
G01 X26.5165 Y36.6502 F100.00
G01 X26.4565 Y36.8397 F100.00
G01 X26.3918 Y37.0277 F100.00
G01 X26.3226 Y37.2140 F100.00
G01 X26.2488 Y37.3986 F100.00
G01 X26.1704 Y37.5813 F100.00
G01 X26.0876 Y37.7621 F100.00
G01 X26.0004 Y37.9407 F100.00
G01 X25.9089 Y38.1172 F100.00
G01 X25.8130 Y38.2914 F100.00
G01 X25.7129 Y38.4631 F100.00
G01 X25.6086 Y38.6324 F100.00
G01 X25.5002 Y38.7990 F100.00
G01 X25.3878 Y38.9629 F100.00
G01 X25.2713 Y39.1241 F100.00
G01 X25.1509 Y39.2823 F100.00
G01 X25.0267 Y39.4375 F100.00
G01 X24.8987 Y39.5896 F100.00
G01 X24.7670 Y39.7385 F100.00
G01 X24.6317 Y39.8842 F100.00
G01 X24.4929 Y40.0265 F100.00
G01 X24.3506 Y40.1653 F100.00
G01 X24.2050 Y40.3006 F100.00
G01 X24.0560 Y40.4323 F100.00
G01 X23.9039 Y40.5603 F100.00
G01 X23.8133 Y40.6328 F100.00
G00 Z2.0000
G00 X23.3865 Y40.2060
G01 F60.00
G01 Z-0.3000
G01 F100.00
G01 X23.5233 Y40.0965 F100.00
G01 X23.6641 Y39.9780 F100.00
G01 X23.8020 Y39.8560 F100.00
G01 X23.9369 Y39.7307 F100.00
G01 X24.0686 Y39.6022 F100.00
G01 X24.1972 Y39.4704 F100.00
G01 X24.3225 Y39.3356 F100.00
G01 X24.4444 Y39.1977 F100.00
G01 X24.5629 Y39.0568 F100.00
G01 X24.6779 Y38.9131 F100.00
G01 X24.7894 Y38.7666 F100.00
G01 X24.8972 Y38.6175 F100.00
G01 X25.0014 Y38.4657 F100.00
G01 X25.1017 Y38.3114 F100.00
G01 X25.1983 Y38.1547 F100.00
G01 X25.2910 Y37.9956 F100.00
G01 X25.3797 Y37.8344 F100.00
G01 X25.4645 Y37.6710 F100.00
G01 X25.5453 Y37.5056 F100.00
G01 X25.6219 Y37.3382 F100.00
G01 X25.6944 Y37.1690 F100.00
G01 X25.7628 Y36.9981 F100.00
G01 X25.8269 Y36.8256 F100.00
G01 X25.8868 Y36.6515 F100.00
G01 X25.9424 Y36.4760 F100.00
G01 X25.9937 Y36.2992 F100.00
G01 X26.0406 Y36.1212 F100.00
G01 X26.0831 Y35.9422 F100.00
G01 X26.1212 Y35.7621 F100.00
G01 X26.1549 Y35.5811 F100.00
G01 X26.1842 Y35.3994 F100.00
G01 X26.2089 Y35.2170 F100.00
G01 X26.2292 Y35.0340 F100.00
G01 X26.2450 Y34.8506 F100.00
G01 X26.2563 Y34.6669 F100.00
G01 X26.2631 Y34.4830 F100.00
G01 X26.2653 Y34.2989 F100.00
G01 X26.2631 Y34.1148 F100.00
G01 X26.2563 Y33.9309 F100.00
G01 X26.2450 Y33.7472 F100.00
G01 X26.2292 Y33.5638 F100.00
G01 X26.2089 Y33.3808 F100.00
G01 X26.1842 Y33.1984 F100.00
G01 X26.1549 Y33.0167 F100.00
G01 X26.1212 Y32.8357 F100.00
G01 X26.0831 Y32.6556 F100.00
G01 X26.0406 Y32.4765 F100.00
G01 X25.9937 Y32.2985 F100.00
G01 X25.9424 Y32.1218 F100.00
G01 X25.8868 Y31.9463 F100.00
G01 X25.8269 Y31.7722 F100.00
G01 X25.7628 Y31.5997 F100.00
G01 X25.6944 Y31.4288 F100.00
G01 X25.6526 Y31.3313 F100.00
G01 X25.3828 Y32.3463 F100.00
G01 X25.3682 Y32.2959 F100.00
G01 X25.3171 Y32.1345 F100.00
G01 X25.2620 Y31.9744 F100.00
G01 X25.2030 Y31.8156 F100.00
G01 X25.1401 Y31.6584 F100.00
G01 X25.0734 Y31.5027 F100.00
G01 X25.0029 Y31.3488 F100.00
G01 X24.9286 Y31.1966 F100.00
G01 X24.8506 Y31.0463 F100.00
G01 X24.7689 Y30.8979 F100.00
G01 X24.6837 Y30.7516 F100.00
G01 X24.5948 Y30.6074 F100.00
G01 X24.5025 Y30.4655 F100.00
G01 X24.4067 Y30.3258 F100.00
G01 X24.3075 Y30.1886 F100.00
G01 X24.2049 Y30.0538 F100.00
G01 X24.0991 Y29.9216 F100.00
G01 X23.9901 Y29.7920 F100.00
G01 X23.8779 Y29.6651 F100.00
G01 X23.7626 Y29.5411 F100.00
G01 X23.6444 Y29.4199 F100.00
G01 X23.5232 Y29.3016 F100.00
G01 X23.3991 Y29.1863 F100.00
G01 X23.2722 Y29.0742 F100.00
G01 X23.1426 Y28.9651 F100.00
G01 X23.0104 Y28.8593 F100.00
G01 X22.8757 Y28.7568 F100.00
G01 X22.7384 Y28.6576 F100.00
G01 X22.5988 Y28.5618 F100.00
G01 X22.4568 Y28.4694 F100.00
G01 X22.3126 Y28.3806 F100.00
G01 X22.1663 Y28.2953 F100.00
G01 X22.0180 Y28.2136 F100.00
G01 X21.8677 Y28.1356 F100.00
G01 X21.7155 Y28.0614 F100.00
G01 X21.5615 Y27.9908 F100.00
G01 X21.4058 Y27.9241 F100.00
G01 X21.2486 Y27.8612 F100.00
G01 X21.0899 Y27.8022 F100.00
G01 X20.9297 Y27.7471 F100.00
G01 X20.7683 Y27.6960 F100.00
G01 X20.6057 Y27.6488 F100.00
G01 X20.4419 Y27.6057 F100.00
G01 X20.2771 Y27.5665 F100.00
G01 X20.1115 Y27.5315 F100.00
G01 X19.9450 Y27.5005 F100.00
G01 X19.7778 Y27.4736 F100.00
G01 X19.7224 Y27.4661 F100.00
G00 Z2.0000
G00 X19.9954 Y28.1202
G01 F60.00
G01 Z-0.3000
G01 F100.00
G01 X19.8424 Y28.0916 F100.00
G01 X19.6897 Y28.0671 F100.00
G01 X19.5365 Y28.0463 F100.00
G01 X19.3828 Y28.0292 F100.00
G01 X19.2288 Y28.0160 F100.00
G01 X19.2152 Y28.0151 F100.00
G01 X19.2152 Y28.6170 F100.00
G01 X19.3240 Y28.6263 F100.00
G01 X19.4631 Y28.6418 F100.00
G01 X19.4966 Y28.6463 F100.00
G00 Z2.0000
G00 X19.2909 Y29.2263
G01 F60.00
G01 Z-0.3000
G01 F100.00
G01 X19.2652 Y29.2235 F100.00
G01 X19.2152 Y29.2191 F100.00
G01 X19.2152 Y29.8215 F100.00
G01 X19.3159 Y29.8327 F100.00
G01 X19.4548 Y30.4605 F100.00
G01 X19.5262 Y30.4738 F100.00
G01 X19.6198 Y30.4937 F100.00
G01 X19.6508 Y30.5010 F100.00
G00 Z2.0000
G00 X19.8939 Y31.1980
G01 F60.00
G01 Z-0.3000
G01 F100.00
G01 X19.9530 Y31.2200 F100.00
G01 X20.0282 Y31.2501 F100.00
G01 X20.1026 Y31.2820 F100.00
G01 X20.1763 Y31.3157 F100.00
G01 X20.2491 Y31.3513 F100.00
G01 X20.3209 Y31.3886 F100.00
G01 X20.3919 Y31.4276 F100.00
G01 X20.4619 Y31.4684 F100.00
G01 X20.5308 Y31.5109 F100.00
G01 X20.5987 Y31.5550 F100.00
G01 X20.6655 Y31.6009 F100.00
G01 X20.7311 Y31.6483 F100.00
G01 X20.7956 Y31.6973 F100.00
G01 X20.8588 Y31.7480 F100.00
G01 X20.9208 Y31.8001 F100.00
G01 X20.9815 Y31.8538 F100.00
G01 X21.0408 Y31.9089 F100.00
G01 X21.0988 Y31.9654 F100.00
G01 X21.1553 Y32.0234 F100.00
G01 X21.2105 Y32.0827 F100.00
G01 X21.2641 Y32.1434 F100.00
G01 X21.3163 Y32.2054 F100.00
G01 X21.3669 Y32.2686 F100.00
G01 X21.4159 Y32.3331 F100.00
G01 X21.4634 Y32.3987 F100.00
G01 X21.5092 Y32.4655 F100.00
G01 X21.5533 Y32.5334 F100.00
G01 X21.5958 Y32.6024 F100.00
G01 X21.6366 Y32.6723 F100.00
G01 X21.6757 Y32.7433 F100.00
G01 X21.7130 Y32.8152 F100.00
G01 X21.7485 Y32.8880 F100.00
G01 X21.7822 Y32.9616 F100.00
G01 X21.8141 Y33.0360 F100.00
G01 X21.8442 Y33.1112 F100.00
G01 X21.8724 Y33.1872 F100.00
G01 X21.8988 Y33.2637 F100.00
G01 X21.9232 Y33.3410 F100.00
G01 X21.9458 Y33.4187 F100.00
G01 X21.9664 Y33.4971 F100.00
G01 X21.9851 Y33.5759 F100.00
G01 X22.0019 Y33.6551 F100.00
G01 X22.0167 Y33.7347 F100.00
G01 X22.0296 Y33.8147 F100.00
G01 X22.0405 Y33.8949 F100.00
G01 X22.0494 Y33.9754 F100.00
G01 X22.0564 Y34.0561 F100.00
G01 X22.0614 Y34.1370 F100.00
G01 X22.0643 Y34.2179 F100.00
G01 X22.0653 Y34.2989 F100.00
G01 X22.0643 Y34.3799 F100.00
G01 X22.0614 Y34.4608 F100.00
G01 X22.0564 Y34.5417 F100.00
G01 X22.0494 Y34.6223 F100.00
G01 X22.0405 Y34.7028 F100.00
G01 X22.0308 Y34.7746 F100.00
G01 X21.4653 Y34.2989 F100.00
G01 X21.4645 Y34.3652 F100.00
G01 X21.4621 Y34.4314 F100.00
G01 X21.4580 Y34.4975 F100.00
G01 X21.4523 Y34.5635 F100.00
G01 X21.4450 Y34.6294 F100.00
G01 X21.4361 Y34.6951 F100.00
G01 X21.4256 Y34.7605 F100.00
G01 X21.4135 Y34.8256 F100.00
G01 X21.3997 Y34.8905 F100.00
G01 X21.3844 Y34.9549 F100.00
G01 X21.3675 Y35.0190 F100.00
G01 X21.3491 Y35.0827 F100.00
G01 X21.3291 Y35.1458 F100.00
G01 X21.3075 Y35.2085 F100.00
G01 X21.2844 Y35.2706 F100.00
G01 X21.2640 Y35.3217 F100.00
G01 X20.5992 Y35.3217 F100.00
G01 X20.6174 Y35.2888 F100.00
G01 X20.6411 Y35.2431 F100.00
G01 X20.6637 Y35.1968 F100.00
G01 X20.6852 Y35.1499 F100.00
G01 X20.7055 Y35.1025 F100.00
G01 X20.7246 Y35.0547 F100.00
G01 X20.7426 Y35.0064 F100.00
G01 X20.7593 Y34.9576 F100.00
G01 X20.7749 Y34.9085 F100.00
G01 X20.7893 Y34.8590 F100.00
G01 X20.8024 Y34.8092 F100.00
G01 X20.8143 Y34.7590 F100.00
G01 X20.8250 Y34.7086 F100.00
G01 X20.8344 Y34.6579 F100.00
G01 X20.8426 Y34.6070 F100.00
G01 X20.8495 Y34.5560 F100.00
G01 X20.8552 Y34.5047 F100.00
G01 X20.8596 Y34.4534 F100.00
G01 X20.8628 Y34.4019 F100.00
G01 X20.8647 Y34.3504 F100.00
G01 X20.8653 Y34.2989 F100.00
G01 X20.8647 Y34.2474 F100.00
G01 X20.8628 Y34.1959 F100.00
G01 X20.8596 Y34.1444 F100.00
G01 X20.8552 Y34.0931 F100.00
G01 X20.8495 Y34.0418 F100.00
G01 X20.8426 Y33.9908 F100.00
G01 X20.8344 Y33.9399 F100.00
G01 X20.8250 Y33.8892 F100.00
G01 X20.8143 Y33.8388 F100.00
G01 X20.8024 Y33.7886 F100.00
G01 X20.7893 Y33.7388 F100.00
G01 X20.7749 Y33.6893 F100.00
G01 X20.7593 Y33.6402 F100.00
G01 X20.7426 Y33.5914 F100.00
G01 X20.7246 Y33.5431 F100.00
G01 X20.7055 Y33.4953 F100.00
G01 X20.6852 Y33.4479 F100.00
G01 X20.6637 Y33.4010 F100.00
G01 X20.6411 Y33.3547 F100.00
G01 X20.6174 Y33.3090 F100.00
G01 X20.5925 Y33.2638 F100.00
G01 X20.5666 Y33.2193 F100.00
G01 X20.5395 Y33.1754 F100.00
G01 X20.5114 Y33.1322 F100.00
G01 X20.4823 Y33.0897 F100.00
G01 X20.4521 Y33.0479 F100.00
G01 X20.4209 Y33.0069 F100.00
G01 X20.3887 Y32.9667 F100.00
G01 X20.3555 Y32.9272 F100.00
G01 X20.3213 Y32.8886 F100.00
G01 X20.2863 Y32.8509 F100.00
G01 X20.2503 Y32.8140 F100.00
G01 X20.2134 Y32.7780 F100.00
G01 X20.1756 Y32.7429 F100.00
G01 X20.1370 Y32.7088 F100.00
G01 X20.0976 Y32.6756 F100.00
G01 X20.0573 Y32.6434 F100.00
G01 X20.0163 Y32.6122 F100.00
G01 X19.9745 Y32.5820 F100.00
G01 X19.9320 Y32.5528 F100.00
G01 X19.8888 Y32.5247 F100.00
G01 X19.8449 Y32.4977 F100.00
G01 X19.8004 Y32.4717 F100.00
G01 X19.7553 Y32.4469 F100.00
G01 X19.7311 Y32.4343 F100.00
G00 Z2.0000
G00 X19.9324 Y31.8643
G01 F60.00
G01 Z-0.3000
G01 F100.00
G01 X19.9793 Y31.8872 F100.00
G01 X20.0381 Y31.9177 F100.00
G01 X20.0962 Y31.9497 F100.00
G01 X20.1534 Y31.9830 F100.00
G01 X20.2098 Y32.0178 F100.00
G01 X20.2654 Y32.0539 F100.00
G01 X20.3200 Y32.0914 F100.00
G01 X20.3737 Y32.1302 F100.00
G01 X20.4265 Y32.1704 F100.00
G01 X20.4782 Y32.2118 F100.00
G01 X20.5289 Y32.2544 F100.00
G01 X20.5785 Y32.2983 F100.00
G01 X20.6271 Y32.3434 F100.00
G01 X20.6745 Y32.3897 F100.00
G01 X20.7208 Y32.4371 F100.00
G01 X20.7659 Y32.4857 F100.00
G01 X20.8098 Y32.5353 F100.00
G01 X20.8525 Y32.5860 F100.00
G01 X20.8939 Y32.6378 F100.00
G01 X20.9340 Y32.6905 F100.00
G01 X20.9728 Y32.7442 F100.00
G01 X21.0103 Y32.7989 F100.00
G01 X21.0464 Y32.8544 F100.00
G01 X21.0812 Y32.9108 F100.00
G01 X21.1146 Y32.9681 F100.00
G01 X21.1465 Y33.0261 F100.00
G01 X21.1770 Y33.0849 F100.00
G01 X21.2061 Y33.1445 F100.00
G01 X21.2337 Y33.2047 F100.00
G01 X21.2598 Y33.2656 F100.00
G01 X21.2844 Y33.3272 F100.00
G01 X21.3075 Y33.3893 F100.00
G01 X21.3291 Y33.4520 F100.00
G01 X21.3491 Y33.5151 F100.00
G01 X21.3675 Y33.5788 F100.00
G01 X21.3844 Y33.6428 F100.00
G01 X21.3997 Y33.7073 F100.00
G01 X21.4135 Y33.7721 F100.00
G01 X21.4256 Y33.8373 F100.00
G01 X21.4361 Y33.9027 F100.00
G01 X21.4450 Y33.9684 F100.00
G01 X21.4523 Y34.0342 F100.00
G01 X21.4580 Y34.1003 F100.00
G01 X21.4621 Y34.1664 F100.00
G01 X21.4645 Y34.2326 F100.00
G01 X21.4653 Y34.2989 F100.00
G01 X20.2653 Y34.2989 F100.00
G01 X20.2649 Y34.3357 F100.00
G01 X20.2635 Y34.3725 F100.00
G01 X20.2613 Y34.4092 F100.00
G01 X20.2581 Y34.4459 F100.00
G01 X20.2541 Y34.4825 F100.00
G01 X20.2491 Y34.5190 F100.00
G01 X20.2432 Y34.5553 F100.00
G01 X20.2365 Y34.5915 F100.00
G01 X20.2289 Y34.6275 F100.00
G01 X20.2204 Y34.6634 F100.00
G01 X20.2110 Y34.6990 F100.00
G01 X20.2007 Y34.7343 F100.00
G01 X20.1896 Y34.7694 F100.00
G01 X20.1776 Y34.8042 F100.00
G01 X20.1648 Y34.8387 F100.00
G01 X20.1512 Y34.8729 F100.00
G01 X20.1366 Y34.9068 F100.00
G01 X20.1213 Y34.9402 F100.00
G01 X20.1052 Y34.9733 F100.00
G01 X20.0882 Y35.0060 F100.00
G01 X20.0705 Y35.0382 F100.00
G01 X20.0519 Y35.0700 F100.00
G01 X20.0326 Y35.1014 F100.00
G01 X20.0125 Y35.1322 F100.00
G01 X19.9917 Y35.1626 F100.00
G01 X19.9701 Y35.1924 F100.00
G01 X19.9479 Y35.2217 F100.00
G01 X19.9248 Y35.2505 F100.00
G01 X19.9011 Y35.2787 F100.00
G01 X19.8768 Y35.3062 F100.00
G01 X19.8623 Y35.3217 F100.00
G00 Z2.0000
G00 X19.3503 Y35.3217
G01 F60.00
G01 Z-0.3000
G01 F100.00
G01 X21.4836 Y35.3217 F100.00
G01 X23.2913 Y33.5140 F100.00
G01 X20.8504 Y31.0731 F100.00
G01 X20.7486 Y31.0681 F100.00
G01 X20.7241 Y31.0662 F100.00
G01 X20.6998 Y31.0632 F100.00
G01 X20.5920 Y31.0473 F100.00
G01 X20.5678 Y31.0431 F100.00
G01 X20.5439 Y31.0377 F100.00
G01 X20.4382 Y31.0112 F100.00
G01 X20.4146 Y31.0047 F100.00
G01 X20.3913 Y30.9970 F100.00
G01 X20.2772 Y30.9560 F100.00
G01 X20.2658 Y30.9514 F100.00
G01 X20.2434 Y30.9415 F100.00
G01 X20.1449 Y30.8949 F100.00
G01 X20.1230 Y30.8839 F100.00
G01 X20.1016 Y30.8718 F100.00
G01 X20.0082 Y30.8158 F100.00
G01 X19.9875 Y30.8027 F100.00
G01 X19.9774 Y30.7957 F100.00
G01 X19.8799 Y30.7236 F100.00
G01 X19.8606 Y30.7085 F100.00
G01 X19.8420 Y30.6925 F100.00
G01 X19.7613 Y30.6194 F100.00
G01 X19.7435 Y30.6024 F100.00
G01 X19.7266 Y30.5847 F100.00
G01 X19.6534 Y30.5040 F100.00
G01 X19.6374 Y30.4854 F100.00
G01 X19.6223 Y30.4660 F100.00
G01 X19.5574 Y30.3785 F100.00
G01 X19.5433 Y30.3585 F100.00
G01 X19.5301 Y30.3377 F100.00
G01 X19.4741 Y30.2443 F100.00
G01 X19.4620 Y30.2229 F100.00
G01 X19.4510 Y30.2010 F100.00
G01 X19.4044 Y30.1026 F100.00
G01 X19.3945 Y30.0801 F100.00
G01 X19.3857 Y30.0572 F100.00
G01 X19.3490 Y29.9547 F100.00
G01 X19.3413 Y29.9314 F100.00
G01 X19.3347 Y29.9077 F100.00
G01 X19.3083 Y29.8020 F100.00
G01 X19.3029 Y29.7781 F100.00
G01 X19.2987 Y29.7539 F100.00
G01 X19.2827 Y29.6462 F100.00
G01 X19.2797 Y29.6218 F100.00
G01 X19.2779 Y29.5973 F100.00
G01 X19.2725 Y29.4885 F100.00
G01 X19.2719 Y29.4640 F100.00
G01 X19.2725 Y29.4395 F100.00
G01 X19.2786 Y29.3184 F100.00
G01 X19.2810 Y29.2940 F100.00
G01 X19.2827 Y29.2818 F100.00
G01 X19.2987 Y29.1741 F100.00
G01 X19.3029 Y29.1499 F100.00
G01 X19.3083 Y29.1260 F100.00
G01 X19.3347 Y29.0203 F100.00
G01 X19.3413 Y28.9966 F100.00
G01 X19.3490 Y28.9733 F100.00
G01 X19.3857 Y28.8708 F100.00
G01 X19.3945 Y28.8479 F100.00
G01 X19.4044 Y28.8254 F100.00
G01 X19.4510 Y28.7270 F100.00
G01 X19.4620 Y28.7051 F100.00
G01 X19.4741 Y28.6837 F100.00
G01 X19.5301 Y28.5903 F100.00
G01 X19.5433 Y28.5695 F100.00
G01 X19.5574 Y28.5495 F100.00
G01 X19.6223 Y28.4620 F100.00
G01 X19.6374 Y28.4426 F100.00
G01 X19.6534 Y28.4240 F100.00
G01 X19.7266 Y28.3433 F100.00
G01 X19.7435 Y28.3256 F100.00
G01 X19.7613 Y28.3086 F100.00
G01 X19.8420 Y28.2355 F100.00
G01 X19.8606 Y28.2195 F100.00
G01 X19.8799 Y28.2044 F100.00
G01 X19.9674 Y28.1395 F100.00
G01 X19.9875 Y28.1253 F100.00
G01 X20.0082 Y28.1122 F100.00
G01 X20.1016 Y28.0562 F100.00
G01 X20.1230 Y28.0441 F100.00
G01 X20.1449 Y28.0331 F100.00
G01 X20.2434 Y27.9865 F100.00
G01 X20.2658 Y27.9766 F100.00
G01 X20.2887 Y27.9677 F100.00
G01 X20.3913 Y27.9310 F100.00
G01 X20.4146 Y27.9233 F100.00
G01 X20.4382 Y27.9168 F100.00
G01 X20.5439 Y27.8903 F100.00
G01 X20.5678 Y27.8849 F100.00
G01 X20.5920 Y27.8807 F100.00
G01 X20.6998 Y27.8648 F100.00
G01 X20.7241 Y27.8618 F100.00
G01 X20.7486 Y27.8599 F100.00
G01 X20.8574 Y27.8546 F100.00
G01 X20.8819 Y27.8540 F100.00
G01 X20.9065 Y27.8546 F100.00
G01 X21.0153 Y27.8599 F100.00
G01 X21.0397 Y27.8618 F100.00
G01 X21.0641 Y27.8648 F100.00
G01 X21.1719 Y27.8807 F100.00
G01 X21.1960 Y27.8849 F100.00
G01 X21.2200 Y27.8903 F100.00
G01 X21.3375 Y27.9199 F100.00
G01 X21.3610 Y27.9270 F100.00
G01 X21.3726 Y27.9310 F100.00
G01 X21.4752 Y27.9677 F100.00
G01 X21.4981 Y27.9766 F100.00
G01 X21.5205 Y27.9865 F100.00
G01 X21.6190 Y28.0331 F100.00
G01 X21.6409 Y28.0441 F100.00
G01 X21.6622 Y28.0562 F100.00
G01 X21.7557 Y28.1122 F100.00
G01 X21.7764 Y28.1253 F100.00
G01 X21.7965 Y28.1395 F100.00
G01 X21.8840 Y28.2044 F100.00
G01 X21.9033 Y28.2195 F100.00
G01 X21.9219 Y28.2355 F100.00
G01 X22.0026 Y28.3086 F100.00
G01 X22.0204 Y28.3256 F100.00
G01 X22.0373 Y28.3433 F100.00
G01 X22.1105 Y28.4240 F100.00
G01 X22.1265 Y28.4426 F100.00
G01 X22.1416 Y28.4620 F100.00
G01 X22.2065 Y28.5495 F100.00
G01 X22.2206 Y28.5695 F100.00
G01 X22.2337 Y28.5903 F100.00
G01 X22.2959 Y28.6943 F100.00
G01 X22.3075 Y28.7159 F100.00
G01 X22.3129 Y28.7270 F100.00
G01 X22.3594 Y28.8254 F100.00
G01 X22.3694 Y28.8479 F100.00
G01 X22.3782 Y28.8708 F100.00
G01 X22.4149 Y28.9733 F100.00
G01 X22.4226 Y28.9966 F100.00
G01 X22.4292 Y29.0203 F100.00
G01 X22.4556 Y29.1260 F100.00
G01 X22.4610 Y29.1499 F100.00
G01 X22.4652 Y29.1741 F100.00
G01 X22.4828 Y29.2940 F100.00
G01 X22.4852 Y29.3184 F100.00
G01 X22.4860 Y29.3307 F100.00
G01 X22.4913 Y29.4395 F100.00
G01 X22.4919 Y29.4640 F100.00
G01 X22.4913 Y29.4885 F100.00
G01 X22.4852 Y29.6096 F100.00
G01 X22.4842 Y29.6218 F100.00
G01 X22.4812 Y29.6462 F100.00
G01 X22.4633 Y29.7660 F100.00
G01 X22.4585 Y29.7901 F100.00
G01 X22.4462 Y29.8397 F100.00
G01 X24.8338 Y32.2273 F100.00
G01 X24.9317 Y32.2320 F100.00
G01 X24.9439 Y32.2327 F100.00
G01 X24.9684 Y32.2351 F100.00
G01 X25.0800 Y32.2517 F100.00
G01 X25.1041 Y32.2565 F100.00
G01 X25.1160 Y32.2593 F100.00
G01 X25.2017 Y32.2808 F100.00
G01 X25.2253 Y32.2873 F100.00
G01 X25.2486 Y32.2950 F100.00
G01 X25.3318 Y32.3248 F100.00
G01 X25.3433 Y32.3291 F100.00
G01 X25.3660 Y32.3385 F100.00
G01 X25.4570 Y32.3813 F100.00
G01 X25.4789 Y32.3924 F100.00
G01 X25.5002 Y32.4045 F100.00
G01 X25.5760 Y32.4499 F100.00
G01 X25.5967 Y32.4630 F100.00
G01 X25.6168 Y32.4771 F100.00
G01 X25.6877 Y32.5297 F100.00
G01 X25.7071 Y32.5448 F100.00
G01 X25.7257 Y32.5609 F100.00
G01 X25.7911 Y32.6202 F100.00
G01 X25.8089 Y32.6371 F100.00
G01 X25.8258 Y32.6549 F100.00
G01 X25.8851 Y32.7203 F100.00
G01 X25.8933 Y32.7295 F100.00
G01 X25.9088 Y32.7485 F100.00
G01 X25.9761 Y32.8391 F100.00
G01 X25.9830 Y32.8493 F100.00
G01 X25.9961 Y32.8700 F100.00
G01 X26.0415 Y32.9457 F100.00
G01 X26.0536 Y32.9671 F100.00
G01 X26.0647 Y32.9890 F100.00
G01 X26.1024 Y33.0689 F100.00
G01 X26.1124 Y33.0913 F100.00
G01 X26.1212 Y33.1142 F100.00
G01 X26.1510 Y33.1973 F100.00
G01 X26.1587 Y33.2207 F100.00
G01 X26.1652 Y33.2443 F100.00
G01 X26.1867 Y33.3300 F100.00
G01 X26.1920 Y33.3539 F100.00
G01 X26.1962 Y33.3781 F100.00
G01 X26.2092 Y33.4655 F100.00
G01 X26.2122 Y33.4898 F100.00
G01 X26.2140 Y33.5143 F100.00
G01 X26.2183 Y33.6025 F100.00
G01 X26.2189 Y33.6270 F100.00
G01 X26.2183 Y33.6516 F100.00
G01 X26.2140 Y33.7398 F100.00
G01 X26.2122 Y33.7643 F100.00
G01 X26.2092 Y33.7886 F100.00
G01 X26.1962 Y33.8760 F100.00
G01 X26.1943 Y33.8881 F100.00
G01 X26.1895 Y33.9122 F100.00
G01 X26.1621 Y34.0217 F100.00
G01 X26.1550 Y34.0451 F100.00
G01 X26.1510 Y34.0568 F100.00
G01 X26.1212 Y34.1399 F100.00
G01 X26.1124 Y34.1628 F100.00
G01 X26.1024 Y34.1852 F100.00
G01 X26.0647 Y34.2651 F100.00
G01 X26.0536 Y34.2870 F100.00
G01 X26.0415 Y34.3084 F100.00
G01 X25.9961 Y34.3841 F100.00
G01 X25.9830 Y34.4048 F100.00
G01 X25.9689 Y34.4249 F100.00
G01 X25.9163 Y34.4959 F100.00
G01 X25.9012 Y34.5152 F100.00
G01 X25.8851 Y34.5338 F100.00
G01 X25.8258 Y34.5992 F100.00
G01 X25.8089 Y34.6170 F100.00
G01 X25.7911 Y34.6339 F100.00
G01 X25.7257 Y34.6932 F100.00
G01 X25.7071 Y34.7093 F100.00
G01 X25.6877 Y34.7244 F100.00
G01 X25.6168 Y34.7770 F100.00
G01 X25.5967 Y34.7911 F100.00
G01 X25.5760 Y34.8042 F100.00
G01 X25.5002 Y34.8496 F100.00
G01 X25.4789 Y34.8617 F100.00
G01 X25.4570 Y34.8728 F100.00
G01 X25.3771 Y34.9105 F100.00
G01 X25.3547 Y34.9205 F100.00
G01 X25.3318 Y34.9293 F100.00
G01 X25.2486 Y34.9591 F100.00
G01 X25.2253 Y34.9668 F100.00
G01 X25.2136 Y34.9702 F100.00
G01 X25.1160 Y34.9948 F100.00
G01 X25.0921 Y35.0001 F100.00
G01 X25.0679 Y35.0043 F100.00
G01 X24.9805 Y35.0173 F100.00
G01 X24.9562 Y35.0203 F100.00
G01 X24.9439 Y35.0214 F100.00
G01 X24.8435 Y35.0264 F100.00
G01 X24.8312 Y35.0269 F100.00
G01 X24.8067 Y35.0269 F100.00
G01 X24.6939 Y35.0214 F100.00
G01 X24.6695 Y35.0190 F100.00
G01 X24.6269 Y35.0128 F100.00
G01 X22.5962 Y37.0381 F100.00
G01 X22.5419 Y37.0873 F100.00
G01 X22.5229 Y37.1029 F100.00
G01 X22.4737 Y37.1395 F100.00
G01 X22.4537 Y37.1537 F100.00
G01 X22.4434 Y37.1604 F100.00
G01 X22.3908 Y37.1920 F100.00
G01 X22.3695 Y37.2041 F100.00
G01 X22.3475 Y37.2152 F100.00
G01 X22.3032 Y37.2362 F100.00
G01 X22.2807 Y37.2461 F100.00
G01 X22.2693 Y37.2507 F100.00
G01 X22.2116 Y37.2715 F100.00
G01 X22.1883 Y37.2792 F100.00
G01 X22.1646 Y37.2857 F100.00
G01 X22.1170 Y37.2977 F100.00
G01 X22.0931 Y37.3030 F100.00
G01 X22.0689 Y37.3072 F100.00
G01 X22.0203 Y37.3144 F100.00
G01 X21.9960 Y37.3174 F100.00
G01 X21.9715 Y37.3192 F100.00
G01 X21.9102 Y37.3221 F100.00
G01 X19.5553 Y37.3223 F100.00
G01 X19.5453 Y37.3379 F100.00
G01 X19.5312 Y37.3580 F100.00
G01 X19.4669 Y37.4447 F100.00
G01 X19.4518 Y37.4640 F100.00
G01 X19.4357 Y37.4826 F100.00
G01 X19.3632 Y37.5626 F100.00
G01 X19.3463 Y37.5804 F100.00
G01 X19.3285 Y37.5973 F100.00
G01 X19.2486 Y37.6698 F100.00
G01 X19.2300 Y37.6858 F100.00
G01 X19.2106 Y37.7009 F100.00
G01 X19.1239 Y37.7652 F100.00
G01 X19.1039 Y37.7794 F100.00
G01 X19.0831 Y37.7925 F100.00
G01 X18.9799 Y37.8542 F100.00
G01 X18.9692 Y37.8601 F100.00
G01 X18.9473 Y37.8711 F100.00
G01 X18.8497 Y37.9173 F100.00
G01 X18.8272 Y37.9272 F100.00
G01 X18.8043 Y37.9360 F100.00
G01 X18.7027 Y37.9724 F100.00
G01 X18.6794 Y37.9801 F100.00
G01 X18.6557 Y37.9866 F100.00
G01 X18.5510 Y38.0129 F100.00
G01 X18.5271 Y38.0183 F100.00
G01 X18.5029 Y38.0225 F100.00
G01 X18.3961 Y38.0383 F100.00
G01 X18.3840 Y38.0399 F100.00
G01 X18.3595 Y38.0423 F100.00
G01 X18.2395 Y38.0484 F100.00
G01 X18.2149 Y38.0490 F100.00
G01 X18.2027 Y38.0488 F100.00
G01 X18.0703 Y38.0423 F100.00
G01 X18.0459 Y38.0399 F100.00
G01 X18.0338 Y38.0383 F100.00
G01 X17.9149 Y38.0205 F100.00
G01 X17.9028 Y38.0183 F100.00
G01 X17.8789 Y38.0129 F100.00
G01 X17.7741 Y37.9866 F100.00
G01 X17.7505 Y37.9801 F100.00
G01 X17.7272 Y37.9724 F100.00
G01 X17.6255 Y37.9360 F100.00
G01 X17.6026 Y37.9272 F100.00
G01 X17.5802 Y37.9173 F100.00
G01 X17.4826 Y37.8711 F100.00
G01 X17.4607 Y37.8601 F100.00
G01 X17.4394 Y37.8480 F100.00
G01 X17.3468 Y37.7925 F100.00
G01 X17.3260 Y37.7794 F100.00
G01 X17.3060 Y37.7652 F100.00
G01 X17.2193 Y37.7009 F100.00
G01 X17.1999 Y37.6858 F100.00
G01 X17.1813 Y37.6698 F100.00
G01 X17.1013 Y37.5973 F100.00
G01 X17.0836 Y37.5804 F100.00
G01 X17.0666 Y37.5626 F100.00
G01 X16.9942 Y37.4826 F100.00
G01 X16.9781 Y37.4640 F100.00
G01 X16.9630 Y37.4447 F100.00
G01 X16.8987 Y37.3580 F100.00
G01 X16.8846 Y37.3379 F100.00
G01 X16.8715 Y37.3172 F100.00
G01 X16.8160 Y37.2246 F100.00
G01 X16.8039 Y37.2032 F100.00
G01 X16.7928 Y37.1813 F100.00
G01 X16.7467 Y37.0837 F100.00
G01 X16.7367 Y37.0613 F100.00
G01 X16.7279 Y37.0384 F100.00
G01 X16.6915 Y36.9368 F100.00
G01 X16.6838 Y36.9135 F100.00
G01 X16.6773 Y36.8898 F100.00
G01 X16.6511 Y36.7851 F100.00
G01 X16.6457 Y36.7611 F100.00
G01 X16.6415 Y36.7370 F100.00
G01 X16.6256 Y36.6302 F100.00
G01 X16.6226 Y36.6058 F100.00
G01 X16.6208 Y36.5814 F100.00
G01 X16.6155 Y36.4735 F100.00
G01 X16.6149 Y36.4490 F100.00
G01 X16.6155 Y36.4245 F100.00
G01 X16.6208 Y36.3166 F100.00
G01 X16.6226 Y36.2922 F100.00
G01 X16.6256 Y36.2678 F100.00
G01 X16.6415 Y36.1610 F100.00
G01 X16.6457 Y36.1369 F100.00
G01 X16.6511 Y36.1129 F100.00
G01 X16.6773 Y36.0082 F100.00
G01 X16.6838 Y35.9845 F100.00
G01 X16.6915 Y35.9612 F100.00
G01 X16.7279 Y35.8596 F100.00
G01 X16.7367 Y35.8367 F100.00
G01 X16.7467 Y35.8143 F100.00
G01 X16.7928 Y35.7167 F100.00
G01 X16.8039 Y35.6948 F100.00
G01 X16.8160 Y35.6734 F100.00
G01 X16.8715 Y35.5808 F100.00
G01 X16.8846 Y35.5601 F100.00
G01 X16.8987 Y35.5400 F100.00
G01 X16.9630 Y35.4533 F100.00
G01 X16.9781 Y35.4340 F100.00
G01 X16.9942 Y35.4154 F100.00
G01 X17.0666 Y35.3354 F100.00
G01 X17.0836 Y35.3176 F100.00
G01 X17.1013 Y35.3007 F100.00
G01 X17.1813 Y35.2282 F100.00
G01 X17.1999 Y35.2122 F100.00
G01 X17.2193 Y35.1971 F100.00
G01 X17.3060 Y35.1328 F100.00
G01 X17.3260 Y35.1186 F100.00
G01 X17.3468 Y35.1055 F100.00
G01 X17.4394 Y35.0500 F100.00
G01 X17.4607 Y35.0379 F100.00
G01 X17.4826 Y35.0269 F100.00
G01 X17.5802 Y34.9807 F100.00
G01 X17.6026 Y34.9708 F100.00
G01 X17.6255 Y34.9620 F100.00
G01 X17.7272 Y34.9256 F100.00
G01 X17.7505 Y34.9179 F100.00
G01 X17.7741 Y34.9114 F100.00
G01 X17.8789 Y34.8851 F100.00
G01 X17.9028 Y34.8797 F100.00
G01 X17.9270 Y34.8755 F100.00
G01 X18.0338 Y34.8597 F100.00
G01 X18.0581 Y34.8567 F100.00
G01 X18.0826 Y34.8549 F100.00
G01 X18.1904 Y34.8496 F100.00
G01 X18.2149 Y34.8490 F100.00
G01 X18.2395 Y34.8496 F100.00
G01 X18.3473 Y34.8549 F100.00
G01 X18.3718 Y34.8567 F100.00
G01 X18.3961 Y34.8597 F100.00
G01 X18.5029 Y34.8755 F100.00
G01 X18.5271 Y34.8797 F100.00
G01 X18.5510 Y34.8851 F100.00
G01 X18.6557 Y34.9114 F100.00
G01 X18.6794 Y34.9179 F100.00
G01 X18.7027 Y34.9256 F100.00
G01 X18.8043 Y34.9620 F100.00
G01 X18.8272 Y34.9708 F100.00
G01 X18.8497 Y34.9807 F100.00
G01 X18.9473 Y35.0269 F100.00
G01 X18.9692 Y35.0379 F100.00
G01 X18.9905 Y35.0500 F100.00
G01 X19.0831 Y35.1055 F100.00
G01 X19.1039 Y35.1186 F100.00
G01 X19.1239 Y35.1328 F100.00
G01 X19.2106 Y35.1971 F100.00
G01 X19.2300 Y35.2122 F100.00
G01 X19.2486 Y35.2282 F100.00
G01 X19.3285 Y35.3007 F100.00
G01 X19.3503 Y35.3217 F100.00
G00 Z2.0000
G00 X19.1166 Y35.1275
G01 F60.00
G01 Z-0.3000
G01 F100.00
G01 X19.1501 Y35.1125 F100.00
G01 X19.1700 Y35.1028 F100.00
G01 X19.1896 Y35.0926 F100.00
G01 X19.2089 Y35.0820 F100.00
G01 X19.2280 Y35.0708 F100.00
G01 X19.2468 Y35.0593 F100.00
G01 X19.2653 Y35.0472 F100.00
G01 X19.2836 Y35.0347 F100.00
G01 X19.3015 Y35.0218 F100.00
G01 X19.3190 Y35.0084 F100.00
G01 X19.3363 Y34.9946 F100.00
G01 X19.3532 Y34.9804 F100.00
G01 X19.3697 Y34.9657 F100.00
G01 X19.3859 Y34.9507 F100.00
G01 X19.4017 Y34.9353 F100.00
G01 X19.4172 Y34.9195 F100.00
G01 X19.4322 Y34.9033 F100.00
G01 X19.4468 Y34.8867 F100.00
G01 X19.4610 Y34.8698 F100.00
G01 X19.4748 Y34.8526 F100.00
G01 X19.4882 Y34.8350 F100.00
G01 X19.5012 Y34.8171 F100.00
G01 X19.5137 Y34.7989 F100.00
G01 X19.5257 Y34.7804 F100.00
G01 X19.5373 Y34.7616 F100.00
G01 X19.5484 Y34.7425 F100.00
G01 X19.5591 Y34.7231 F100.00
G01 X19.5692 Y34.7035 F100.00
G01 X19.5789 Y34.6837 F100.00
G01 X19.5881 Y34.6636 F100.00
G01 X19.5968 Y34.6433 F100.00
G01 X19.6050 Y34.6228 F100.00
G01 X19.6127 Y34.6021 F100.00
G01 X19.6199 Y34.5812 F100.00
G01 X19.6266 Y34.5601 F100.00
G01 X19.6327 Y34.5389 F100.00
G01 X19.6384 Y34.5176 F100.00
G01 X19.6435 Y34.4961 F100.00
G01 X19.6480 Y34.4745 F100.00
G01 X19.6521 Y34.4528 F100.00
G01 X19.6556 Y34.4309 F100.00
G01 X19.6586 Y34.4091 F100.00
G01 X19.6610 Y34.3871 F100.00
G01 X19.6629 Y34.3651 F100.00
G01 X19.6642 Y34.3431 F100.00
G01 X19.6651 Y34.3210 F100.00
G01 X19.6653 Y34.2989 F100.00
G01 X19.6651 Y34.2768 F100.00
G01 X19.6642 Y34.2547 F100.00
G01 X19.6629 Y34.2327 F100.00
G01 X19.6610 Y34.2107 F100.00
G01 X19.6586 Y34.1887 F100.00
G01 X19.6556 Y34.1668 F100.00
G01 X19.6521 Y34.1450 F100.00
G01 X19.6480 Y34.1233 F100.00
G01 X19.6435 Y34.1017 F100.00
G01 X19.6384 Y34.0802 F100.00
G01 X19.6327 Y34.0589 F100.00
G01 X19.6266 Y34.0376 F100.00
G01 X19.6199 Y34.0166 F100.00
G01 X19.6127 Y33.9957 F100.00
G01 X19.6050 Y33.9750 F100.00
G01 X19.5968 Y33.9545 F100.00
G01 X19.5881 Y33.9342 F100.00
G01 X19.5789 Y33.9141 F100.00
G01 X19.5692 Y33.8942 F100.00
G01 X19.5591 Y33.8746 F100.00
G01 X19.5484 Y33.8553 F100.00
G01 X19.5373 Y33.8362 F100.00
G01 X19.5257 Y33.8174 F100.00
G01 X19.5137 Y33.7989 F100.00
G01 X19.5012 Y33.7807 F100.00
G01 X19.4882 Y33.7628 F100.00
G01 X19.4748 Y33.7452 F100.00
G01 X19.4610 Y33.7279 F100.00
G01 X19.4468 Y33.7110 F100.00
G01 X19.4322 Y33.6945 F100.00
G01 X19.4172 Y33.6783 F100.00
G01 X19.4017 Y33.6625 F100.00
G01 X19.3859 Y33.6471 F100.00
G01 X19.3697 Y33.6320 F100.00
G01 X19.3532 Y33.6174 F100.00
G01 X19.3363 Y33.6032 F100.00
G01 X19.3190 Y33.5894 F100.00
G01 X19.3015 Y33.5760 F100.00
G01 X19.2836 Y33.5631 F100.00
G01 X19.2653 Y33.5506 F100.00
G01 X19.2468 Y33.5385 F100.00
G01 X19.2280 Y33.5269 F100.00
G01 X19.2089 Y33.5158 F100.00
G01 X19.1896 Y33.5052 F100.00
G01 X19.1700 Y33.4950 F100.00
G01 X19.1501 Y33.4853 F100.00
G01 X19.1300 Y33.4761 F100.00
G01 X19.1097 Y33.4674 F100.00
G01 X19.0892 Y33.4592 F100.00
G01 X19.0685 Y33.4515 F100.00
G01 X19.0476 Y33.4443 F100.00
G01 X19.0266 Y33.4376 F100.00
