(G-CODE GENERATED BY FLATCAM v8.994 - www.flatcam.org - Version Date: 2020/11/7)

(Name: Gerber_Drill_NPTH.DRL_cnc)
(Type: G-code from Geometry)
(Units: MM)

(Created on Friday, 05 March 2021 at 15:05)

(This preprocessor is used with a motion controller loaded with GRBL firmware.)
(It is configured to be compatible with almost any version of GRBL firmware.)


(TOOLS DIAMETER: )
(Tool: 1 -> Dia: 2.032)

(FEEDRATE Z: )
(Tool: 1 -> Feedrate: 40.0)

(FEEDRATE RAPIDS: )
(Tool: 1 -> Feedrate Rapids: 1500)

(Z_CUT: )
(Tool: 1 -> Z_Cut: -1.8)

(Tools Offset: )
(Tool: 1 -> Offset Z: 0.0)

(Z_MOVE: )
(Tool: 1 -> Z_Move: 2)

(Z Toolchange: 2.0 mm)
(X,Y Toolchange: 0.0000, 0.0000 mm)
(Z Start: None mm)
(Z End: 0.5 mm)
(X,Y End: None mm)
(Steps per circle: 64)
(Steps per circle: 64)
(Preprocessor Excellon: GRBL_11_no_M6)

(X range:   11.4839 ...   64.5699  mm)
(Y range:    3.4290 ...   60.4520  mm)

(Spindle Speed: 400 RPM)
G21
G90
G17
G94


G01 F40.00

M5             
G00 Z2.0000
G00 X0.0000 Y0.0000                
T1
(MSG, Change to Tool Dia = 2.0320 ||| Total drills for tool T1 = 4)
M0
G00 Z2.0000
        
G01 F40.00
M03 S400
G00 X63.5539 Y59.4360
G01 Z-1.8000
G01 Z0
G00 Z2.0000
G00 X63.5539 Y59.4360
G01 Z-1.8000
G01 Z0
G00 Z2.0000
G00 X12.4999 Y59.4360
G01 Z-1.8000
G01 Z0
G00 Z2.0000
G00 X12.4999 Y4.4450
G01 Z-1.8000
G01 Z0
G00 Z2.0000
G00 X63.5539 Y4.4450
G01 Z-1.8000
G01 Z0
G00 Z2.0000
M05
G00 Z0.50


