(G-CODE GENERATED BY FLATCAM v8.994 - www.flatcam.org - Version Date: 2020/11/7)

(Name: Gerber_BoardOutline.GKO_cutout_cnc)
(Type: G-code from Geometry)
(Units: MM)

(Created on Friday, 05 March 2021 at 15:08)

(This preprocessor is used with a motion controller loaded with GRBL firmware.)
(It is configured to be compatible with almost any version of GRBL firmware.)

(TOOL DIAMETER: 3.0 mm)
(Feedrate_XY: 100.0 mm/min)
(Feedrate_Z: 60.0 mm/min)
(Feedrate rapids 1500.0 mm/min)

(Z_Cut: -1.9 mm)
(Z_Move: 2.0 mm)
(Z Start: None mm)
(Z End: 2.0 mm)
(X,Y End: None mm)
(Steps per circle: 64)
(Steps per circle: 64)
(Preprocessor Geometry: GRBL_11_no_M6)

(X range:    5.2729 ...   70.7270  mm)
(Y range:   -1.7271 ...   65.7271  mm)

(Spindle Speed: 1000.0 RPM)
G21
G90
G17
G94


G01 F100.00

M5             
G00 Z2.0000
G00 X0.0000 Y0.0000                
T1
(MSG, Change to Tool Dia = 3.0000)
M0
G00 Z2.0000
        
M03 S1000.0
G01 F100.00
G00 X35.1000 Y-1.7271
G01 F60.00
G01 Z-1.9000
G01 F100.00
G01 X6.8729 Y-1.7271 F100.00
G01 X6.7161 Y-1.7194 F100.00
G01 X6.5608 Y-1.6963 F100.00
G01 X6.4085 Y-1.6582 F100.00
G01 X6.2607 Y-1.6053 F100.00
G01 X6.1187 Y-1.5381 F100.00
G01 X5.9840 Y-1.4574 F100.00
G01 X5.8579 Y-1.3639 F100.00
G01 X5.7416 Y-1.2584 F100.00
G01 X5.6361 Y-1.1421 F100.00
G01 X5.5426 Y-1.0160 F100.00
G01 X5.4619 Y-0.8813 F100.00
G01 X5.3947 Y-0.7394 F100.00
G01 X5.3418 Y-0.5915 F100.00
G01 X5.3037 Y-0.4392 F100.00
G01 X5.2807 Y-0.2839 F100.00
G01 X5.2729 Y-0.1271 F100.00
G01 X5.2729 Y64.1271 F100.00
G01 X5.2807 Y64.2839 F100.00
G01 X5.3037 Y64.4392 F100.00
G01 X5.3418 Y64.5915 F100.00
G01 X5.3947 Y64.7393 F100.00
G01 X5.4619 Y64.8813 F100.00
G01 X5.5426 Y65.0160 F100.00
G01 X5.6361 Y65.1421 F100.00
G01 X5.7416 Y65.2584 F100.00
G01 X5.8579 Y65.3639 F100.00
G01 X5.9840 Y65.4574 F100.00
G01 X6.1187 Y65.5381 F100.00
G01 X6.2607 Y65.6053 F100.00
G01 X6.4085 Y65.6582 F100.00
G01 X6.5608 Y65.6963 F100.00
G01 X6.7161 Y65.7193 F100.00
G01 X6.8729 Y65.7271 F100.00
G01 X35.1000 Y65.7271 F100.00
G00 Z2.0000
G00 X41.1000 Y65.7271
G01 F60.00
G01 Z-1.9000
G01 F100.00
G01 X69.1270 Y65.7271 F100.00
G01 X69.2838 Y65.7193 F100.00
G01 X69.4391 Y65.6963 F100.00
G01 X69.5914 Y65.6582 F100.00
G01 X69.7393 Y65.6053 F100.00
G01 X69.8812 Y65.5381 F100.00
G01 X70.0159 Y65.4574 F100.00
G01 X70.1420 Y65.3639 F100.00
G01 X70.2584 Y65.2584 F100.00
G01 X70.3638 Y65.1421 F100.00
G01 X70.4573 Y65.0160 F100.00
G01 X70.5381 Y64.8813 F100.00
G01 X70.6052 Y64.7393 F100.00
G01 X70.6581 Y64.5915 F100.00
G01 X70.6962 Y64.4392 F100.00
G01 X70.7193 Y64.2839 F100.00
G01 X70.7270 Y64.1271 F100.00
G01 X70.7270 Y-0.1271 F100.00
G01 X70.7193 Y-0.2839 F100.00
G01 X70.6962 Y-0.4392 F100.00
G01 X70.6581 Y-0.5915 F100.00
G01 X70.6052 Y-0.7394 F100.00
G01 X70.5381 Y-0.8813 F100.00
G01 X70.4573 Y-1.0160 F100.00
G01 X70.3638 Y-1.1421 F100.00
G01 X70.2584 Y-1.2584 F100.00
G01 X70.1420 Y-1.3639 F100.00
G01 X70.0159 Y-1.4574 F100.00
G01 X69.8812 Y-1.5381 F100.00
G01 X69.7393 Y-1.6053 F100.00
G01 X69.5914 Y-1.6582 F100.00
G01 X69.4391 Y-1.6963 F100.00
G01 X69.2838 Y-1.7194 F100.00
G01 X69.1270 Y-1.7271 F100.00
G01 X41.1000 Y-1.7271 F100.00
G00 Z2.0000
M05
G00 Z2.0000
G00 Z2.00


