; LightBurn 0.9.20
; GRBL-M3 (1.1e or earlier) device profile, current position
; Bounds: X0 Y0 to X58.46 Y57.02
G00 G17 G40 G21 G54
G91
; Cut @ 70 mm/min, 100% power
M8
M5
G0X1.45Y0.45
; Layer C00
M3
G1X0.13Y-0.15S1000F70
G1X0.15Y-0.13
G1X0.17Y-0.09
G1X0.19Y-0.06
G1X0.21Y-0.02
G1X0.2Y0.02
G1X0.19Y0.06
G1X0.17Y0.09
G1X0.16Y0.13
G1X0.12Y0.15
G1X0.09Y0.17
G1X0.06Y0.19
G1X0.02Y0.21
G1X-0.02Y0.2
G1X-0.06Y0.19
G1X-0.09Y0.17
G1X-0.12Y0.15
G1X-0.16Y0.13
G1X-0.17Y0.09
G1X-0.19Y0.06
G1X-0.2Y0.02
G1X-0.21Y-0.02
G1X-0.19Y-0.06
G1X-0.17Y-0.09
G1X-0.15Y-0.13
G1X-0.13Y-0.15
G1X-0.09Y-0.17
G1X-0.06Y-0.19
G1X-0.02Y-0.2
G1X0.02Y-0.21
G1X0.06Y-0.19
G1X0.09Y-0.17
M5
G0X9.36Y5.9
; Layer C00
M3
G1Y43.18
M5
G0X-0Y0
; Layer C00
M3
G1X17.78
M5
G0X-0Y0
; Layer C00
M3
G1Y-43.18
M5
G0X-0Y0
; Layer C00
M3
G1X-17.78
M5
G0X6.43Y-0.57
; Layer C00
M3
G1Y-1.09
G1X0.16Y0.15
G1X0.1Y0.06
M5
G0X0.35Y0.05
; Layer C00
M3
G1X0.05Y-0.11
G1X0.1Y-0.1
G1X0.11Y-0.05
G1X0.2
G1X0.11Y0.05
G1X0.1Y0.1
G1X0.05Y0.11
G1X0.06Y0.16
G1Y0.25
G1X-0.06Y0.16
G1X-0.05Y0.1
G1X-0.1Y0.11
G1X-0.11Y0.05
G1X-0.2
G1X-0.11Y-0.05
G1X-0.1Y-0.11
G1X-0.05Y-0.1
M5
G0X1.12Y-0.83
; Layer C00
M3
G1Y0.78
G1X0.05Y0.15
G1X0.1Y0.11
G1X0.16Y0.05
G1X0.1
G1X0.16Y-0.05
G1X0.1Y-0.11
G1X0.06Y-0.15
G1Y-0.78
M5
G0X1.08Y9.03
; Layer C00
M3
G1X-1.94Y0.74
M5
G0X0Y-0
; Layer C00
M3
G1X1.94Y0.73
M5
G0X-0.65Y-0.27
; Layer C00
M3
G1Y-0.93
M5
G0X-0.09Y1.81
; Layer C00
M3
G1X-0.28Y0.1
G1X-0.18Y0.18
G1X-0.09Y0.19
G1Y0.27
M5
G0X-0Y-0.74
; Layer C00
M3
G1X1.29
M5
G0X-0Y2.46
; Layer C00
M3
G1X-1.94
M5
G0X0.92Y0
; Layer C00
M3
G1X-0.18Y-0.19
G1X-0.09Y-0.18
G1Y-0.28
G1X0.09Y-0.18
G1X0.18Y-0.19
G1X0.28Y-0.09
G1X0.19
G1X0.27Y0.09
G1X0.19Y0.19
G1X0.09Y0.18
G1Y0.28
G1X-0.09Y0.18
G1X-0.19Y0.19
M5
G0X-1.01Y0.61
; Layer C00
M3
G1X0.92
G1X0.28Y0.09
G1X0.09Y0.19
G1Y0.27
G1X-0.09Y0.19
G1X-0.28Y0.28
M5
G0X0.37Y-0
; Layer C00
M3
G1X-1.29
M5
G0X-0Y0.7
; Layer C00
M3
G1X1.29
M5
G0X-0Y0.7
; Layer C00
M3
G1X-1.29
M5
G0X0.37Y0
; Layer C00
M3
G1X-0.28Y0.28
G1X-0.09Y0.18
G1Y0.28
G1X0.09Y0.18
G1X0.28Y0.1
G1X0.92
M5
G0X-0.55Y0.61
; Layer C00
M3
G1X0.27Y0.09
G1X0.19Y0.18
G1X0.09Y0.19
G1Y0.28
G1X-0.09Y0.18
G1X-0.19Y0.18
G1X-0.27Y0.1
G1X-0.19
G1X-0.28Y-0.1
G1X-0.18Y-0.18
G1X-0.09Y-0.18
G1Y-0.28
G1X0.09Y-0.19
G1X0.18Y-0.18
G1X0.28Y-0.09
G1X0.19
M5
G0X-1.39Y-2.24
; Layer C00
M3
G1X-0.09Y-0.09
G1X0.09Y-0.09
G1X0.09Y0.09
G1X-0.09Y0.09
M5
G0X0Y5.47
; Layer C00
M3
G1X1.94
M5
G0X-1.94Y-0
; Layer C00
M3
G1X1.94Y1.29
M5
G0X-0Y0
; Layer C00
M3
G1X-1.94
M5
G0X0.65Y1.72
; Layer C00
M3
G1X1.29
M5
G0X-0.28Y-0
; Layer C00
M3
G1X0.19Y-0.19
G1X0.09Y-0.18
G1Y-0.28
G1X-0.09Y-0.18
G1X-0.19Y-0.19
G1X-0.27Y-0.09
G1X-0.19
G1X-0.28Y0.09
G1X-0.18Y0.19
G1X-0.09Y0.18
G1Y0.28
G1X0.09Y0.18
G1X0.18Y0.19
M5
G0X-0.27Y0.61
; Layer C00
M3
G1X1.29
M5
G0X-0.92Y-0
; Layer C00
M3
G1X-0.28Y0.28
G1X-0.09Y0.18
G1Y0.28
G1X0.09Y0.18
G1X0.28Y0.09
G1X0.92
M5
G0X-0.55Y0.61
; Layer C00
M3
G1X0.27Y0.1
G1X0.19Y0.18
G1X0.09Y0.19
G1Y0.27
G1X-0.09Y0.19
G1X-0.19Y0.18
G1X-0.27Y0.1
G1X-0.19
G1X-0.28Y-0.1
G1X-0.18Y-0.18
G1X-0.09Y-0.19
G1Y-0.27
G1X0.09Y-0.19
G1X0.18Y-0.18
G1X0.28Y-0.1
G1X0.19
M5
G0X-0.74Y3.24
; Layer C00
M3
G1X1.29Y0.55
M5
G0X-0Y0
; Layer C00
M3
G1X-1.29Y0.56
M5
G0X0.92Y0.6
; Layer C00
M3
G1X0.19Y0.1
G1X0.09Y0.09
G1X0.09Y0.28
G1Y0.27
G1X-0.09Y0.28
G1X-0.19Y0.19
G1X-0.27Y0.09
G1X-0.19
G1X-0.28Y-0.09
G1X-0.09Y-0.1
G1X-0.09Y-0.18
G1Y-0.28
G1X-0.74Y0.56
G1Y-1.02
M5
G0X1.57Y1.72
; Layer C00
M3
G1X0.09Y0.09
G1X-0.09Y0.09
G1X-0.09Y-0.09
G1X0.09Y-0.09
M5
G0X-0.46Y0.79
; Layer C00
M3
G1X0.46Y0.09
G1X0.28Y0.19
G1X0.09Y0.28
G1Y0.18
G1X-0.09Y0.28
G1X-0.28Y0.18
G1X-0.46Y0.1
G1X-0.28
G1X-0.46Y-0.1
G1X-0.28Y-0.18
G1X-0.09Y-0.28
G1Y-0.18
G1X0.09Y-0.28
G1X0.28Y-0.19
G1X0.46Y-0.09
G1X0.28
M5
G0X3.56Y2.18
; Layer C00
M3
G1X-7.62
G1Y9.5
G1X7.62
G1Y-9.5
M5
G0X10.1Y3.23
; Layer C00
M3
G1Y2.8
M5
G0X-0Y-0
; Layer C00
M3
G1X5.2
M5
G0X-0Y-0
; Layer C00
M3
G1Y-2.8
M5
G0X-0Y-0
; Layer C00
M3
G1X-5.2
M5
G0X0.95Y-0
; Layer C00
M3
G1Y2.8
M5
G0X0.5Y0.31
; Layer C00
M3
G1Y1.09
M5
G0X0Y0
; Layer C00
M3
G1X0.47
G1X0.15Y-0.05
G1X0.06Y-0.05
G1X0.05Y-0.11
G1Y-0.15
G1X-0.05Y-0.11
G1X-0.06Y-0.05
G1X-0.15Y-0.05
G1X-0.47
M5
G0X1.07Y-0.52
; Layer C00
M3
G1Y1.09
M5
G0X0Y0
; Layer C00
M3
G1X0.37
G1X0.15Y-0.05
G1X0.11Y-0.1
G1X0.05Y-0.11
G1X0.05Y-0.16
G1Y-0.25
G1X-0.05Y-0.16
G1X-0.05Y-0.1
G1X-0.11Y-0.11
G1X-0.15Y-0.05
G1X-0.37
M5
G0X1.33Y0
; Layer C00
M3
G1Y1.09
G1X-0.15Y-0.15
G1X-0.11Y-0.06
M5
G0X-1.88Y2.74
; Layer C00
M3
G1X5.08
M5
G0X-0Y0
; Layer C00
M3
G1Y0.76
M5
G0X-0Y0
; Layer C00
M3
G1X0.25
M5
G0X-0.25Y0
; Layer C00
M3
G1Y0.76
M5
G0X-0Y0
; Layer C00
M3
G1X-5.08
M5
G0X-0Y0
; Layer C00
M3
G1Y-0.76
M5
G0X-0Y0
; Layer C00
M3
G1X-0.26
M5
G0X0.26Y0
; Layer C00
M3
G1Y-0.76
M5
G0X1.27Y1.97
; Layer C00
M3
G1Y1.09
M5
G0X-0Y-0
; Layer C00
M3
G1X0.46
G1X0.16Y-0.05
G1X0.05Y-0.05
G1X0.05Y-0.11
G1Y-0.15
G1X-0.05Y-0.11
G1X-0.05Y-0.05
G1X-0.16Y-0.05
G1X-0.46
M5
G0X1.07Y0.05
; Layer C00
M3
G1X0.46
G1X0.16Y0.05
G1X0.05Y0.05
G1X0.05Y0.11
G1Y0.1
G1X-0.05Y0.11
G1X-0.05Y0.05
G1X-0.16Y0.05
G1X-0.46
M5
G0X-0Y-0
; Layer C00
M3
G1Y-1.09
M5
G0X0.72Y-0
; Layer C00
M3
G1X-0.36Y0.57
M5
G0X0.71Y0.31
; Layer C00
M3
G1X0.1Y0.05
G1X0.16Y0.16
G1Y-1.09
M5
G0X4.33Y-2.22
; Layer C00
M3
G1Y-8.89
M5
G0X-0Y-0
; Layer C00
M3
G1X7.62
G1Y8.89
M5
G0X-0Y-0
; Layer C00
M3
G1X-7.62
M5
G0X7.93Y-3.53
; Layer C00
M3
G1Y0.47
G1X0.06Y0.16
G1X0.05Y0.05
G1X0.1Y0.05
G1X0.11
G1X0.1Y-0.05
G1X0.05Y-0.05
G1X0.05Y-0.16
G1Y-0.47
M5
G0X-0.52Y0
; Layer C00
M3
G1X1.09
M5
G0X-0.57Y0.37
; Layer C00
M3
G1X0.57Y0.36
M5
G0X1.43Y-0.31
; Layer C00
M3
G1Y-0.07
G1X0.82
G1Y0.07
G1X-0.31Y0.05
G1X-0.01Y0.35
G1Y0.7
G1X0.01Y0.32
G1X-0.03Y0.02
G1X-0.46Y-0.12
G1Y-0.07
G1X0.3Y0.03
G1Y-0.88
G1Y-0.35
G1X-0.32Y-0.05
M5
G0X1.06Y-0.07
; Layer C00
M3
G1X0.91
G1Y0.17
G1X-0.77
G1X0.26Y0.27
G1X0.22Y0.23
G1X0.13Y0.17
G1X0.08Y0.15
G1X0.02Y0.14
G1X-0.02Y0.16
G1X-0.08Y0.12
G1X-0.13Y0.08
G1X-0.18Y0.03
G1X-0.16Y-0.02
G1X-0.14Y-0.06
G1X-0.1Y-0.11
G1X-0.05Y-0.14
G1X0.04Y-0.05
G1X0.07Y-0.02
G1X0.07Y0.03
G1X0.05Y0.11
G1X0.04Y0.16
G1X0.07Y0.01
G1X0.05
G1X0.12Y-0.02
G1X0.08Y-0.06
G1X0.06Y-0.1
G1X0.02Y-0.13
G1X-0.02Y-0.14
G1X-0.06Y-0.13
G1X-0.1Y-0.16
G1X-0.14Y-0.17
G1X-0.34Y-0.38
G1Y-0.14
M5
G0X1.72Y-0.01
; Layer C00
M3
G1X0.1
G1X0.46Y1.4
G1X0.2Y0.03
G1Y0.07
G1X-0.51
G1Y-0.08
G1X0.2Y-0.02
G1X-0.36Y-1.12
G1X-0.39Y1.12
G1X0.22Y0.02
G1Y0.08
G1X-0.61
G1Y-0.08
G1X0.17Y-0.01
G1X0.52Y-1.41
M5
G0X-0.14Y-2.31
; Layer C00
M3
G1X-0.52
G1Y-0.08
G1X0.24Y-0.03
G1Y-1.03
G1X-0.82Y1.14
G1X-0.35
G1Y-0.08
G1X0.16Y-0.02
G1X0.02Y-0.03
G1Y-1.26
G1X-0.19Y-0.02
G1Y-0.08
G1X0.53
G1Y0.08
G1X-0.24Y0.03
G1Y1.12
G1X0.91Y-1.25
G1X0.08
G1Y1.41
G1X0.18Y0.02
G1Y0.08
M5
G0X0.59Y-0.09
; Layer C00
M3
G1X0.2
G1X0.11Y-0.01
G1X0.11Y-0.03
G1X0.09Y-0.05
G1X0.08Y-0.08
G1X0.06Y-0.09
G1X0.04Y-0.11
G1X0.03Y-0.14
G1Y-0.15
G1X-0.03Y-0.27
G1X-0.11Y-0.21
G1X-0.07Y-0.07
G1X-0.1Y-0.06
G1X-0.11Y-0.03
G1X-0.12Y-0.01
G1X-0.18
G1Y0.3
G1Y0.33
G1Y0.08
G1Y0.3
G1Y0.3
M5
G0X-0.21Y-0.01
; Layer C00
M3
G1Y-0.3
G1Y-0.29
G1Y-0.08
G1Y-0.32
G1Y-0.3
G1X-0.21Y-0.02
G1Y-0.08
G1X0.61
G1X0.16Y0.01
G1X0.15Y0.04
G1X0.13Y0.06
G1X0.11Y0.08
G1X0.09Y0.11
G1X0.07Y0.13
G1X0.04Y0.14
G1X0.02Y0.17
G1X-0.02Y0.17
G1X-0.04Y0.15
G1X-0.06Y0.13
G1X-0.08Y0.11
G1X-0.11Y0.08
G1X-0.12Y0.06
G1X-0.14Y0.03
G1X-0.16Y0.02
G1X-0.65
G1Y-0.08
G1X0.21Y-0.02
M5
G0X-2.13Y0.02
; Layer C00
M3
G1X-0.2Y0.09
G1X-0.24Y0.02
G1X-0.16Y-0.01
G1X-0.15Y-0.05
G1X-0.13Y-0.06
G1X-0.11Y-0.1
G1X-0.09Y-0.11
G1X-0.07Y-0.13
G1X-0.04Y-0.15
G1X-0.01Y-0.16
G1X0.01Y-0.17
G1X0.04Y-0.15
G1X0.07Y-0.13
G1X0.09Y-0.12
G1X0.1Y-0.09
G1X0.13Y-0.07
G1X0.15Y-0.04
G1X0.16Y-0.01
G1X0.25Y0.03
G1X0.23Y0.1
G1Y0.1
G1X0.01Y0.42
G1X0.13Y0.01
G1Y0.08
G1X-0.58
G1Y-0.08
G1X0.24Y-0.02
G1Y-0.41
G1Y-0.09
G1X-0.12Y-0.04
G1X-0.13Y-0.01
G1X-0.12Y0.02
G1X-0.11Y0.03
G1X-0.09Y0.06
G1X-0.08Y0.08
G1X-0.07Y0.09
G1X-0.04Y0.12
G1X-0.03Y0.13
G1X-0.01Y0.16
G1X0.01Y0.15
G1X0.03Y0.13
G1X0.05Y0.12
G1X0.06Y0.1
G1X0.18Y0.13
G1X0.22Y0.05
G1X0.13Y-0.02
G1X0.12Y-0.05
G1X0.05Y-0.28
G1X0.13
G1X-0.01Y0.33
M5
G0X-2.32Y-0.4
; Layer C00
M3
G1X-1.09
M5
G0X0Y0
; Layer C00
M3
G1Y0.47
G1X0.06Y0.16
G1X0.05Y0.05
G1X0.1Y0.05
G1X0.16
G1X0.1Y-0.05
G1X0.05Y-0.05
G1X0.06Y-0.16
G1Y-0.47
M5
G0X-0.58Y1.07
; Layer C00
M3
G1X1.09Y0.26
M5
G0X0Y0
; Layer C00
M3
G1X-1.09Y0.26
M5
G0X0Y0
; Layer C00
M3
G1X1.09Y0.26
M5
G0X0Y0
; Layer C00
M3
G1X-1.09Y0.26
M5
G0X-0.44Y-7.69
; Layer C00
M3
G1Y-8.89
G1X-7.62
M5
G0X0Y-0
; Layer C00
M3
G1Y8.89
M5
G0X0Y-0
; Layer C00
M3
G1X7.62
M5
G0X0.5Y-1.54
; Layer C00
M3
G1X0.52Y-0.42
M5
G0X0.57Y0
; Layer C00
M3
G1X-0.57
G1X-0.52Y-0.41
M5
G0X0.72Y-0.5
; Layer C00
M3
G1Y-0.52
M5
G0X0.37Y-0.16
; Layer C00
M3
G1X-1.09Y0.42
M5
G0X-0Y-0
; Layer C00
M3
G1X1.09Y0.41
M5
G0X1.5Y-0.32
; Layer C00
M3
G1Y-0.06
G1X0.82
G1Y0.06
G1X-0.31Y0.05
G1X-0.01Y0.36
G1Y0.69
G1X0.01Y0.32
G1X-0.03Y0.03
G1X-0.46Y-0.12
G1Y-0.08
G1X0.3Y0.03
G1Y-0.87
G1X-0.01Y-0.36
G1X-0.31Y-0.05
M5
G0X1.06Y-0.06
; Layer C00
M3
G1X0.91
G1Y0.17
G1X-0.77
G1X0.26Y0.27
G1X0.21Y0.22
G1X0.14Y0.18
G1X0.08Y0.14
G1X0.02Y0.14
G1X-0.03Y0.16
G1X-0.07Y0.12
G1X-0.13Y0.09
G1X-0.19Y0.02
G1X-0.16Y-0.02
G1X-0.13Y-0.06
G1X-0.1Y-0.1
G1X-0.05Y-0.15
G1X0.04Y-0.05
G1X0.06Y-0.02
G1X0.08Y0.03
G1X0.05Y0.11
G1X0.04Y0.16
G1X0.07Y0.01
G1X0.05Y0.01
G1X0.11Y-0.02
G1X0.09Y-0.07
G1X0.05Y-0.1
G1X0.02Y-0.13
G1X-0.02Y-0.13
G1X-0.05Y-0.14
G1X-0.1Y-0.15
G1X-0.15Y-0.17
G1X-0.33Y-0.39
G1Y-0.13
M5
G0X1.72Y-0.02
; Layer C00
M3
G1X0.09
G1X0.47Y1.4
G1X0.19Y0.03
G1Y0.07
G1X-0.51
G1Y-0.08
G1X0.21Y-0.02
G1X-0.36Y-1.12
G1X-0.39Y1.12
G1X0.21Y0.02
G1Y0.08
G1X-0.6
G1Y-0.07
G1X0.17Y-0.02
G1X0.52Y-1.41
M5
G0X-0.39Y-2.51
; Layer C00
M3
G1X-0.53
G1Y-0.07
G1X0.24Y-0.03
G1Y-1.03
G1X-0.82Y1.13
G1X-0.34
G1Y-0.07
G1X0.16Y-0.02
G1X0.02Y-0.03
G1X-0.01Y-1.26
G1X-0.18Y-0.03
G1Y-0.08
G1X0.52
G1Y0.08
G1X-0.23Y0.03
G1X-0.01Y1.13
G1X0.91Y-1.25
G1X0.08
G1Y1.4
G1X0.19Y0.03
G1Y0.07
M5
G0X0.59Y-0.08
; Layer C00
M3
G1X0.19
G1X0.12Y-0.01
G1X0.1Y-0.04
G1X0.09Y-0.05
G1X0.08Y-0.07
G1X0.06Y-0.09
G1X0.04Y-0.12
G1X0.03Y-0.13
G1X0.01Y-0.15
G1X-0.04Y-0.28
G1X-0.1Y-0.2
G1X-0.08Y-0.08
G1X-0.1Y-0.05
G1X-0.11Y-0.04
G1X-0.12Y-0.01
G1X-0.17
G1X-0.01Y0.31
G1Y0.32
G1Y0.08
G1Y0.31
G1X0.01Y0.3
M5
G0X-0.22Y-0.02
; Layer C00
M3
G1X0.01Y-0.29
G1Y-0.3
G1Y-0.08
G1Y-0.32
G1X-0.01Y-0.3
G1X-0.2Y-0.02
G1Y-0.08
G1X0.6
G1X0.16Y0.02
G1X0.15Y0.03
G1X0.13Y0.06
G1X0.11Y0.09
G1X0.09Y0.1
G1X0.07Y0.13
G1X0.04Y0.15
G1X0.02Y0.17
G1X-0.02Y0.17
G1X-0.03Y0.15
G1X-0.07Y0.13
G1X-0.08Y0.1
G1X-0.11Y0.08
G1X-0.12Y0.06
G1X-0.14Y0.04
G1X-0.16Y0.01
G1X-0.64
G1Y-0.07
G1X0.2Y-0.03
M5
G0X-2.13Y0.03
; Layer C00
M3
G1X-0.19Y0.08
G1X-0.25Y0.03
G1X-0.16Y-0.02
G1X-0.15Y-0.04
G1X-0.13Y-0.07
G1X-0.11Y-0.09
G1X-0.09Y-0.11
G1X-0.06Y-0.14
G1X-0.05Y-0.15
G1X-0.01Y-0.16
G1X0.01Y-0.16
G1X0.04Y-0.15
G1X0.07Y-0.14
G1X0.09Y-0.11
G1X0.11Y-0.09
G1X0.13Y-0.07
G1X0.14Y-0.04
G1X0.16Y-0.02
G1X0.25Y0.04
G1X0.24Y0.09
G1Y0.1
G1Y0.42
G1X0.14Y0.02
G1Y0.07
G1X-0.58
G1Y-0.07
G1X0.23Y-0.02
G1X0.01Y-0.42
G1Y-0.09
G1X-0.13Y-0.03
G1X-0.12Y-0.01
G1X-0.12Y0.01
G1X-0.11Y0.04
G1X-0.1Y0.05
G1X-0.08Y0.08
G1X-0.06Y0.1
G1X-0.05Y0.12
G1X-0.03Y0.13
G1X-0.01Y0.15
G1X0.01Y0.15
G1X0.03Y0.14
G1X0.05Y0.12
G1X0.07Y0.09
G1X0.17Y0.14
G1X0.22Y0.04
G1X0.13Y-0.01
G1X0.12Y-0.05
G1X0.06Y-0.28
G1X0.12
G1X-0.01Y0.33
M5
G0X-2.13Y0.17
; Layer C00
M3
G1Y0.67
M5
G0X-0Y0.34
; Layer C00
M3
G1Y0.63
M5
G0X-0Y-0.63
; Layer C00
M3
G1X-1.09
M5
G0X-0Y-0.34
; Layer C00
M3
G1Y-0.67
M5
G0X-0Y-0
; Layer C00
M3
G1X1.09
M5
G0X-0Y-0.35
; Layer C00
M3
G1X-0.57Y-0.36
M5
G0X-0Y-0.36
; Layer C00
M3
G1Y0.46
G1X-0.05Y0.16
G1X-0.06Y0.05
G1X-0.1Y0.05
G1X-0.1
G1X-0.11Y-0.05
G1X-0.05Y-0.05
G1X-0.05Y-0.16
G1Y-0.46
M5
G0X-0Y-0
; Layer C00
M3
G1X1.09
M5
G0X-0.57Y1.07
; Layer C00
M3
G1Y0.41
M5
G0X-2.15Y-4.65
; Layer C00
M3
G1X-0.21
G1X-0.1Y-0.05
G1X-0.11Y-0.1
G1X-0.05Y-0.11
G1X-0.05Y-0.16
G1Y-0.25
G1X0.05Y-0.16
G1X0.05Y-0.1
G1X0.11Y-0.11
G1X0.1Y-0.05
G1X0.21
G1X0.1Y0.05
G1X0.11Y0.11
G1X0.05Y0.1
G1X0.05Y0.16
G1Y0.25
G1X-0.05Y0.16
G1X-0.05Y0.11
G1X-0.11Y0.1
G1X-0.1Y0.05
M5
G0X0.65Y-0.21
; Layer C00
M3
G1X0.11Y0.06
G1X0.15Y0.15
G1Y-1.09
M5
G0X-0.65Y-0.1
; Layer C00
M3
G1X-0.31Y0.31
M5
G0X0.04Y-1.8
; Layer C00
M3
G1X-0.14Y0.22
G1X-0.16Y0.19
G1X-0.17Y0.18
G1X-0.19Y0.15
G1X-0.41Y0.25
G1X-0.45Y0.16
G1X-0.47Y0.08
G1X-0.48Y-0.02
G1X-0.24Y-0.04
G1X-0.24Y-0.07
G1X-0.23Y-0.09
G1X-0.23Y-0.12
G1X-0.27Y-0.19
G1X-0.24Y-0.22
G1X-0.22Y-0.25
G1X-0.18Y-0.28
M5
G0X0.23Y-1.6
; Layer C00
M3
G1X3.96
M5
G0X-5.58Y-2.03
; Layer C00
M3
G1X-1.09
G1X0.16Y-0.15
G1X0.05Y-0.11
M5
G0X0.47Y-0.34
; Layer C00
M3
G1Y-0.26
M5
G0X-0Y0.26
; Layer C00
M3
G1X0.15
G1X0.11Y-0.05
G1X0.1Y-0.11
G1X0.05Y-0.1
G1Y-0.21
G1X-0.05Y-0.1
G1X-0.1Y-0.11
G1X-0.11Y-0.05
G1X-0.15Y-0.05
G1X-0.26
G1X-0.16Y0.05
G1X-0.1Y0.05
G1X-0.11Y0.11
G1X-0.05Y0.1
G1Y0.21
G1X0.05Y0.1
G1X0.11Y0.11
G1X0.1Y0.05
M5
G0X-0.1Y-1.12
; Layer C00
M3
G1X-0.11Y-0.11
G1X-0.05Y-0.15
G1Y-0.21
G1X0.05Y-0.16
G1X0.11Y-0.1
G1X0.1
G1X0.11Y0.05
G1X0.05Y0.05
G1X0.05Y0.11
G1X0.1Y0.31
G1X0.06Y0.1
G1X0.05Y0.06
G1X0.1Y0.05
G1X0.16
G1X0.1Y-0.11
G1X0.05Y-0.15
G1Y-0.21
G1X-0.05Y-0.16
G1X-0.1Y-0.1
M5
G0X-0.37Y-3.39
; Layer C00
M3
G1Y-12.7
M5
G0X0Y-0
; Layer C00
M3
G1X7.62
M5
G0X0Y-0
; Layer C00
M3
G1Y12.7
M5
G0X0Y-0
; Layer C00
M3
G1X-7.62
M5
G0X-5.19Y6.4
; Layer C00
M3
G1Y0.5
G1X0.47
G1Y0.11
G1X-0.47
G1Y0.49
G1X-0.11
G1Y-0.49
G1X-0.47
G1Y-0.11
G1X0.47
G1Y-0.5
G1X0.11
M5
G0X-1.16Y8.33
; Layer C00
M3
G1Y0.26
M5
G0X0Y-0
; Layer C00
M3
G1X-0.76
M5
G0X0Y-0
; Layer C00
M3
G1Y5.08
M5
G0X0Y-0
; Layer C00
M3
G1X0.76
M5
G0X0Y-0
; Layer C00
M3
G1X0.77
M5
G0X-0Y-0
; Layer C00
M3
G1Y-5.08
M5
G0X-0Y-0
; Layer C00
M3
G1X-0.77
M5
G0X0Y1.14
; Layer C00
M3
G1Y0.47
G1X-0.05Y0.15
G1X-0.05Y0.05
G1X-0.1Y0.05
G1X-0.11
G1X-0.1Y-0.05
G1X-0.05Y-0.05
G1X-0.05Y-0.15
G1Y-0.47
M5
G0X-0Y-0
; Layer C00
M3
G1X1.09
M5
G0X-0.58Y0.36
; Layer C00
M3
G1X0.58Y0.36
M5
G0X-0.26Y0.4
; Layer C00
M3
G1X0.1Y0.05
G1X0.1Y0.11
G1X0.06Y0.1
G1Y0.21
G1X-0.06Y0.1
G1X-0.1Y0.11
G1X-0.1Y0.05
G1X-0.16Y0.05
G1X-0.26
G1X-0.15Y-0.05
G1X-0.11Y-0.05
G1X-0.1Y-0.11
G1X-0.05Y-0.1
G1Y-0.21
G1X0.05Y-0.1
G1X0.1Y-0.11
G1X0.11Y-0.05
G1X0.15Y-0.05
G1X0.26
G1X0.16Y0.05
M5
G0X0.05Y0.41
; Layer C00
M3
G1X0.31Y0.32
M5
G0X-0.1Y0.65
; Layer C00
M3
G1X-1.09
G1X0.15Y-0.15
G1X0.05Y-0.11
M5
G0X0.31Y1.7
; Layer C00
M3
G1Y0.25
M5
G0X2.54Y-0.32
; Layer C00
M3
G1Y-5.2
M5
G0X0Y-0
; Layer C00
M3
G1X2.8
M5
G0X0Y-0
; Layer C00
M3
G1Y5.2
M5
G0X0Y-0
; Layer C00
M3
G1X-2.8
M5
G0X0Y-0.96
; Layer C00
M3
G1X2.8
M5
G0X-0.98Y-1.01
; Layer C00
M3
G1X-1.09
G1X0.15Y-0.15
G1X0.05Y-0.11
M5
G0X0.21Y-0.34
; Layer C00
M3
G1X-0.16Y-0.05
G1X-0.1Y-0.05
G1X-0.1Y-0.11
G1X-0.05Y-0.1
G1Y-0.21
G1X0.05Y-0.1
G1X0.1Y-0.11
G1X0.1Y-0.05
G1X0.16Y-0.05
G1X0.26
G1X0.16Y0.05
G1X0.1Y0.05
G1X0.1Y0.11
G1X0.06Y0.1
G1Y0.21
G1X-0.06Y0.1
G1X-0.1Y0.11
G1X-0.1Y0.05
G1X-0.16Y0.05
G1X-0.26
M5
G0X0.47Y-0.36
; Layer C00
M3
G1X0.31Y0.31
M5
G0X-0.1Y-1.85
; Layer C00
M3
G1X-1.09
M5
G0X-0Y-0
; Layer C00
M3
G1Y0.36
G1X0.05Y0.16
G1X0.1Y0.1
G1X0.1Y0.05
G1X0.16Y0.06
G1X0.26
G1X0.16Y-0.06
G1X0.1Y-0.05
G1X0.1Y-0.1
G1X0.06Y-0.16
G1Y-0.36
M5
G0X12.83Y-17.21
; Layer C00
M3
G1X-0.16Y-0.08
G1X-0.1Y-0.13
G1X-0.04Y-0.17
G1X0.03Y-0.15
G1X0.08Y-0.12
G1X0.12Y-0.1
G1X0.15Y-0.08
G1X0.09Y-0.03
G1X0.12Y-0.06
G1X0.09Y-0.06
G1X0.05Y-0.08
G1X0.02Y-0.09
G1X-0.03Y-0.12
G1X-0.07Y-0.09
G1X-0.11Y-0.05
G1X-0.15Y-0.02
G1X-0.12Y0.01
G1X-0.11Y0.04
G1X-0.06Y0.28
G1X-0.11
G1X-0.02Y-0.31
G1X0.2Y-0.08
G1X0.24Y-0.04
G1X0.21Y0.03
G1X0.16Y0.08
G1X0.11Y0.14
G1X0.04Y0.18
G1X-0.02Y0.14
G1X-0.07Y0.11
G1X-0.13Y0.1
G1X-0.19Y0.09
G1X-0.09Y0.04
G1X-0.1Y0.05
G1X-0.08Y0.07
G1X-0.05Y0.07
G1X-0.02Y0.1
G1X0.03Y0.11
G1X0.06Y0.08
G1X0.1Y0.05
G1X0.12Y0.02
G1X0.1Y-0.01
G1X0.09Y-0.03
G1X0.05Y-0.27
G1X0.12
G1X0.01Y0.29
G1X-0.16Y0.09
G1X-0.2Y0.03
G1X-0.2Y-0.03
M5
G0X0.92Y-0.02
; Layer C00
M3
G1X0.01Y-0.05
G1X0.03Y-0.05
G1X0.05Y-0.03
G1X0.05Y-0.01
G1X0.06Y0.01
G1X0.04Y0.03
G1X0.03Y0.05
G1X0.02Y0.05
G1X-0.02Y0.06
G1X-0.03Y0.04
G1X-0.04Y0.03
G1X-0.06Y0.01
G1X-0.05Y-0.01
G1X-0.05Y-0.03
G1X-0.03Y-0.04
G1X-0.01Y-0.06
M5
G0X0.21Y-0.39
; Layer C00
M3
G1X-0.34Y-0.12
G1Y-0.07
G1X0.18Y-0.02
G1Y-0.13
G1X0.01Y-0.16
G1Y-0.12
G1X-0.01Y-0.37
G1X-0.17Y-0.03
G1Y-0.07
G1X0.51
G1Y0.07
G1X-0.15Y0.03
G1Y0.37
G1Y0.3
G1Y0.3
G1X-0.03Y0.02
M5
G0X0.63Y-0.16
; Layer C00
M3
G1X0.07Y0.06
G1X0.1Y0.02
G1X0.09Y-0.02
G1X0.07Y-0.06
G1X0.04Y-0.09
G1X0.02Y-0.11
G1X-0.02Y-0.12
G1X-0.04Y-0.09
G1X-0.07Y-0.06
G1X-0.1Y-0.03
G1X-0.09Y0.02
G1X-0.07Y0.06
G1X-0.05Y0.09
G1X-0.01Y0.12
G1X0.01Y0.12
G1X0.05Y0.09
M5
G0X-0.03Y-0.95
; Layer C00
M3
G1X0.11Y-0.01
G1X0.26
G1X0.1Y-0.01
G1X0.07Y-0.04
G1X0.04Y-0.05
G1X0.01Y-0.07
G1X-0.03Y-0.1
G1X-0.07Y-0.07
G1X-0.12Y-0.05
G1X-0.17Y-0.02
G1X-0.12Y0.01
G1X-0.09Y0.04
G1X-0.06Y0.07
G1X-0.02Y0.1
G1X0.02Y0.1
G1X0.07Y0.1
M5
G0X-0.04Y0.01
; Layer C00
M3
G1X-0.1Y-0.05
G1X-0.07Y-0.06
G1X-0.04Y-0.07
G1X-0.01Y-0.06
G1X0.03Y-0.12
G1X0.08Y-0.08
G1X0.14Y-0.06
G1X0.21Y-0.02
G1X0.24Y0.03
G1X0.17Y0.09
G1X0.11Y0.12
G1X0.03Y0.14
G1X-0.02Y0.12
G1X-0.07Y0.09
G1X-0.11Y0.06
G1X-0.16Y0.02
G1X-0.29
G1X-0.07
G1X-0.04Y0.02
G1X-0.03Y0.04
G1Y0.04
G1X0.01Y0.07
G1X0.05Y0.08
G1X0.08Y-0.03
G1X0.1
G1X0.16Y0.02
G1X0.12Y0.07
G1X0.09Y0.12
G1X0.03Y0.16
G1X-0.02Y0.11
G1X-0.04Y0.1
G1X0.22Y-0.01
G1Y0.14
G1X-0.03Y0.02
G1X-0.26Y-0.09
G1X-0.12Y0.07
G1X-0.15Y0.02
G1X-0.17Y-0.03
G1X-0.12Y-0.07
G1X-0.09Y-0.11
G1X-0.03Y-0.15
G1X0.02Y-0.11
G1X0.03Y-0.09
G1X0.05Y-0.07
G1X0.07Y-0.05
G1X-0.11Y-0.14
G1X-0.04Y-0.11
G1X0.01Y-0.06
G1X0.03Y-0.04
G1X0.05Y-0.04
G1X0.06Y-0.03
M5
G0X-0.16Y-2.18
; Layer C00
M3
G1X-0.34
G1Y-0.08
G1X0.16Y-0.02
G1X0.02Y-0.03
G1Y-1.26
G1X-0.19Y-0.03
G1Y-0.07
G1X0.53
G1Y0.07
G1X-0.24Y0.03
G1Y1.13
G1X0.9Y-1.25
G1X0.08
G1X0.01Y1.4
G1X0.18Y0.03
G1Y0.08
G1X-0.52
G1Y-0.08
G1X0.23Y-0.03
G1X0.01Y-1.03
G1X-0.83Y1.14
M5
G0X-0.64Y-0.08
; Layer C00
M3
G1X-0.2Y0.08
G1X-0.25Y0.03
G1X-0.16Y-0.01
G1X-0.14Y-0.05
G1X-0.13Y-0.07
G1X-0.11Y-0.09
G1X-0.09Y-0.11
G1X-0.07Y-0.13
G1X-0.04Y-0.15
G1X-0.02Y-0.17
G1X0.02Y-0.16
G1X0.04Y-0.15
G1X0.06Y-0.13
G1X0.09Y-0.12
G1X0.11Y-0.09
G1X0.13Y-0.07
G1X0.15Y-0.04
G1X0.16Y-0.02
G1X0.25Y0.04
G1X0.23Y0.09
G1Y0.11
G1X0.01Y0.42
G1X0.13Y0.01
G1Y0.08
G1X-0.58
G1Y-0.08
G1X0.24Y-0.02
G1Y-0.41
G1Y-0.09
G1X-0.12Y-0.04
G1X-0.13Y-0.01
G1X-0.12Y0.02
G1X-0.11Y0.03
G1X-0.09Y0.06
G1X-0.08Y0.07
G1X-0.07Y0.1
G1X-0.04Y0.12
G1X-0.03Y0.13
G1X-0.01Y0.15
G1X0.01Y0.16
G1X0.03Y0.13
G1X0.05Y0.12
G1X0.06Y0.1
G1X0.18Y0.13
G1X0.22Y0.05
G1X0.13Y-0.02
G1X0.12Y-0.05
G1X0.05Y-0.28
G1X0.12
G1Y0.33
M5
G0X2.34Y-0.01
; Layer C00
M3
G1X0.19
G1X0.12Y-0.01
G1X0.11Y-0.03
G1X0.09Y-0.06
G1X0.07Y-0.07
G1X0.06Y-0.09
G1X0.05Y-0.11
G1X0.02Y-0.14
G1X0.01Y-0.15
G1X-0.03Y-0.27
G1X-0.11Y-0.21
G1X-0.08Y-0.08
G1X-0.09Y-0.05
G1X-0.11Y-0.03
G1X-0.13Y-0.01
G1X-0.17
G1Y0.3
G1Y0.33
G1Y0.08
G1Y0.3
G1Y0.3
M5
G0X-0.21Y-0.01
; Layer C00
M3
G1Y-0.3
G1Y-0.29
G1Y-0.08
G1Y-0.32
G1Y-0.3
G1X-0.21Y-0.03
G1Y-0.07
G1X0.61
G1X0.16Y0.01
G1X0.14Y0.04
G1X0.13Y0.06
G1X0.12Y0.08
G1X0.09Y0.11
G1X0.07Y0.12
G1X0.04Y0.15
G1X0.01Y0.17
G1X-0.01Y0.17
G1X-0.04Y0.15
G1X-0.06Y0.13
G1X-0.09Y0.1
G1X-0.1Y0.09
G1X-0.13Y0.06
G1X-0.14Y0.03
G1X-0.15Y0.02
G1X-0.65
G1Y-0.08
G1X0.21Y-0.02
M5
G0X-4.65Y-0.26
; Layer C00
M3
G1X-1.09
M5
G0X0Y-0
; Layer C00
M3
G1X1.09Y0.72
M5
G0X0Y0
; Layer C00
M3
G1X-1.09
M5
G0X0Y-1.07
; Layer C00
M3
G1Y-0.73
M5
G0X0Y0.37
; Layer C00
M3
G1X1.09
M5
G0X-0.57Y-0.97
; Layer C00
M3
G1X-0.05Y0.16
G1X-0.05Y0.05
G1X-0.11Y0.05
G1X-0.1
G1X-0.1Y-0.05
G1X-0.06Y-0.05
G1X-0.05Y-0.16
G1Y-0.46
M5
G0X0Y-0
; Layer C00
M3
G1X1.09
M5
G0X0Y-0
; Layer C00
M3
G1Y0.46
G1X-0.05Y0.16
G1X-0.05Y0.05
G1X-0.1Y0.05
G1X-0.16
G1X-0.11Y-0.05
G1X-0.05Y-0.05
G1X-0.05Y-0.16
G1Y-0.46
M5
G0X1.9Y-1.44
; Layer C00
M3
G1X-0.04Y-0.69
G1X0.05Y-0.02
G1X0.11Y0.02
G1X0.11Y0.01
G1X0.14Y-0.02
G1X0.11Y-0.07
G1X0.07Y-0.12
G1X0.03Y-0.15
G1X-0.03Y-0.16
G1X-0.06Y-0.12
G1X-0.11Y-0.08
G1X-0.14Y-0.03
G1X-0.07Y0.01
G1X-0.07Y0.01
G1X-0.04Y0.13
G1X-0.02Y0.07
G1X-0.02Y0.05
G1X-0.04Y0.02
G1X-0.04
G1X-0.06Y-0.01
G1X-0.04Y-0.06
G1X0.05Y-0.13
G1X0.09Y-0.1
G1X0.12Y-0.05
G1X0.15Y-0.02
G1X0.22Y0.03
G1X0.16Y0.1
G1X0.11Y0.15
G1X0.03Y0.2
G1X-0.03Y0.2
G1X-0.1Y0.15
G1X-0.16Y0.09
G1X-0.2Y0.03
G1X-0.11Y-0.01
G1X-0.11Y-0.02
G1X0.03Y0.42
G1X0.64
G1Y0.17
G1X-0.73
M5
G0X0.89Y0
; Layer C00
M3
G1Y-0.07
G1X0.17Y-0.02
G1X0.52Y-1.41
G1X0.1
G1X0.46Y1.4
G1X0.2Y0.03
G1Y0.07
G1X-0.51
G1Y-0.08
G1X0.2Y-0.02
G1X-0.36Y-1.12
G1X-0.39Y1.12
G1X0.22Y0.02
G1Y0.08
G1X-0.61
M5
G0X-1.31Y-6.08
; Layer C00
M3
G1X-0.21Y0.02
G1X-0.2Y-0.02
G1X-0.19Y-0.06
G1X-0.18Y-0.09
G1X-0.15Y-0.13
G1X-0.12Y-0.15
G1X-0.1Y-0.17
G1X-0.05Y-0.19
G1X-0.03Y-0.2
G1X0.03Y-0.21
G1X0.05Y-0.19
G1X0.1Y-0.17
G1X0.12Y-0.15
G1X0.15Y-0.13
G1X0.18Y-0.09
G1X0.19Y-0.06
G1X0.2Y-0.02
G1X0.21Y0.02
G1X0.19Y0.06
G1X0.17Y0.09
G1X0.15Y0.13
G1X0.12Y0.15
G1X0.1Y0.17
G1X0.06Y0.19
G1X0.02Y0.21
G1X-0.02Y0.2
G1X-0.06Y0.19
G1X-0.1Y0.17
G1X-0.12Y0.15
G1X-0.15Y0.13
G1X-0.17Y0.09
G1X-0.19Y0.06
M5
G0X-46.44Y16.28
; Layer C00
M3
G1X-5.08
G1Y8.13
G1X2.54
G1X2.54
G1Y-8.13
M5
G0X-5.27Y3.94
; Layer C00
M3
G1X-1.09
M5
G0X0Y-0
; Layer C00
M3
G1Y0.46
G1X0.05Y0.16
G1X0.06Y0.05
G1X0.1Y0.05
G1X0.16
G1X0.1Y-0.05
G1X0.05Y-0.05
G1X0.05Y-0.16
G1Y-0.46
M5
G0X0.26Y1.84
; Layer C00
M3
G1X0.11Y-0.05
G1X0.1Y-0.1
G1X0.05Y-0.11
G1Y-0.2
G1X-0.05Y-0.11
G1X-0.1Y-0.1
G1X-0.11Y-0.05
G1X-0.15Y-0.06
G1X-0.26
G1X-0.16Y0.06
G1X-0.1Y0.05
G1X-0.11Y0.1
G1X-0.05Y0.11
G1Y0.2
G1X0.05Y0.11
G1X0.11Y0.1
G1X0.1Y0.05
M5
G0X0Y0.4
; Layer C00
M3
G1X-0.05
G1X-0.1Y0.05
G1X-0.06Y0.05
G1X-0.05Y0.11
G1Y0.2
G1X0.05Y0.11
G1X0.06Y0.05
G1X0.1Y0.05
G1X0.1
G1X0.11Y-0.05
G1X0.15Y-0.1
G1X0.52Y-0.52
G1Y0.73
M5
G0X0.19Y4.82
; Layer C00
M3
G1Y0.26
M5
G0X0Y-0
; Layer C00
M3
G1X0.76
M5
G0X0Y-0
; Layer C00
M3
G1Y5.08
M5
G0X0Y-0
; Layer C00
M3
G1X-0.76
M5
G0X0Y-0
; Layer C00
M3
G1X-0.76
M5
G0X0Y-0
; Layer C00
M3
G1Y-5.08
M5
G0X0Y-0
; Layer C00
M3
G1X0.76
M5
G0X-0.95Y2.03
; Layer C00
M3
G1X-1.09
M5
G0X0Y-0
; Layer C00
M3
G1X1.09Y0.41
M5
G0X-0Y0
; Layer C00
M3
G1X-1.09Y0.42
M5
G0X0Y-0
; Layer C00
M3
G1X1.09
M5
G0X-0Y0.34
; Layer C00
M3
G1X-1.09
M5
G0X0Y0
; Layer C00
M3
G1Y0.47
G1X0.05Y0.16
G1X0.05Y0.05
G1X0.11Y0.05
G1X0.1
G1X0.11Y-0.05
G1X0.05Y-0.05
G1X0.05Y-0.16
G1Y-0.47
M5
G0X-0Y0.36
; Layer C00
M3
G1X0.57Y0.37
M5
G0X-0Y0.6
; Layer C00
M3
G1X-1.09
G1X0.15Y-0.15
G1X0.06Y-0.11
M5
G0X1.83Y0.81
; Layer C00
M3
G1Y0.25
M5
G0X3.3Y-1.24
; Layer C00
M3
G1X-0.05
G1X-0.11Y0.06
G1X-0.05Y0.05
G1X-0.05Y0.1
G1Y0.21
G1X0.05Y0.1
G1X0.05Y0.05
G1X0.11Y0.06
G1X0.1
G1X0.11Y-0.06
G1X0.15Y-0.1
G1X0.52Y-0.52
G1Y0.73
M5
G0X0.06Y0.31
; Layer C00
M3
G1X0.77
M5
G0X-0Y-0
; Layer C00
M3
G1Y0.25
M5
G0X-0Y-0.25
; Layer C00
M3
G1X0.76
M5
G0X-0Y-0
; Layer C00
M3
G1Y-5.08
M5
G0X-0Y-0
; Layer C00
M3
G1X-0.76
M5
G0X-0Y-0
; Layer C00
M3
G1Y-0.26
M5
G0X-0Y0.26
; Layer C00
M3
G1X-0.77
M5
G0X0Y-0
; Layer C00
M3
G1Y5.08
M5
G0X-0.06Y-1.38
; Layer C00
M3
G1X-0.57Y-0.36
M5
G0X-0Y-0.37
; Layer C00
M3
G1Y0.47
G1X-0.05Y0.16
G1X-0.05Y0.05
G1X-0.11Y0.05
G1X-0.1
G1X-0.11Y-0.05
G1X-0.05Y-0.05
G1X-0.05Y-0.16
G1Y-0.47
M5
G0X0Y0
; Layer C00
M3
G1X1.09
M5
G0X-0Y-1.07
; Layer C00
M3
G1X-1.09
M5
G0X0Y0
; Layer C00
M3
G1Y0.47
G1X0.05Y0.15
G1X0.05Y0.06
G1X0.11Y0.05
G1X0.15
G1X0.11Y-0.05
G1X0.05Y-0.06
G1X0.05Y-0.15
G1Y-0.47
M5
G0X-0.76Y8.17
; Layer C00
M3
G1X-0.44Y0.03
G1X-0.42Y0.12
G1X-0.41Y0.2
G1X-0.36Y0.28
G1X-0.07Y0.07
G1X3.3Y0.01
G1X-0.35Y-0.31
G1X-0.4Y-0.21
G1X-0.42Y-0.14
G1X-0.43Y-0.05
M5
G0X3.11Y0.98
; Layer C00
M3
G1X1.09
M5
G0X0Y0.41
; Layer C00
M3
G1X-1.09Y0.42
M5
G0X0Y-0
; Layer C00
M3
G1X1.09
M5
G0X0Y-0.42
; Layer C00
M3
G1X-1.09Y-0.41
M5
G0X0.26Y1.95
; Layer C00
M3
G1X-0.1Y-0.05
G1X-0.11Y-0.11
G1X-0.05Y-0.1
G1Y-0.21
G1X0.05Y-0.1
G1X0.11Y-0.11
G1X0.1Y-0.05
G1X0.16Y-0.05
G1X0.26
G1X0.15Y0.05
G1X0.11Y0.05
G1X0.1Y0.11
G1X0.05Y0.1
G1Y0.21
G1X-0.05Y0.1
G1X-0.1Y0.11
G1X-0.11Y0.05
M5
G0X-0.62Y0.34
; Layer C00
M3
G1X-0.05Y0.11
G1X-0.16Y0.15
G1X1.09
M5
G0X-2.31Y-0.38
; Layer C00
M3
G1X-0.8
M5
G0X0.4Y-0.4
; Layer C00
M3
G1Y0.8
M5
G0X0.53Y0.35
; Layer C00
M3
G1X-0.31Y0.37
G1X-0.37Y0.3
G1X-0.42Y0.23
G1X-0.23Y0.09
G1X-0.24Y0.06
G1X-0.25Y0.04
G1X-0.25Y0.01
G1X-0.26Y-0.01
G1X-0.25Y-0.04
G1X-0.24Y-0.06
G1X-0.23Y-0.09
G1X-0.42Y-0.23
G1X-0.37Y-0.3
G1X-0.31Y-0.37
G1X-0.23Y-0.43
G1X-0.08Y-0.23
G1X-0.06Y-0.24
G1X-0.04Y-0.25
G1X-0.01Y-0.25
G1X0.01Y-0.26
G1X0.04Y-0.24
G1X0.06Y-0.24
G1X0.08Y-0.23
G1X0.23Y-0.43
G1X0.31Y-0.37
G1X0.37Y-0.3
G1X0.42Y-0.24
G1X0.23Y-0.08
G1X0.24Y-0.06
G1X0.25Y-0.04
G1X0.26Y-0.01
G1X0.25Y0.01
G1X0.25Y0.04
G1X0.24Y0.06
G1X0.23Y0.08
G1X0.42Y0.24
G1X0.37Y0.3
G1X0.31Y0.37
G1X0.23Y0.43
G1X0.08Y0.23
G1X0.06Y0.24
G1X0.04Y0.24
G1X0.01Y0.26
G1X-0.01Y0.25
G1X-0.04Y0.25
G1X-0.06Y0.24
G1X-0.08Y0.23
G1X-0.23Y0.43
M5
G0X-4.41Y10.81
; Layer C00
M3
G1X0.19Y0.06
G1X0.17Y0.09
G1X0.16Y0.13
G1X0.12Y0.15
G1X0.09Y0.17
G1X0.06Y0.19
G1X0.02Y0.21
G1X-0.02Y0.2
G1X-0.06Y0.19
G1X-0.09Y0.17
G1X-0.12Y0.16
G1X-0.16Y0.12
G1X-0.17Y0.09
G1X-0.19Y0.06
G1X-0.2Y0.02
G1X-0.21Y-0.02
G1X-0.19Y-0.06
G1X-0.17Y-0.09
G1X-0.15Y-0.12
G1X-0.13Y-0.16
G1X-0.09Y-0.17
G1X-0.06Y-0.19
G1X-0.02Y-0.2
G1X0.02Y-0.21
G1X0.06Y-0.19
G1X0.09Y-0.17
G1X0.13Y-0.15
G1X0.15Y-0.13
G1X0.17Y-0.09
G1X0.19Y-0.06
G1X0.21Y-0.02
G1X0.2Y0.02
M5
G0X49.83Y1
; Layer C00
M3
G1X0.03Y-0.21
G1X0.05Y-0.19
G1X0.1Y-0.17
G1X0.12Y-0.15
G1X0.15Y-0.13
G1X0.18Y-0.09
G1X0.19Y-0.06
G1X0.2Y-0.02
G1X0.21Y0.02
G1X0.19Y0.06
G1X0.17Y0.09
G1X0.15Y0.13
G1X0.12Y0.15
G1X0.1Y0.17
G1X0.06Y0.19
G1X0.02Y0.21
G1X-0.02Y0.2
G1X-0.06Y0.19
G1X-0.1Y0.17
G1X-0.12Y0.16
G1X-0.15Y0.12
G1X-0.17Y0.09
G1X-0.19Y0.06
G1X-0.21Y0.02
G1X-0.2Y-0.02
G1X-0.19Y-0.06
G1X-0.18Y-0.09
G1X-0.15Y-0.12
G1X-0.12Y-0.16
G1X-0.1Y-0.17
G1X-0.05Y-0.19
G1X-0.03Y-0.2
M5
M9
G1S0
; return to starting pos
G0 X-52.33Y-56.01
M2
